/* XPM */
static char *code[] = {
/* columns rows colors chars-per-pixel */
"512 512 157 2 ",
"   c None",
".  c #CC4F08",
"X  c #CC5007",
"o  c #CE530A",
"O  c #D0560D",
"+  c #D2590F",
"@  c #D45D12",
"#  c #D76115",
"$  c #D86417",
"%  c #DA6619",
"&  c #DC6A1C",
"*  c #E06F1F",
"=  c #E0711F",
"-  c #DF6F20",
";  c #DF7020",
":  c #E06F21",
">  c #E27423",
",  c #E57827",
"<  c #E67B29",
"1  c #E87E2B",
"2  c #EA812E",
"3  c #ED8631",
"4  c #EE8631",
"5  c #ED8432",
"6  c #ED8532",
"7  c #EE8532",
"8  c #ED8632",
"9  c #EE8632",
"0  c #EE8732",
"q  c #EF8732",
"w  c #EE8733",
"e  c #EC8530",
"r  c #ED8531",
"t  c #EE8833",
"y  c #EF8833",
"u  c #EF8933",
"i  c #EE8934",
"p  c #EF8934",
"a  c #EF8A34",
"s  c #EF8B36",
"d  c #EF8934",
"f  c #F08832",
"g  c #F08934",
"h  c #F08A34",
"j  c #F18A34",
"k  c #F08A35",
"l  c #F08B35",
"z  c #F18B35",
"x  c #F08A36",
"c  c #F08B36",
"v  c #F18B36",
"b  c #F08B37",
"n  c #F18B37",
"m  c #F18C35",
"M  c #F18C36",
"N  c #F18D36",
"B  c #F18C37",
"V  c #F18D37",
"C  c #F28D36",
"Z  c #F28D37",
"A  c #F18F36",
"S  c #F18E37",
"D  c #F28E37",
"F  c #F38F37",
"G  c #F18C36",
"H  c #F08C38",
"J  c #F18D38",
"K  c #F18D39",
"L  c #F38D38",
"P  c #F18E38",
"I  c #F28E38",
"U  c #F38E38",
"Y  c #F28F38",
"T  c #F38F38",
"R  c #F28F39",
"E  c #F38F39",
"W  c #F28E38",
"Q  c #F29038",
"!  c #F39038",
"~  c #F39039",
"^  c #F39139",
"/  c #F3903A",
"(  c #F3913A",
")  c #F3913B",
"_  c #F3923B",
"`  c #F4903A",
"'  c #F4913A",
"]  c #F5913B",
"[  c #F4923A",
"{  c #F4923B",
"}  c #F5923B",
"|  c #F5933B",
" . c #F5923C",
".. c #F5933C",
"X. c #F5933D",
"o. c #F6933C",
"O. c #F6933E",
"+. c #F6943C",
"@. c #F6943D",
"#. c #F6953D",
"$. c #F7953D",
"%. c #F7963D",
"&. c #F6953E",
"*. c #F7953E",
"=. c #F7963E",
"-. c #F7973E",
";. c #F7963F",
":. c #F7973F",
">. c #F39039",
",. c #F8963E",
"<. c #F8973E",
"1. c #F8963F",
"2. c #F8973F",
"3. c #F9973F",
"4. c #F7983F",
"5. c #F8983E",
"6. c #F8983F",
"7. c #F9983F",
"8. c #F9993F",
"9. c #F89740",
"0. c #F99740",
"q. c #F89840",
"w. c #F99840",
"e. c #F99940",
"r. c #F99841",
"t. c #F99941",
"y. c #FA9940",
"u. c #FA9941",
"i. c #F89A40",
"p. c #F99A41",
"a. c #FA9A40",
"s. c #FA9B40",
"d. c #FA9A41",
"f. c #FA9B41",
"g. c #F99942",
"h. c #FA9A42",
"j. c #FA9B42",
"k. c #FB9B42",
"l. c #FC9B42",
"z. c #FA9C42",
"x. c #FB9C42",
"c. c #FB9C43",
"v. c #FB9D43",
"b. c #FC9B44",
"n. c #FB9D44",
"m. c #FC9D44",
"M. c #FC9E44",
"N. c #FD9E44",
"B. c #FC9F44",
"V. c #FC9F45",
"C. c #FD9F45",
"Z. c #FDA044",
"A. c #FDA045",
"S. c #FDA046",
"D. c #FDA146",
"F. c #FEA146",
"G. c #FDA246",
/* pixels */
"                                                                                                                                                                                                                                                                                                                                                                                                                                                                                                                                                                                                                                                                                                                                                                                                                                                                                                                                                                                                                                                                ",
"                                                                                                                                                                                                                                                                                                                                                                                                                                                                                                                                                                                                                                                                                                                                                                                                                                                                                                                                                                                                                                                                ",
"                                                                                                                                                                                                                                                                                                                                                                                                                                                                                                                                                                                                                                                                                                                                                                                                                                                                                                                                                                                                                                                                ",
"                                                                                                                                                                                                                                                                                                                                                                                                                                                                                                                                                                                                                                                                                                                                                                                                                                                                                                                                                                                                                                                                ",
"                                                                                                                                                                                                                                                                                                                                                                                                                                                                                                                                                                                                                                                                                                                                                                                                                                                                                                                                                                                                                                                                ",
"                                                                                                                                                                                                                                                                                                                                                                                                                                                                                                                                                                                                                                                                                                                                                                                                                                                                                                                                                                                                                                                                ",
"                                                                                                                                                                                                                                                                                                                                                                                                                                                                                                                                                                                                                                                                                                                                                                                                                                                                                                                                                                                                                                                                ",
"                                                                                                                                                                                                                                                                                                                                                                                                                                                                                                                                                                                                                                                                                                                                                                                                                                                                                                                                                                                                                                                                ",
"                                                                                                                                                                                                                                                                                                                                                                                                                                                                                                                                                                                                                                                                                                                                                                                                                                                                                                                                                                                                                                                                ",
"                                                                                                                                                                                                                                                                                                                                                                                                                                                                                                                                                                                                                                                                                                                                                                                                                                                                                                                                                                                                                                                                ",
"                                                                                                                                                                                                                                                                                                                                                                                                                                                                                                                                                                                                                                                                                                                                                                                                                                                                                                                                                                                                                                                                ",
"                                                                                                                                                                                                                                                                                                                                                                                                                                                                                                                                                                                                                                                                                                                                                                                                                                                                                                                                                                                                                                                                ",
"                                                                                                                                                                                                                                                                                                                                                                                                                                                                                                                                                                                                                                                                                                                                                                                                                                                                                                                                                                                                                                                                ",
"                                                                                                                                                                                                                                                                                                                                                                                                                                                                                                                                                                                                                                                                                                                                                                                                                                                                                                                                                                                                                                                                ",
"                                                                                                                                                                                                                                                                                                                                                                                                                                                                                                                                                                                                                                                                                                                                                                                                                                                                                                                                                                                                                                                                ",
"                                                                                                                                                                                                                                                                                                                                                                                                                                                                                                                                                                                                                                                                                                                                                                                                                                                                                                                                                                                                                                                                ",
"                                                                                                                                                                                                                                                                                                                                                                                                                                                                                                                                                                                                                                                                                                                                                                                                                                                                                                                                                                                                                                                                ",
"                                                                                                                                                                                                                                                                                                                                                                                                                                                                                                                                                                                                                                                                                                                                                                                                                                                                                                                                                                                                                                                                ",
"      A.A.A.A.A.A.A.A.A.A.A.A.A.A.A.A.A.C.C.C.C.C.C.M.C.C.C.C.C.C.C.C.C.C.C.C.C.C.C.C.C.                                                                                                                                                                                                                                                                                                                                                                                                                                                                                                                                                                                                                                                                                                                                                                                                                                                                                , , , , , , , , , , , , , , , , , , , , , , , , , , , , , , , , , > > > > > > > >       ",
"    A.A.A.A.A.A.A.A.A.A.A.A.A.A.A.A.A.C.C.C.C.C.C.M.M.C.C.C.C.C.C.C.C.C.C.C.C.C.C.C.C.M.M.                                                                                                                                                                                                                                                                                                                                                                                                                                                                                                                                                                                                                                                                                                                                                                                                                                                                            , , , , , , , , , , , , , , , , , , , , , > > > > , > , , > > > > > > > > > > > > > >     ",
"    A.A.A.A.A.A.A.A.A.A.A.A.A.A.A.A.C.C.C.C.C.C.C.C.C.C.C.C.C.C.C.C.C.C.C.C.C.C.C.C.M.M.v.v.                                                                                                                                                                                                                                                                                                                                                                                                                                                                                                                                                                                                                                                                                                                                                                                                                                                                        , , , , , , , , , , , , , , , , , , , , , , , , > > > > > > , , , > > > > > > > > > > >     ",
"    A.A.A.A.A.A.A.A.A.A.A.A.A.A.A.C.C.C.C.C.C.C.C.C.C.C.C.C.C.C.C.C.C.C.C.C.C.C.C.M.M.v.v.v.v.                                                                                                                                                                                                                                                                                                                                                                                                                                                                                                                                                                                                                                                                                                                                                                                                                                                                    , , , , , , , , , , , , , , , , , , , , , > > , , > > > > > > , , > > > > > > > > > > > >     ",
"    A.A.A.A.A.A.A.A.A.A.A.A.A.A.C.C.C.C.C.C.C.C.C.C.C.M.C.C.C.C.C.C.C.C.C.C.C.C.M.M.v.v.v.v.v.v.                                                                                                                                                                                                                                                                                                                                                                                                                                                                                                                                                                                                                                                                                                                                                                                                                                                                , , , , , , , , , , , , , , , , , , > > > > > > , , , > > , > > , > > > > > > > > > > > > >     ",
"    A.A.A.A.A.A.A.A.A.A.A.A.A.C.C.C.C.C.C.C.C.C.C.C.C.M.C.C.C.C.C.C.C.C.C.C.C.M.M.v.v.v.v.v.v.v.v.                                                                                                                                                                                                                                                                                                                                                                                                                                                                                                                                                                                                                                                                                                                                                                                                                                                            , , , , , , , , , , , , , , , , , , , > > > > > > , , , > > , , , > > > > > > > > > > > > > >     ",
"    A.A.A.A.A.A.A.A.A.A.A.A.C.C.C.C.C.C.C.C.C.C.C.M.M.M.C.C.C.M.C.C.C.C.C.C.M.M.v.v.v.v.v.v.v.v.v.v.                                                                                                                                                                                                                                                                                                                                                                                                                                                                                                                                                                                                                                                                                                                                                                                                                                                        , , , , , , , , , , , , , , , , , , , > > > > > > > > , , > , , , > > > > > > > > > > > > > > >     ",
"    A.A.A.A.A.A.A.A.A.A.A.C.C.C.C.C.C.C.C.C.C.C.C.C.C.M.C.C.v.M.C.C.C.M.C.M.M.v.v.v.v.v.v.v.v.v.v.v.v.                                                                                                                                                                                                                                                                                                                                                                                                                                                                                                                                                                                                                                                                                                                                                                                                                                                    , , , , , , , , , , , , , , , , , , > , > > > > > > > > , , , , , > > > > > > > > > > > > > > > >     ",
"    A.A.A.A.A.A.A.A.A.A.C.C.C.C.C.C.C.C.C.C.M.M.C.C.C.C.C.C.C.C.C.C.C.M.M.M.v.v.v.v.v.v.v.v.v.v.v.v.v.v.                                                                                                                                                                                                                                                                                                                                                                                                                                                                                                                                                                                                                                                                                                                                                                                                                                                , , , , , , , , , , , , , , , , , , > > > > > > , > > , > > , , , > > > > > > > > > > > > > > > > >     ",
"    A.A.A.A.A.A.A.A.A.C.C.C.C.C.C.C.C.C.C.C.C.M.C.C.C.C.C.C.C.C.C.C.C.M.M.v.v.v.v.v.v.v.v.v.v.v.v.v.v.v.v.                                                                                                                                                                                                                                                                                                                                                                                                                                                                                                                                                                                                                                                                                                                                                                                                                                            , , , , , , , , , , , , , , , , , , > > > , > > > , > > , > , , , > > > > > > > > > > > > > > > > > >     ",
"    A.A.A.A.A.A.A.A.C.C.C.C.C.C.C.C.C.C.C.C.C.C.C.C.C.C.C.C.C.C.C.C.M.M.v.v.v.v.v.v.v.v.v.v.v.v.v.v.v.v.v.v.                                                                                                                                                                                                                                                                                                                                                                                                                                                                                                                                                                                                                                                                                                                                                                                                                                        , , , , , , , , , , , , , , , , , , , , , , , , > > > > , , > > , > > > > > > > > > > > > > > > > > > >     ",
"    A.A.A.A.A.A.A.C.C.C.C.C.C.C.C.C.C.C.C.C.C.C.C.C.C.C.C.C.C.M.C.M.M.v.v.v.v.v.v.v.v.v.k.v.v.v.v.v.v.v.v.k.k.                                                                                                                                                                                                                                                                                                                                                                                                                                                                                                                                                                                                                                                                                                                                                                                                                                    , , , , , , , , , , , , , , , , , , > , , , , , , > > > > , , > > > > > > > > > > > > > > > > > > > > > >     ",
"    A.A.A.A.A.A.C.C.C.C.C.C.C.C.C.C.C.C.C.C.C.C.C.M.M.C.C.C.C.M.M.M.v.v.v.v.v.v.v.v.v.v.k.v.v.v.v.v.v.v.k.k.k.k.                                                                                                                                                                                                                                                                                                                                                                                                                                                                                                                                                                                                                                                                                                                                                                                                                                , , , , , , , , , , , , , , , , , , > > , , > > , , , > > > > , > > > > > > > > > > > > > > > > > > > > > >     ",
"    A.A.A.A.A.C.C.C.C.C.C.C.C.C.C.C.C.C.C.C.C.C.C.C.C.C.C.C.M.M.M.v.v.v.v.v.v.v.v.v.v.v.v.v.v.v.v.v.v.k.k.k.k.k.k.                                                                                                                                                                                                                                                                                                                                                                                                                                                                                                                                                                                                                                                                                                                                                                                                                            , , , , , , , , , , , , , , , , , , > > > , , > > , , , , > > > , > > > > > > > > > > > > > > > > > > > > > >     ",
"    A.A.A.A.C.C.C.C.C.C.C.C.M.C.C.C.C.C.M.C.C.C.C.C.C.C.C.C.M.M.v.v.v.v.v.v.v.v.v.v.v.v.v.v.v.v.v.v.k.k.k.k.k.k.k.k.                                                                                                                                                                                                                                                                                                                                                                                                                                                                                                                                                                                                                                                                                                                                                                                                                        , , , , , , , , , , , , , , , , , , , , , , , , > > > > > > , , , > > > > > > > > > > > > > > > > > > > > > > >     ",
"    A.A.A.C.C.C.C.C.C.C.C.M.M.C.C.C.C.C.M.C.C.C.C.C.C.C.C.M.M.v.v.v.v.v.v.v.v.v.v.v.v.v.k.v.v.v.v.k.k.k.k.k.k.k.k.k.k.                                                                                                                                                                                                                                                                                                                                                                                                                                                                                                                                                                                                                                                                                                                                                                                                                    , , , , , , , , , , , , , , , , , , > > > , , , , > > > > > > , , > > > > > > > > > > > > > > > > > > > > > > > >     ",
"    A.A.C.C.C.C.C.C.C.C.C.C.C.C.C.C.C.C.M.M.C.C.C.C.C.C.M.M.v.v.v.v.v.v.v.v.v.v.v.v.v.v.v.v.v.v.k.k.k.k.k.k.k.k.k.k.k.k.                                                                                                                                                                                                                                                                                                                                                                                                                                                                                                                                                                                                                                                                                                                                                                                                                , , , , , , , , , , , , , , , , , , > > > > > > , > > > > , > > , > > > > > > > > > > > > > > > > > > > > > > > > >     ",
"    A.C.C.C.C.C.C.C.C.C.C.C.C.C.M.C.C.C.C.M.C.C.C.C.C.M.M.v.v.v.v.v.v.v.v.v.v.v.v.v.v.v.v.v.v.k.k.k.k.k.k.k.k.k.k.k.k.k.k.                                                                                                                                                                                                                                                                                                                                                                                                                                                                                                                                                                                                                                                                                                                                                                                                            , , , , , , , , , , , , , , , , , , > > > > > > > , > > > > , , , > > > > > > > > > > > > > > > > > > > > > > > > > >     ",
"    C.C.C.C.C.C.C.C.C.C.C.C.C.C.M.C.C.C.C.C.C.C.C.C.M.M.v.v.v.v.v.v.v.v.v.v.v.v.v.v.v.v.v.v.k.k.k.k.k.k.k.k.k.k.k.k.k.k.k.k.                                                                                                                                                                                                                                                                                                                                                                                                                                                                                                                                                                                                                                                                                                                                                                                                        , , , , , , , , , , , , , , , , , , > > > , , , > > > > > > > , , > > > > > > > > > > > > > > > > > > > > > > > > > > >     ",
"    C.C.C.C.C.C.C.C.C.C.C.C.C.C.C.C.C.C.C.C.C.C.C.M.M.v.v.v.v.v.v.v.v.v.v.v.v.v.v.v.v.v.v.k.k.k.k.k.k.k.k.k.k.k.k.k.k.k.k.k.k.                                                                                                                                                                                                                                                                                                                                                                                                                                                                                                                                                                                                                                                                                                                                                                                                    , , , , , , , , , , , , , , , , , , > > > , , , , > > > > > > > , > > > > > > > > > > > > > > > > > > > > > > > > > > > >     ",
"    C.C.C.C.C.C.C.C.C.C.C.C.C.C.C.C.C.C.C.C.C.C.M.M.v.v.v.v.v.v.v.v.v.v.v.v.v.v.v.v.v.v.k.k.k.k.k.k.k.k.k.k.k.k.k.k.k.k.k.k.k.k.                                                                                                                                                                                                                                                                                                                                                                                                                                                                                                                                                                                                                                                                                                                                                                                                , , , , , , , , , , , , , , , , , , > > > > , , , , , > > , > > > > > > > > > > > > > > > > > > > > > > > > > > > > > > > >     ",
"    C.C.C.C.C.C.C.C.C.C.M.v.C.C.C.C.C.C.C.C.C.M.M.v.v.v.v.v.v.v.v.v.v.v.v.v.v.v.v.v.v.k.k.k.k.k.k.k.k.k.k.k.k.k.k.k.k.k.k.k.k.k.k.                                                                                                                                                                                                                                                                                                                                                                                                                                                                                                                                                                                                                                                                                                                                                                                            , , , , , , , , , , , , , , , , , , > , , , > , , , , , > > , , , > > > > > > > > > > > > > > > > > > > > > > > > > > > > > >     ",
"    C.C.C.C.C.C.C.C.C.C.C.M.C.C.C.v.C.C.C.C.M.M.v.v.v.v.v.v.v.v.v.v.v.v.v.v.v.v.v.v.k.k.k.k.k.k.k.k.k.k.k.k.k.k.k.k.k.k.k.k.k.k.k.k.                                                                                                                                                                                                                                                                                                                                                                                                                                                                                                                                                                                                                                                                                                                                                                                        , , , , , , , , , , , , , , , , , , > > > > > > > , , , , , , , , > > > > > > > > > > > > > > > > > > > > > > > > > > > > > > >     ",
"    C.C.C.C.C.C.C.C.C.C.M.M.C.C.M.M.C.C.C.M.M.v.v.v.v.v.v.v.v.v.v.v.v.v.v.v.v.v.v.k.k.k.k.k.k.k.k.k.k.k.k.k.k.k.k.k.k.k.k.k.k.k.k.k.6.                                                                                                                                                                                                                                                                                                                                                                                                                                                                                                                                                                                                                                                                                                                                                                                    , , , , , , , , , , , , , , , , , , , > , > > > > , > , , , , , , > > > > > > > > > > > > > > > > > > > > > > > > > > > > > > > >     ",
"    C.C.C.C.C.C.C.C.C.C.C.C.C.C.C.C.C.C.M.M.v.v.v.v.v.v.v.v.v.v.v.v.v.v.v.v.v.v.k.k.k.k.k.k.k.k.k.k.k.k.k.k.k.k.k.k.k.k.k.k.k.k.k.k.k.4.                                                                                                                                                                                                                                                                                                                                                                                                                                                                                                                                                                                                                                                                                                                                                                                , , , , , , , , , , , , , , , , , , , , , , > > > > > > > > , > , > > > > > > > > > > > > > > > > > > > > > > > > > > > > > ; ; ; >     ",
"    C.C.C.C.C.C.C.C.C.M.C.C.C.C.C.C.C.M.M.v.v.v.v.v.v.v.v.v.v.v.v.v.v.v.v.v.v.k.k.k.k.k.k.k.k.k.k.k.k.k.k.k.k.k.k.k.k.k.k.k.k.6.k.k.k.6.k.                                                                                                                                                                                                                                                                                                                                                                                                                                                                                                                                                                                                                                                                                                                                                                            , , , , , , , , , , , , , , , , , , > , , , , > > > > > > > > > > > > > > > > > > > > > > > > > > > > > > > > > > > > > > > > ; ; ; >     ",
"    C.C.C.C.C.C.C.C.C.M.C.C.C.C.C.C.M.M.v.v.v.v.v.v.v.v.v.v.v.v.v.v.v.v.v.v.k.k.k.k.k.k.k.k.k.k.k.k.k.k.k.k.k.k.k.k.k.k.k.k.k.k.6.6.6.k.k.k.                                                                                                                                                                                                                                                                                                                                                                                                                                                                                                                                                                                                                                                                                                                                                                        , , , , , , , , , , , , , , , , , , > > > > , , > > > > , , > > , > > > > > > > > > > > > > > > > > > > > > > > > > > > > ; ; ; ; ; > >     ",
"    C.C.C.C.C.C.C.C.M.M.C.C.C.C.C.M.M.v.v.v.v.v.v.v.v.v.v.v.v.v.v.v.k.k.v.k.k.k.k.k.k.k.k.k.k.k.k.k.k.k.k.k.k.k.k.k.k.k.k.6.k.k.6.6.6.6.k.k.k.                                                                                                                                                                                                                                                                                                                                                                                                                                                                                                                                                                                                                                                                                                                                                                    , , , , , , , , , , , , , , , , , , > > > > > , , > > > > , , > > > > > > > > > > > > > > > > > > > > > > > > > > > > > > ; ; ; ; > ; > >     ",
"    C.C.C.C.C.C.C.C.C.C.C.C.C.C.M.M.v.v.v.v.v.v.v.v.v.k.v.v.v.v.v.v.v.k.k.k.k.k.k.k.k.k.k.k.k.k.k.k.k.k.k.k.k.k.k.k.k.k.6.6.k.k.6.6.k.k.k.k.k.9.                                                                                                                                                                                                                                                                                                                                                                                                                                                                                                                                                                                                                                                                                                                                                                , , , , , , , , , , , , , , , , , , > > > > > , , , > > > , , , > > > > > > > > > > > > > > > > > > > > > > > > > > > > > > ; ; > > > > > >     ",
"    M.M.C.C.C.C.C.C.C.C.C.C.C.M.M.v.v.v.v.v.v.v.v.v.v.v.v.v.v.v.v.v.v.k.k.k.k.k.k.k.k.k.k.k.k.k.k.k.k.k.k.k.k.k.k.k.k.6.6.6.6.k.k.k.k.k.9.k.k.k.6.                                                                                                                                                                                                                                                                                                                                                                                                                                                                                                                                                                                                                                                                                                                                                            , , , , , , , , , , , , , , , , , , > > > > > > , , , > > > > , , > > > > > > > > > > > > > > > > > > > > > > > > > > > > > > > ; > > > > > :     ",
"    C.C.C.C.C.C.C.M.C.C.C.M.M.M.v.v.v.v.v.v.v.v.v.v.v.v.v.v.v.v.v.v.k.k.k.k.k.k.k.k.k.k.k.k.k.k.k.k.k.k.k.k.k.k.k.k.6.6.6.6.6.6.6.6.k.9.k.k.:.:.:.:.                                                                                                                                                                                                                                                                                                                                                                                                                                                                                                                                                                                                                                                                                                                                                        , , , , , , , , , , , , , , , , , , > > > , , , , , > > > > , , , > > > > > > > > > > > > > > > > > > > > > > > > > > > > > > > ; ; ; > > > > :     ",
"    C.C.C.C.M.M.C.C.C.C.C.v.M.v.v.v.v.v.v.v.v.v.v.v.v.v.v.v.v.v.v.k.k.k.k.k.k.k.k.k.k.k.k.k.k.k.k.k.k.k.k.k.k.k.k.6.6.k.6.6.6.6.6.6.9.k.k.k.9.:.:.:.4.                                                                                                                                                                                                                                                                                                                                                                                                                                                                                                                                                                                                                                                                                                                                                    , , , , , , , , , , , , , , , , , , > > > , , , , , , > > > > , , > > > > > > > > > > > > > > > > > > > > > > > > > > > > > > > > ; ; > > > > > :     ",
"    C.C.C.C.C.C.C.C.C.C.M.M.v.v.v.v.v.v.v.v.v.v.v.v.v.v.v.v.v.v.k.k.k.k.k.k.k.k.k.k.k.k.k.k.k.k.k.k.k.k.k.k.k.k.k.k.k.k.k.k.k.k.6.2.9.k.k.k.6.:.6.6.6.9.                                                                                                                                                                                                                                                                                                                                                                                                                                                                                                                                                                                                                                                                                                                                                , , , , , , , , , , , , , , , , , , > > > > , , , , > > > , > > , > > > > > > > > > > > > > > > > > > > > > > > > > > > > > ; ; > ; > ; > > > > > :     ",
"    C.C.C.C.C.C.C.C.C.M.M.v.v.v.v.v.v.v.v.v.v.v.v.v.v.v.v.v.v.k.k.k.k.k.k.k.k.k.k.k.k.k.k.k.k.k.k.k.k.k.k.k.k.6.k.k.k.k.k.k.k.k.2.:.9.k.k.6.6.6.6.6.6.2.2.                                                                                                                                                                                                                                                                                                                                                                                                                                                                                                                                                                                                                                                                                                                                            , , , , , , , , , , , , , , , , , , > > > , > , , , > > > > , , , > > > > > > > > > > > > > > > > > > > > > > > > > > > > > ; ; ; ; ; ; ; > > > > > :     ",
"    C.C.C.C.C.C.C.C.M.M.v.v.v.v.v.v.v.v.v.v.v.v.v.v.k.v.v.v.k.k.k.k.k.k.k.k.k.k.k.k.k.k.k.k.k.k.k.k.k.k.k.k.6.6.k.k.k.k.k.k.k.k.k.k.k.k.6.6.6.6.6.6.2.2.2.2.                                                                                                                                                                                                                                                                                                                                                                                                                                                                                                                                                                                                                                                                                                                                        , , , , , , , , , , , , , , , , , , > > > > , , > > , , > > > , , > > > > > > > > > > > > > > > > > > > > > > > > > > > > ; ; ; ; ; ; ; ; ; - - > > > :     ",
"    C.C.C.C.C.C.C.M.M.v.v.v.v.v.v.v.v.v.v.v.v.k.v.v.v.v.v.k.k.k.k.k.k.k.k.k.k.k.k.k.k.k.k.k.k.k.k.k.k.k.k.6.6.6.k.k.k.k.k.k.2.9.k.k.k.6.6.6.6.6.6.2.2.2.2.2.2.                                                                                                                                                                                                                                                                                                                                                                                                                                                                                                                                                                                                                                                                                                                                    , , , , , , , , , , , , , , , , , , > > > > > > > , , , , > > > , > > > > > > > > > > > > > > > > > > > > > > > > > > > > ; ; > > ; ; > ; ; - - - : : > :     ",
"    C.C.C.C.C.C.M.M.v.v.v.v.v.v.v.v.v.v.v.v.v.v.v.v.v.v.k.k.k.k.k.k.k.k.k.k.k.k.k.k.k.k.k.k.k.k.k.k.k.k.k.k.k.6.k.k.k.k.6.2.:.:.k.k.6.6.6.6.6.6.2.2.2.2.2.2.2.6.                                                                                                                                                                                                                                                                                                                                                                                                                                                                                                                                                                                                                                                                                                                                , , , , , , , , , , , , , , , , , , , , > > > > > > > , , > > > > > > > > > > > > > > > > > > > > > > > > > > > > > > > > > ; ; > > > > > > - - - - - * > :     ",
"    C.C.C.C.C.M.M.v.v.v.v.v.v.v.k.v.v.v.v.v.v.v.v.v.v.k.k.k.k.k.k.k.k.k.k.k.k.k.k.k.k.k.k.k.k.k.k.k.k.6.k.k.k.k.k.k.k.6.2.:.:.:.k.6.6.6.6.6.6.2.2.2.2.2.2.2.2.:.2.                                                                                                                                                                                                                                                                                                                                                                                                                                                                                                                                                                                                                                                                                                                            , , , , , , , , , , , , , , , , , , , , , > > , , > > > > , > > > > > > > > > > > > > > > > > > > > > > > > > > > > > > > > > > ; > > > > > : - - - - & & > :     ",
"    C.C.C.C.M.M.v.v.v.v.v.v.v.v.v.v.v.v.v.v.v.v.v.v.k.k.k.k.k.k.k.k.k.k.k.k.k.k.k.k.k.k.k.k.k.k.k.k.6.6.k.k.k.k.6.6.k.k.k.k.k.k.6.6.6.6.6.6.2.2.2.2.2.2.2.2.:.:.:.:.                                                                                                                                                                                                                                                                                                                                                                                                                                                                                                                                                                                                                                                                                                                        , , , , , , , , , , , , , , , , , , > > > > > > , , > > > > , , , > > > > > > > > > > > > > > > > > > > > > > > > > > > > > > > > > ; ; ; ; : : > > > > > > > -     ",
"    C.C.C.M.M.v.v.v.v.v.v.v.v.v.v.v.v.v.k.v.v.v.v.k.k.k.k.k.k.k.k.k.k.k.k.k.k.k.k.k.k.k.k.k.k.k.k.k.k.6.k.k.k.k.6.6.k.k.k.k.k.6.6.6.6.6.6.2.2.2.2.2.2.2.2.:.:.:.:.:.                                                                                                                                                                                                                                                                                                                                                                                                                                                                                                                                                                                                                                                                                                                        , , , , , , , , , , , , , , , , , > > > > > > > , , > > > > , , > > > > > > > > > > > > > > > > > > > > > > > > > > > > > > > > > > ; ; ; - : : > > > > > > ; -     ",
"    C.C.M.M.v.v.v.v.v.v.v.v.v.v.v.v.v.v.v.v.v.v.k.k.k.k.k.k.k.k.k.k.k.k.k.k.k.k.k.k.k.k.k.k.k.k.k.k.6.6.6.6.k.k.6.2.:.k.:.:.2.:.6.6.6.6.2.2.2.2.2.2.2.2.:.:.:.:.:.:.:.                                                                                                                                                                                                                                                                                                                                                                                                                                                                                                                                                                                                                                                                                                                    , , , , , , , , , , , , , , , , , > > , , , , > , , , > , > > , > > > > > > > > > > > > > > > > > > > > > > > > > > > > ; ; ; ; ; > > ; ; > > > > > > > > > ; ; -     ",
"    C.M.M.v.v.v.v.v.v.v.v.v.v.v.v.v.v.v.v.v.v.k.k.k.k.k.k.k.k.k.k.k.k.k.k.k.k.k.k.k.k.k.k.k.k.6.k.k.6.6.6.6.k.k.2.:.:.:.:.:.:.:.6.6.6.2.2.2.2.2.2.2.2.:.:.:.:.:.:.:.:.:.                                                                                                                                                                                                                                                                                                                                                                                                                                                                                                                                                                                                                                                                                                                , , , , , , , , , , , , , , , , , > > > , , , , > , , , > , , , > > > > > > > > > > > > > > > > > > > > > > > > > > > > > ; ; ; ; ; ; ; > > > > > > > > * : ; ; - -     ",
"    C.M.v.v.v.v.v.v.v.v.v.v.v.v.v.v.v.v.v.v.k.k.k.k.k.k.k.k.k.k.k.k.k.k.k.k.k.k.k.k.k.k.k.k.k.k.k.k.k.k.6.6.k.9.k.k.k.k.:.:.6.6.6.6.2.2.2.2.2.2.2.2.:.:.:.:.:.:.:.:.:.:.:.                                                                                                                                                                                                                                                                                                                                                                                                                                                                                                                                                                                                                                                                                                            , , , , , , , , , , , , , , , , , > > > , > > , , , , , , > , , > > > > > > > > > > > > > > > > > > > > > > > > > > > > ; ; ; ; ; ; ; ; > > > > > > > > > * & & & - -     ",
"    C.v.v.v.v.v.v.v.v.v.v.v.v.v.v.v.v.v.v.k.k.k.k.k.k.k.k.k.k.k.k.k.k.k.k.k.k.k.k.k.k.k.k.k.k.k.k.k.6.6.6.6.9.k.k.k.k.6.:.:.6.6.6.2.2.2.2.2.2.2.2.:.:.:.:.:.:.:.:.:.:.:.:.:.                                                                                                                                                                                                                                                                                                                                                                                                                                                                                                                                                                                                                                                                                                        , , , , , , , , , , , , , , , , , > > > , , > > , , , , , , > , > > > > > > > > > > > > > > > > > > > > > > > > > > > > > ; ; ; ; ; ; ; > : > : > > > > > > & & & & - -     ",
"    C.v.v.v.v.v.v.v.v.v.v.v.v.v.v.v.v.v.k.k.k.k.k.k.k.k.k.k.k.k.k.k.k.k.k.k.k.k.k.k.k.k.k.k.k.k.6.6.6.6.6.2.9.k.k.k.6.6.6.6.6.6.2.2.2.2.2.2.2.2.:.:.:.:.:.:.:.:.:.:.:.:.:.:.:.                                                                                                                                                                                                                                                                                                                                                                                                                                                                                                                                                                                                                                                                                                    , , , , , , , , , , , , , , , , , > > > > , , > > > > , , > > > > > > > > > > > > > > > > > > > > > > > > > > > > > > > > > > ; ; > > > > > > : : - & > : > > ; - & & - -     ",
"    C.v.v.v.v.v.v.v.v.v.v.v.v.v.v.v.v.k.k.k.k.k.k.k.k.k.k.k.k.k.k.k.k.k.k.k.k.k.k.k.k.6.6.k.k.k.6.6.6.6.2.:.9.k.k.6.6.6.6.6.6.2.2.2.2.2.2.2.2.:.:.:.:.:.:.:.:.:.:.:.:.:.:.:.:.:.                                                                                                                                                                                                                                                                                                                                                                                                                                                                                                                                                                                                                                                                                                , , , , , , , , , , , , , , , , , > , , , > , , > > > > > > > > > > > > > > > > > > > > > > > > > > > > > > > > > > > > > > > > > ; > > > > > > : : & & & * > > ; - - - - -     ",
"    C.v.v.v.v.v.v.v.v.v.v.v.v.v.v.v.k.k.k.k.k.k.k.k.k.k.k.k.k.k.k.k.k.k.k.k.k.k.k.k.k.k.k.k.k.k.6.6.k.k.k.k.k.k.6.6.6.6.6.6.2.2.2.2.2.2.2.2.:.:.:.:.:.:.:.:.:.:.:.:.:.:.:.:.:.:.:.                                                                                                                                                                                                                                                                                                                                                                                                                                                                                                                                                                                                                                                                                            , , , , , , , , , , , , , , , , , , , , , , , > > > > > > > > > > > > > > > > > > > > > > > > > > > > > > > > > > > > > > > > ; ; ; > > > > > > > > > > > > > > ; & & & - - -     ",
"    C.v.v.v.v.v.v.v.v.v.k.v.v.v.v.k.k.k.k.k.k.k.k.k.k.k.k.k.k.k.k.k.k.k.k.k.k.k.k.6.k.k.k.k.k.k.6.6.k.k.k.k.k.6.6.6.6.6.6.2.2.2.2.2.2.2.2.:.:.:.:.:.:.:.:.:.:.:.:.:.:.:.:.:.:.:.:.:.                                                                                                                                                                                                                                                                                                                                                                                                                                                                                                                                                                                                                                                                                        , , , , , , , , , , , , , , , , , > > > , , , , > > > > , , > > > > > > > > > > > > > > > > > > > > > > > > > > > > > > > > > > ; ; > > > > > > > > & : > : ; ; - ; & & - - - -     ",
"    C.v.v.v.v.v.v.v.v.v.v.v.v.v.k.k.k.k.k.k.k.k.k.k.k.k.k.k.k.k.k.k.k.k.k.k.k.k.6.6.k.k.k.k.k.k.6.2.:.k.:.:.2.:.6.6.6.6.2.2.2.2.2.2.2.2.:.:.:.:.:.:.:.:.:.:.:.:.:.:.:.:.:.:.:.:.:.:.:.                                                                                                                                                                                                                                                                                                                                                                                                                                                                                                                                                                                                                                                                                    , , , , , , , , , , , , , , , , , > > > > > > , > > > , , , , , > > > > > > > > > > > > > > > > > > > > > > > > > > > > > ; ; > ; > ; > > > > > > : * & & * - & & - - - - - ; - ;     ",
"    C.v.v.v.v.v.v.v.v.v.v.v.v.k.k.k.k.k.k.k.k.k.k.k.k.k.k.k.k.k.k.k.k.k.k.k.k.6.6.6.6.k.k.k.k.6.2.:.:.:.:.:.:.:.6.6.6.2.2.2.2.2.2.2.2.:.:.:.:.:.:.:.:.:.:.:.:.:.:.:.:.:.:.:.:.:.:.:.:.:.                                                                                                                                                                                                                                                                                                                                                                                                                                                                                                                                                                                                                                                                                , , , , , , , , , , , , , , , , , > > > > > > > , > > > , , , , > > > > > > > > > > > > > > > > > > > > > > > > > > > > > ; ; ; ; ; ; ; > > > > > : * & & & & - - & & & - - - ; - &     ",
"    C.v.v.v.v.v.v.v.v.v.v.v.k.k.k.k.k.k.k.k.k.k.k.k.k.k.k.k.k.k.k.k.k.k.k.k.6.6.6.k.k.k.k.k.6.2.k.k.k.k.:.:.6.6.6.6.2.2.2.2.2.2.2.2.:.:.:.:.:.:.:.:.:.:.:.:.:.:.:.:.:.:.:.:.:.:.:.:.:.:.:.                                                                                                                                                                                                                                                                                                                                                                                                                                                                                                                                                                                                                                                                            , , , , , , , , , , , , , , , , , > > > , , , > > > > > > , , , > > > > > > > > > > > > > > > > > > > > > > > > > > > > ; ; ; ; ; ; ; ; ; - - > > > > & & > ; ; - - - - - > > > > ; =     ",
"    b.v.v.v.v.v.v.v.v.v.v.k.k.k.k.k.k.k.k.k.k.k.k.k.k.k.k.k.k.k.k.k.k.k.k.6.6.k.6.k.k.k.k.k.2.:.k.k.k.6.:.:.6.6.6.2.2.2.2.2.2.2.2.:.:.:.:.:.:.:.:.:.:.:.:.:.:.:.:.:.:.:.:.:.:.:.:.:.o.:.:.:.                                                                                                                                                                                                                                                                                                                                                                                                                                                                                                                                                                                                                                                                        , , , , , , , , , , , , , , , , , > > > , , , , > > > > > > , , > > > > > > > > > > > > > > > > > > > > > > > > > > > > ; ; > > ; ; > ; ; - - - : : > > & & ; ; - - - - ; - > ; > > & *     ",
"    b.v.v.v.v.v.v.v.v.v.k.k.k.k.k.k.k.k.k.k.k.k.k.k.k.k.k.k.k.k.k.k.k.k.6.6.k.k.6.k.k.k.k.2.:.:.k.k.6.6.6.6.6.6.2.2.2.2.2.2.2.2.:.:.:.:.:.:.:.:.:.:.:.:.:.:.:.:.:.:.:.:.:.:.:.:.:.o.:.:.:.:.:.                                                                                                                                                                                                                                                                                                                                                                                                                                                                                                                                                                                                                                                                    , , , , , , , , , , , , , , , , , > > > > , , , , , > > , > > , > > > > > > > > > > > > > > > > > > > > > > > > > > > > > ; ; > > > > > > - - - - - * > > > & ; - - - - - ; ; ; ; & & & &     ",
"    b.v.v.v.v.v.v.v.v.k.k.k.k.k.k.k.k.k.k.k.k.k.k.k.k.k.k.k.k.k.k.k.k.6.6.6.k.k.6.6.k.k.9.:.:.:.k.6.6.6.6.6.6.2.2.2.2.2.2.2.2.:.:.:.:.:.:.:.:.:.:.:.:.:.:.:.:.:.:.:.:.:.:.:.:.:.:.o.o.o.o.:.:.:.                                                                                                                                                                                                                                                                                                                                                                                                                                                                                                                                                                                                                                                                , , , , , , , , , , , , , , , , , > , , , > , , , , , > > , , , > > > > > > > > > > > > > > > > > > > > > > > > > > > > > > > ; > > > > > : - - - - & & > > ; ; - - - - - ; ; > ; ; & & & &     ",
"    b.v.v.v.v.v.v.v.k.k.k.k.k.k.k.k.k.k.k.k.k.k.k.k.k.k.k.k.k.k.k.k.k.6.6.6.k.k.6.6.6.2.k.k.k.k.6.:.:.:.6.6.2.2.2.2.2.2.2.2.:.:.:.:.:.:.:.:.:.:.:.:.:.:.:.:.:.:.:.:.:.:.:.:.:.:.o.o.:.:.:.:.:.:.:.                                                                                                                                                                                                                                                                                                                                                                                                                                                                                                                                                                                                                                                            , , , , , , , , , , , , , , , , , > > > > > > > , , , , , , , , > > > > > > > > > > > > > > > > > > > > > > > > > > > > > > > > > ; ; ; ; : : > > > > > > > ; ; - - - - - ; > > - & ; & & & &     ",
"    b.v.v.v.v.v.v.k.k.k.k.k.k.k.k.k.k.k.k.k.k.k.k.k.k.k.k.k.k.k.k.k.6.6.6.6.k.k.k.6.2.:.k.k.k.6.6.:.:.:.6.2.2.2.2.2.2.2.2.:.:.:.:.:.:.:.:.:.:.:.:.:.:.:.:.:.:.:.:.:.:.:.:.:.:.:.o.o.:.:.:.:.+.:.:.o.                                                                                                                                                                                                                                                                                                                                                                                                                                                                                                                                                                                                                                                        , , , , , , , , , , , , , , , , , , > , > > > > , > , , , , , , > > > > > > > > > > > > > > > > > > > > > > > > > > > > > > > > > > ; ; ; - : : > > > > > > ; ; - - - - - - ; - > ; & & & & & &     ",
"    b.v.v.v.v.v.k.k.k.k.k.k.k.k.k.k.k.k.k.k.k.k.k.k.k.k.k.k.k.k.k.k.k.k.6.k.k.k.k.9.9.9.k.k.6.6.6.6.:.:.2.2.2.2.2.2.2.2.:.:.:.:.:.:.:.:.:.:.:.:.:.:.:.:.:.:.:.:.:.:.:.:.:.o.:.:.o.o.} :.} } } } o.o.o.                                                                                                                                                                                                                                                                                                                                                                                                                                                                                                                                                                                                                                                    , , , , , , , , , , , , , , , , , , , , , > > > > > > > > , > , > > > > > > > > > > > > > > > > > > > > > > > > > > > > ; ; ; ; ; > > ; ; > > > > > > > > > ; ; - - - - - - - - - ; ; : & & & & &     ",
"    b.v.v.v.v.k.k.k.k.k.k.k.k.k.k.k.k.k.k.k.k.k.k.k.k.k.k.k.k.6.k.k.k.k.6.k.k.k.9.i.k.k.k.6.6.6.6.6.:.:.2.2.2.2.2.2.2.:.:.:.:.:.:.:.:.:.:.:.:.:.:.:.:.:.:.:.:.:.:.:.:.:.o.o.:.:.} } } :.} } } } o.o.o.o.                                                                                                                                                                                                                                                                                                                                                                                                                                                                                                                                                                                                                                                , , , , , , , , , , , , , , , , , > , , , , > > > > > > > > > > > > > > > > > > > > > > > > > > > > > > > > > > > > > > > ; ; ; ; ; ; ; > > > > > > > > * : ; ; - - - - - - - - - & & : : & & & - &     ",
"    l.v.v.v.k.k.k.k.k.k.k.k.k.k.k.k.k.k.k.k.k.k.k.k.k.k.k.k.k.k.6.6.6.k.k.k.k.k.k.k.k.k.6.6.6.6.6.6.2.2.2.2.2.2.2.2.:.:.:.:.:.:.:.:.:.:.:.:.:.:.:.:.:.:.:.:.:.:.:.:.:.o.:.:.:.:.:.:.:.:.} +.} o.o.o.o.o.o.                                                                                                                                                                                                                                                                                                                                                                                                                                                                                                                                                                                                                                            , , , , , , , , , , , , , , , , , > > > > , , > > > > , , > > , > > > > > > > > > > > > > > > > > > > > > > > > > > > > ; ; ; ; ; ; ; ; > > > > > > > > > * & & & - - - - - - - - & & & & : : & & & &     ",
"    l.v.v.k.k.k.k.k.k.k.k.k.k.k.k.k.k.k.k.k.k.k.k.k.k.k.k.6.k.k.6.6.6.k.k.k.k.i.k.k.k.6.6.6.6.6.6.2.2.2.2.2.2.2.2.:.:.:.:.:.:.:.:.:.:.:.:.:.:.:.:.:.:.:.:.:.:.:.:.:.o.o.o.o.:.:.:.:.:.:.} } o.o.o.o.o.o.} }                                                                                                                                                                                                                                                                                                                                                                                                                                                                                                                                                                                                                                         , , , , , , , , , , , , , , , , , > > > > > , , > > > > , , > > > > > > > > > > > > > > > > > > > > > > > > > > > > > > > ; ; ; ; ; ; ; > : > : > > > > > > & & & & - - - - - - - & ; & & & : : & & & &     ",
"    k.v.k.k.k.k.k.k.k.k.k.k.k.k.k.k.k.k.k.k.k.k.k.k.k.k.6.6.k.k.6.6.k.k.k.k.9.9.9.9.6.6.6.6.6.6.2.2.2.2.2.2.2.2.:.:.:.:.:.:.:.:.:.:.:.:.:.:.:.:.:.:.:.:.:.:.:.:.:.o.o.o.o.} } } :.:.:.:.o.o.o.o.o.o.o.} } } }                                                                                                                                                                                                                                                                                                                                                                                                                                                                                                                                                                                                                                     , , , , , , , , , , , , , , , , , > > > > > , , , > > > , , , > > > > > > > > > > > > > > > > > > > > > > > > > > > > > > > > ; ; > > > > > > : : - & > : > > ; - & & - - - - - - & & & : : : : - - & & &     ",
"    k.k.k.k.k.k.k.k.k.k.k.k.k.k.k.k.k.k.k.k.k.k.k.k.k.6.6.6.6.k.6.6.6.k.k.k.:.:.:.:.:.:.6.6.6.2.2.2.2.2.2.2.2.:.:.:.:.:.:.:.:.:.:.:.:.:.:.:.:.:.:.:.:.:.:.:.:.:.o.o.o.o.} } } } } } :.o.o.o.o.o.o.o.} } } } } }                                                                                                                                                                                                                                                                                                                                                                                                                                                                                                                                                                                                                                 , , , , , , , , , , , , , , , , , > > > > > > , , , > > > > , , > > > > > > > > > > > > > > > > > > > > > > > > > > > > > > > > > ; > > > > > > : : & & & * > > ; - - - - - - - - & & & : : : : - - - & & &     ",
"    k.k.k.k.k.k.k.k.k.k.k.k.k.k.k.k.k.k.k.k.k.k.k.k.6.6.6.6.6.6.6.6.k.9.k.k.:.:.:.:.6.  6.6.2.2.2.2.2.2.2.2.:.:.:.:.:.:.:.:.:.:.:.:.:.:.:.:.:.:.:.:.:.:.:.:.:.o.o.:.:.:.:.:.:.} } } o.o.o.o.o.o.o.} } } } } } } o.                                                                                                                                                                                                                                                                                                                                                                                                                                                                                                                                                                                                                            , , , , , , , , , , , , , , , , , > > > , , , , , > > > > , , , > > > > > > > > > > > > > > > > > > > > > > > > > > > > ;   ; ; ; ; > > > - - - - > > > * * & ; ; > > ; ; ; > > - & & & - - - & & - - - - & &     ",
"    k.k.k.k.k.k.k.k.k.k.k.k.k.k.k.k.k.k.k.k.k.k.k.6.6.k.6.6.6.6.6.6.9.k.k.k.9.:.:.:.6.    2.2.2.2.2.2.2.2.:.:.:.:.:.:.:.:.:.:.:.:.:.:.:.:.:.:.:.:.:.:.:.:.:.o.o.o.:.:.:.:.:.:.} } } o.o.o.o.o.o.} } } } } } } } } }                                                                                                                                                                                                                                                                                                                                                                                                                                                                                                                                                                                                                         , , , , , , , , , , , , , , , , , > > > , , , , , , > > > > , , > > > > > > > > > > > > > > > > > > > > > > > > > > > > ;     ; ; ; > > > > - - - - > > > * & & - - > > - ; ; - > ; & & & - : & & & - - - - & &     ",
"    k.k.k.k.k.k.k.k.k.k.k.k.k.k.k.k.k.k.k.k.k.k.k.k.k.k.k.k.k.k.6.2.9.k.k.k.6.:.6.6.6.      2.2.2.2.2.2.:.:.:.:.:.:.:.:.:.:.:.:.:.:.:.:.:.:.:.:.:.:.:.:.:.:.o.o.o.o.:.:.:.:.:.:.} } } } o.o.o.} } } } } } } } } } } }                                                                                                                                                                                                                                                                                                                                                                                                                                                                                                                                                                                                                     , , , , , , , , , , , , , , , , , > > > > , , , , > > > , > > , > > > > > > > > > > > > > > > > > > > > > > > > > > > > >       ; > > > > > > > > - & > > > ; & & & - - - - - - - ; ; & & - - : - & & - - & & & &     ",
"    k.k.k.k.k.k.k.k.k.k.k.k.k.k.k.k.k.k.k.k.k.6.k.k.k.k.k.k.k.k.2.:.9.k.k.6.6.6.6.6.6.        2.2.2.2.:.:.:.:.:.:.:.:.:.:.:.:.:.:.:.:.:.:.:.:.:.:.:.:.:.:.:.o.o.o.:.:.:.:.:.:.o.} } } } o.o.} } } } } } } } } } } } } }                                                                                                                                                                                                                                                                                                                                                                                                                                                                                                                                                                                                                 , , , , , , , , , , , , , , , , , > > > , > , , , > > > > , , , > > > > > > > > > > > > > > > > > > > > > > > > > > > > >         > > > > > > > > : * & > > ; ; & & & - - - - - - & & : & & : : - - & & - - & & & &     ",
"    k.k.k.k.k.k.k.k.k.k.k.k.k.k.k.k.k.k.k.k.6.6.k.k.k.k.k.k.k.k.k.k.k.k.6.6.6.6.6.6.2.          2.2.:.:.:.:.:.:.:.:.:.:.:.:.:.:.:.:.:.:.:.:.:.:.:.:.:.o.:.:.:.} } } :.:.:.:.} } o.o.o.o.o.} } } } } } } } } } } } } } } }                                                                                                                                                                                                                                                                                                                                                                                                                                                                                                                                                                                                             , , , , , , , , , , , , , , , , , > > > > , , > > , , > > > , , > > > > > > > > > > > > > > > > > > > > > > > > > > > > >           > > > > > > > > > > > > ; ; - ; > > ; - - - - & & & & & : : - - - & & - & & & & &     ",
"    k.k.k.k.k.k.k.k.k.k.k.k.k.k.k.k.k.k.k.6.6.6.k.k.k.k.k.k.2.9.k.k.k.6.6.6.6.6.6.2.2.            :.:.:.:.:.:.:.:.:.:.:.:.:.:.:.:.:.:.:.:.:.:.:.:.:.o.o.:.:.:.:.} } :.:.:.o.} } o.o.o.o.} } } } } } } } } } } } } } } } } }                                                                                                                                                                                                                                                                                                                                                                                                                                                                                                                                                                                                         , , , , , , , , , , , , , , , , , > > > > > > > , , , , > > > , > > > > > > > > > > > > > > > > > > > > > > > > > > > > >             > > > > > > : > > > > ; ; - - - > ; ; - - - & ; & & & & * - - - - & & & & & & & &     ",
"    k.k.k.k.k.k.k.k.k.k.k.k.k.k.k.k.k.k.k.k.k.6.k.k.k.k.6.2.:.:.k.k.6.6.6.6.6.6.2.2.2.              :.:.:.:.:.:.:.:.:.:.:.:.:.:.:.:.:.:.:.:.:.:.:.o.o.o.:.:.:.+.} } } :.o.o.o.} o.o.o.} } } } } } } } } } } } } } } } } } } }                                                                                                                                                                                                                                                                                                                                                                                                                                                                                                                                                                                                     , , , , , , , , , , , , , , , , , , , > > > > > > > , , > > > > > > > > > > > > > > > > > > > > > > > > > > > > > > > > >               > > > > > : * & & > ; - - - - - - - ; - - & & & : : : - - - - - - - - & & & & & &     ",
"    k.k.k.k.k.k.k.k.k.k.k.k.k.k.k.k.k.6.k.k.k.k.k.k.k.6.2.:.:.:.k.6.6.6.6.6.6.2.2.2.2.                :.:.:.:.:.:.:.:.:.:.:.:.:.:.:.:.:.:.:.:.:.o.o.o.o.:.:.:.+.} } } } o.o.} } o.o.} } } } } } } } } } } } } } } } } } } } } }                                                                                                                                                                                                                                                                                                                                                                                                                                                                                                                                                                                                 , , , , , , , , , , , , , , , , , , , , > > , , > > > > , > > > > > > > > > > > > > > > > > > > > > > > > > > > > > > > >                 : > > > > * & & & & ; - - - - - - - - - & & & : : : : & - - - - - - & & & & & & &     ",
"    k.k.k.k.k.k.k.k.k.k.k.k.k.k.k.k.6.6.k.k.k.k.6.6.k.k.k.k.k.k.6.6.6.6.6.6.2.2.2.2.2.                  :.:.:.:.:.:.:.:.:.:.:.:.:.:.:.:.:.:.:.o.:.:.:.:.:.:.} } :.:.o.o.o.o.o.o.o.} } } } } } } } } } } } } } } } } } } } } } } }                                                                                                                                                                                                                                                                                                                                                                                                                                                                                                                                                                                             , , , , , , , , , , , , , , , , , > > > > > > , , > > > > , , , > > > > > > > > > > > > > > > > > > > > > > > > > > > > >                   : > > > > > > > > > ; ; ; > ; - - - - & & & & - - & & & & - - - - & & & & & & & &     ",
"    k.k.k.k.k.k.k.k.k.k.k.k.k.k.k.k.k.6.k.k.k.k.6.6.k.k.k.k.k.6.6.6.6.6.6.2.2.2.2.2.2.                    :.:.:.:.:.:.:.:.:.:.:.:.:.:.:.:.:.o.o.:.:.:.:.:.:.} } :.o.o.o.o.o.o.o.} } } } } } } } } } } } } } } } } } } } } } } } } (                                                                                                                                                                                                                                                                                                                                                                                                                                                                                                                                                                                         , , , , , , , , , , , , , , , , , > > > > > > > , , > > > > , , > > > > > > > > > > > > > > > > > > > > > > > > > > > > >                     : : > & * > : ; > - - ; - > ; - - - & & & & - & - - & & & - - - & & & & & & & & &     ",
"    k.k.k.k.k.k.k.k.k.k.k.k.k.k.k.k.6.6.6.6.k.k.6.2.:.k.:.:.2.:.6.6.6.6.2.2.2.2.2.2.2.                      :.:.:.:.:.:.:.:.:.:.:.:.:.:.:.o.o.o.:.:.} } } } } } o.o.o.o.o.o.o.} } } } } } } } } } } } } } } } } } } } } } } } } } } (                                                                                                                                                                                                                                                                                                                                                                                                                                                                                                                                                                                     , , , , , , , , , , , , , , , , , > > , , , , > , , , > , > > , > > > > > > > > > > > > > > > > > > > > > > > > > > > > >                       - > > & & * - & & - - - - - & - - & & & & - - - - & & & & & & & & & & & & & & & &     ",
"    k.k.k.k.k.k.k.k.k.k.k.k.k.6.k.k.6.6.6.6.k.k.2.:.:.:.:.:.:.:.6.6.6.2.2.2.2.2.2.2.2.                        :.:.:.:.:.:.:.:.:.:.:.:.:.o.o.o.o.} } } } } } } } o.o.o.o.o.o.} } } } } } } } } } } ( } } } } } } ( } } } } } } } } } } (                                                                                                                                                                                                                                                                                                                                                                                                                                                                                                                                                                                 , , , , , , , , , , , , , , , , , > > > , , , , > , , , > , , , > > > > > > > > > > > > > > > > > > > > > > > > > > > > >                         - > > & & & - & & & & - - - & - & & & & & - : - - & & & & & & & & & & & & & & & &     ",
"    k.k.k.k.k.k.k.k.k.k.k.k.k.k.k.k.k.k.6.6.k.9.k.k.k.k.:.:.6.6.6.6.2.2.2.2.2.2.2.2.:.                          :.:.:.:.:.:.:.:.:.:.:.o.o.:.:.:.} :.:.} :.:.o.o.o.o.o.o.o.} } } } } } } } } } } } } } } } } } } } } } } } } } } } } ( ( (                                                                                                                                                                                                                                                                                                                                                                                                                                                                                                                                                                             , , , , , , , , , , , , , , , , , > > > , > > , , , , , , > , , > > > > > > > > > > > > > > > > > > > > > > > > > > > > ;                           : > > > ; ; - - - - - - - & & ; ; & & & : : - & - - & - - & & & & & & & & & & & &     ",
"    k.k.k.k.k.k.k.k.k.k.k.k.k.k.k.k.6.6.6.6.9.k.k.k.k.6.:.:.6.6.6.2.2.2.2.2.2.2.2.:.:.                            :.:.:.:.:.:.:.:.:.o.o.o.:.:.:.} } :.} :.o.o.o.o.o.o.o.} } } } } } } } } } } } } } } } } } } } } } } } } } E E } ( ( ( ( (                                                                                                                                                                                                                                                                                                                                                                                                                                                                                                                                                                         , , , , , , , , , , , , , , , , , > > > , , > > , , , , , , > , > > > > > > > > > > > > > > > > > > > > > > > > > > > > ;                             : > > ; ; - - - - ; ; - - & & ; & & & * : - - & & - & - & & & & & & & & & & & & &     ",
"    6.k.k.k.k.k.k.k.k.k.k.k.k.k.6.6.6.6.6.2.9.k.k.k.6.6.6.6.6.6.2.2.2.2.2.2.2.2.:.:.:.                              :.:.:.:.:.:.:.:.o.o.o.o.:.:.:.:.:.:.o.o.o.o.o.o.o.} } } } } } } } } } } } } } } } } } } ( } } } } } } E } } ( ( ( ( ( ( (                                                                                                                                                                                                                                                                                                                                                                                                                                                                                                                                                                     , , , , , , , , , , , , , , , , , > > > > , , > > > > , , > > > > > > > > > > > > > > > > > > > > > > > > > > > > > > > >                               : > ; ; - - - - ; ; ; - - > > : : & & & - - - - - - - & & & & & & & & & & & & & &     ",
"    6.k.k.k.k.k.k.k.k.6.6.k.k.k.6.6.6.6.2.:.9.k.k.6.6.6.6.6.6.2.2.2.2.2.2.2.2.:.:.:.:.                                :.:.:.:.:.:.:.o.o.o.:.:.:.:.:.:.o.o.o.o.o.o.o.} } } } } } } } } } } } } } } } ( } } } ( ( } } } } E E } ( ( ( ( ( ( ( ( E                                                                                                                                                                                                                                                                                                                                                                                                                                                                                                                                                                 , , , , , , , , , , , , , , , , , > , , , > , , > > > > > > > > > > > > > > > > > > > > > > > > > > > > > > > > > > > > >                                 : ; ; - - - - - ; ; > ; > > : : : & & & - - - - - - & & & & & & & & & & & & & & &     ",
"    k.k.k.k.k.k.k.k.6.6.6.6.k.k.6.6.k.9.k.k.:.:.:.:.6.6.6.6.2.2.2.2.2.2.2.2.:.:.:.:.:.                                  :.:.:.:.:.:.o.} :.:.:.} } } o.o.o.o.o.o.o.} } } } } } } } } } } } } } } } ( } } } } } } } } } } } } ( ( ( ( ( ( ( ( E E (                                                                                                                                                                                                                                                                                                                                                                                                                                                                                                                                                             , , , , , , , , , , , , , , , , , > > > , , , , , > > > > , , , > > > > > > > > > > > > > > > > > > > > > > > > > > > > >                                   - ; - - - - - ; > > - & ; & & & & & & & & - & & & & & & & & & & & & & & & & & & &     ",
"    k.k.k.k.k.k.k.k.6.6.6.6.k.k.6.6.9.k.k.k.9.:.:.:.6.6.6.2.2.2.2.2.2.2.2.:.:.:.:.:.:.                                    :.:.:.:.:.} } :.:.} } } } o.o.o.o.o.o.} } } } } } } } } } } } } } } } ( ( } } } } } } } } } } } ( ( ( ( ( ( ( ( E E E E E                                                                                                                                                                                                                                                                                                                                                                                                                                                                                                                                                         , , , , , , , , , , , , , , , , , > > > , , , , , , > > > > , , > > > > > > > > > > > > > > > > > > > > > > > > > > > > >                                     - - - - - - - ; - > ; & & & & & & & & - - - - & & & & & & & & & & & & & & & & & &     ",
"    k.k.k.k.k.k.k.k.k.6.k.k.k.k.6.2.9.k.k.k.6.:.6.6.6.6.2.2.2.2.2.2.2.2.:.:.:.:.:.:.:.                                      :.:.o.} } } :.:.:.:.} } } o.o.o.o.} } } } } } } } } } } } } } } } } } } } } } } } } } E E } E E ( ( ( ( ( ( E E E E E E E                                                                                                                                                                                                                                                                                                                                                                                                                                                                                                                                                     , , , , , , , , , , , , , , , , , > > > > , , , , > > > > > > , > > > > > > > > > > > > > > > > > > > > > > > > > > > > ;                                       - - - - - - - - - ; ; : & & & & & - - - - - - & & & & & & & & & & & & & & & & & &     ",
"    k.k.k.k.k.k.k.k.6.6.k.k.k.k.2.:.9.k.k.6.6.6.6.6.6.2.2.2.2.2.2.2.2.:.:.:.:.:.:.:.:.                                        :.o.} } } :.:.:.o.} } } o.o.o.} } } } } } } } } } } } } } } } } ( } } } } } } } } E E E E E E E E ( ( ( E E E E E E E E E                                                                                                                                                                                                                                                                                                                                                                                                                                                                                                                                                 , , , , , , , , , , , , , , , , , > > > , > , , , > > > , > > > > > > > > > > > > > > > > > > > > > > > > > > > > > > > >                                         - - - - - - - - & & : : & & & & - - - - - - & & & & & & & & & & & & & & & & & & &     ",
"    k.k.k.k.k.k.k.k.k.k.k.6.6.2.k.k.k.k.6.6.6.6.6.6.2.2.2.2.2.2.2.2.:.:.:.:.:.:.:.:.:.                                          :.:.:.+.} +.o.o.o.o.o.o.o.} } } } } } } } } } } } } } } } } } } } } } } } } } } } } ( ( E ( ( ( ( ( E E E E E E E E E E (                                                                                                                                                                                                                                                                                                                                                                                                                                                                                                                                             , , , , , , , , , , , , , , , , , > > > > , , > > , , > > , , > > > > > > > > > > > > > > > > > > > > > > > > > > > > > >                                           > > > - - - - & & & & : : & & & & - - - - & & & & & & & & & & & & & & & & & & & &     ",
"    k.k.k.k.6.6.k.k.k.k.k.k.2.:.k.k.k.6.6.6.6.6.6.2.2.2.2.2.2.2.2.:.:.:.:.:.:.:.:.:.:.                                            :.:.:.:.o.o.} o.o.o.o.} } } } } } } } } } } } } } } } } } } } } } } } } } } } } ( ( ( ( ( ( ( ( E E E E E E E E E E E E E                                                                                                                                                                                                                                                                                                                                                                                                                                                                                                                                         , , , , , , , , , , , , , , , , , > > > > > > > , , , , > > , , > > > > > > > > > > > > > > > > > > > > > > > > > > > > >                                             > > ; - - - & ; & & & : : & & & & - - - & & & & & & & & & & & & & & & & & & & & &     ",
"    i.k.k.k.6.6.k.6.k.k.k.2.:.:.k.k.6.6.6.6.6.6.2.2.2.2.2.2.2.2.:.:.:.:.:.:.:.:.:.:.:.                                              :.:.o.} } } o.o.o.} } } } } } } } } } } } } } } } } } } } } ( } } } } } } } ( ( ( ( ( ( ( ( E E E E E E E E E E E E E E E                                                                                                                                                                                                                                                                                                                                                                                                                                                                                                                                     , , , , , , , , , , , , , , , , , , , > > > > > > > , , > > > , > > > > > > > > > > > > > > > > > > > > > > > > > > > > ;                                               - - ; - - & & & : : : : - - & & - - - & & & & & & & & & & & & & & & & & & & & & &     ",
"    k.k.k.k.6.6.6.6.k.k.k.:.:.:.k.6.6.6.6.6.6.2.2.2.2.2.2.2.2.:.:.:.:.:.:.:.:.:.:.:.:.                                                o.o.o.o.} o.o.} } } } } } } } } } } } } } } } } } } } } } } } } } E ( E ( E ( ( ( ( ( ( E E E E E E E E E E E E E E E E D                                                                                                                                                                                                                                                                                                                                                                                                                                                                                                                                 , , , , , , , , , , , , , , , , , , , , > > , , > > > > , > > > > > > > > > > > > > > > > > > > > > > > > > > > > > > > ;                                                 - - - - & & & : : : : - - - & & & - & & & & & & & & & & & & & & & & & & & & & & &     ",
"    4.6.k.k.k.k.6.6.k.k.k.k.k.9.6.6.6.6.6.6.2.2.2.2.2.2.2.2.:.:.:.:.:.:.:.:.:.:.:.:.:.                                                  o.o.o.o.o.} } } } } } } } } } } } } } } } } } } } } } } } } } E } } ( ( E E ( ( ( ( E E E E E E E E E E E E E E E E E E E                                                                                                                                                                                                                                                                                                                                                                                                                                                                                                                             , , , , , , , , , , , , , , , , , > > > > > > , , > > > > , , , > > > > > > > > > > > > > > > > > > > > > > > > > > > > >                                                   - - - & & : : & & & & & & - - - - & & & & & & & & & & & & & & & & & & & & & & & &     ",
"    k.6.k.k.k.k.6.6.k.k.k.k.:.:.6.6.6.6.6.2.2.2.2.2.2.2.2.:.:.:.:.:.:.:.:.:.:.:.:.:.:.                                                    o.o.o.} } } } } } } } } } } } } } } } } } } } } } } } } } } E } ( ( ( E E ( ( ( E E E E E E E E E E E E E E E E E E E E D                                                                                                                                                                                                                                                                                                                                                                                                                                                                                                                         , , , , , , , , , , , , , , , , , > > > > > > > , , > > > > , , > > > > > > > > > > > > > > > > > > > > > > > > > > > > >                                                     - - & & & - : - & & & - & - - - & & & & & & & & & & & & & & & & & & & & & & & & &     ",
"    4.6.6.6.k.k.6.2.k.k.:.:.:.:.6.6.6.6.2.2.2.2.2.2.2.2.:.:.:.:.:.:.:.:.:.:.:.:.:.:.:.                                                      o.} } } } } } } } } } } } } } } } } ( } } } } } } } } } E E ( ( ( ( ( ( ( ( E E E E E E E E E E E E E E E E E E E E D D                                                                                                                                                                                                                                                                                                                                                                                                                                                                                                                         , , , , , , , , , , , , , , , , > > , , , , > , , , > , > > , > > > > > > > > > > > > > > > > > > > > > > > > > > > > >                                                       - & & & & : : - - & & - - - - & & & & & & & & & & & & & & & & & & & & & & & & & &     ",
"    4.6.6.6.k.k.2.:.k.k.:.:.:.:.6.6.6.2.2.2.2.2.2.2.2.:.:.:.:.:.:.:.:.:.:.:.:.:.:.:.:.                                                        } } } } } } } } } } ( } } } } } } ( } } } } } } } } } E E E ( ( ( ( E E E E E E E E E E E E E E E E E E E E E E D D D D                                                                                                                                                                                                                                                                                                                                                                                                                                                                                                                     , , , , , , , , , , , , , , , , > > > , , , , > , , , > , , , > > > > > > > > > > > > > > > > > > > > > > > > > > > > >                                                         & & & & & : : - - & & & & - & & & & & & & & & & & & & & & & & & & & & & & & & & &     ",
"    k.k.6.6.k.9.k.k.k.k.:.6.6.6.6.6.2.2.2.2.2.2.2.2.:.:.:.:.:.:.:.:.:.:.:.:.:.:.:.:.:.                                                          } } } } } } } } } } } } } } } } ( } } } } } } E } } ( ( ( ( ( ( ( ( E E E E E E E E E E E E E E E D E E E E D D D D D D                                                                                                                                                                                                                                                                                                                                                                                                                                                                                                                 , , , , , , , , , , , , , , , , > > > , > > , , , , , , > , , > > > > > > > > > > > > > > > > > > > > > > > > > > > > >                                                           & & & & & & & - - - & & & & & & & & & & & & & & & & & & & & & & & & & & & & & & &     ",
"    k.k.6.6.9.k.k.k.k.6.:.4.6.6.6.2.2.2.2.2.2.2.2.:.:.:.:.:.:.:.:.:.:.:.:.:.:.:.:.:.:.                                                            } } } } } } } } } } } } } } } } } } } } } } } } ( E E ( ( ( ( ( E E E E E E E E E E E E E E D E E E E E D D D D D D D D                                                                                                                                                                                                                                                                                                                                                                                                                                                                                                             , , , , , , , , , , , , , , , , > > > , , > > , , , , , , > , > > > > > > > > > > > > > > > > > > > > > > > > > > > > >                                                             & & & & & - - - - - & & & & & & & & & & & & & & & & & & & & & & & & & & & & & & &     ",
"    k.k.6.2.9.k.k.k.6.6.6.6.6.6.2.2.2.2.2.2.2.2.:.:.:.:.:.:.:.:.:.:.:.:.:.:.:.:.:.:.:.                                                              } } } } } } } } ( } } } } } } } } } } } } } E E E E ( ( ( ( E E E E E E E E D E E E E E E E E E E E D D D D D D D D D D                                                                                                                                                                                                                                                                                                                                                                                                                                                                                                         , , , , , , , , , , , , , , , , > > > > , , > > > > , , > > > > > > > > > > > > > > > > > > > > > > > > > > > > > > > >                                                               & - & : - - - - - - - & & & & & & & & & & & & & & & & & & & & & & & & & & & & & &     ",
"    k.k.2.:.9.k.k.6.6.6.6.6.6.2.2.2.2.2.2.2.2.:.:.:.:.:.:.:.:.:.:.:.:.:.:.:.:.:.:.:.:.                                                                } } } } } } } ( } } } ( } } } } } } } } ( ( E E E ( ( ( E E E E E E E E E D E E E E E E E E E E D D D D D D D D D D D D                                                                                                                                                                                                                                                                                                                                                                                                                                                                                                     , , , , , , , , , , , , , , , , > , , , > , , > > > > > > > > > > > > > > > > > > > > > > > > > > > > > > > > > > > > >                                                                 & : : - - - - - - - & & & & & & & & & & & & & & & & & & & & & & & & & & & & & & &     ",
"    k.k.k.k.k.9.6.6.6.6.6.6.2.2.2.2.2.2.2.2.:.:.:.:.:.:.:.:.:.:.:.:.:.:.:.:.:.:.:.:.:.                                                                  } } } } } } } } } } } } } } } } } } E ( ( ( ( ( ( ( E E E E E E E E E E E E E E D E E E E E D D D D D D D D D D D D D n                                                                                                                                                                                                                                                                                                                                                                                                                                                                                                 , , , , , , , , , , , , , , , , , , , , , , > > > > > > > > > > > > > > > > > > > > > > > > > > > > > > > > > > > > > >                                                                   & & & & - - & & & & & & & & & & & & & & & & & & & & & & & & & & & & & & & & & & &     ",
"    k.k.k.k.:.:.6.6.6.6.6.2.2.2.2.2.2.2.2.:.:.:.:.:.:.:.:.:.:.:.:.:.:.:.:.:.:.:.:.:.:.                                                                    } } } } } } } } } } } } } } } } ( E E ( ( ( ( ( E E E E E E E E E E E E E E E E E E E E D D D D D D D D D D D D D n n D                                                                                                                                                                                                                                                                                                                                                                                                                                                                                             , , , , , , , , , , , , , , , , > > > , , , , > > > > , , > > > > > > > > > > > > > > > > > > > > > > > > > > > > > > >                                                                     & & & & & - & & & & & & & & & & & & & & & & & & & & & & & & & & & & & & & & & & &     ",
"    i.k.:.:.:.:.6.6.6.6.2.2.2.2.2.2.2.2.:.:.:.:.:.:.:.:.:.:.:.:.:.:.:.:.:.:.:.:.:.:.:.                                                                      } } } } } } } } } } } } E E ( E E E ( ( ( ( E E E E E E D E E E E E E E E E E E E E D D D D D D D D D D D D D n D n D D                                                                                                                                                                                                                                                                                                                                                                                                                                                                                         , , , , , , , , , , , , , , , , > > > > > > , > > > , , , , , > > > > > > > > > > > > > > > > > > > > > > > > > > > > ;                                                                       & & & - - - - & & & & & & & & & & & & & & & & & & & & & & & & & & & & & & & & & &     ",
"    k.k.:.:.:.:.6.6.6.2.2.2.2.2.2.2.2.:.:.:.:.:.:.:.:.:.:.:.:.:.:.:.:.:.:.:.:.:.:.:.:.                                                                        } } } } } } } ( } E E E E ( E E E ( ( ( E E E E E E D D E E E E E E E E E E E E D D D D D D D D D D D D D n n D D D D D                                                                                                                                                                                                                                                                                                                                                                                                                                                                                     , , , , , , , , , , , , , , , , > > > > > > > , > > > , , , , > > > > > > > > > > > > > > > > > > > > > > > > > > > > ;                                                                         & & & - - - & & & & & & & & & & & & & & & & & & & & & & & & & & & & & & & & & & &     ",
"    k.k.:.6.6.6.6.6.2.2.2.2.2.2.2.2.:.:.:.:.:.:.:.:.:.:.:.:.:.:.:.:.:.:.:.:.:.:.:.:.:.                                                                          } } } } } } } } } } ( E ( ( ( ( ( ( E E E E E E E E E E E E E E E E E E E E D D D D D D D D D D D D D D D D D D D D D D                                                                                                                                                                                                                                                                                                                                                                                                                                                                                 , , , , , , , , , , , , , , , , > > > , , , > > > > > > , , , > > > > > > > > > > > > > > > > > > > > > > > > > > > > >                                                                           - - - - - & & & & & & & & & & & & & & & & & & & & & & & & & & & & & & & & & & & &     ",
"    k.6.:.4.6.6.6.2.2.2.2.2.2.2.2.:.:.:.:.:.:.:.:.:.:.:.:.:.:.:.:.:.:.:.:.:.:.:.:.:.o.                                                                            } } } } } } } } ( ( ( ( ( ( ( ( E E E E E E E E E E E E E E E E E E E D D D D D D D D D D D D D D D D D D D D D D D D D                                                                                                                                                                                                                                                                                                                                                                                                                                                                             , , , , , , , , , , , , , , , , > > > , , , , > > > > > > , , > > > > > > > > > > > > > > > > > > > > > > > > > > > > >                                                                             - - - - & & & & & & & & & & & & & & & & & & & & & & & & & & & & & & & & & & & & &     ",
"    6.6.6.6.6.6.2.2.2.2.2.2.2.2.:.:.:.:.:.:.:.:.:.:.:.:.:.:.:.:.:.:.:.:.:.:.:.:.:.:.o.                                                                              } } } E } } ( ( ( ( ( ( ( ( E E E E E E E E E E E D E E E E E E E E D D D D D D D D D D D D D n D D D D n n n n D n n n                                                                                                                                                                                                                                                                                                                                                                                                                                                                         , , , , , , , , , , , , , , , , > > > > , , , , , > > , > > , > > > > > > > > > > > > > > > > > > > > > > > > > > > > >                                                                               & - - & & & & & & & & & & & & & & & & & & & & & & & & & & & & & & & & & & & & & &     ",
"    6.6.6.6.6.2.2.2.2.2.2.2.2.:.:.:.:.:.:.:.:.:.:.:.:.:.:.:.:.:.:.:.:.:.:.:.:.:.:.:.o.                                                                                } E E } ( ( ( ( ( ( ( ( E E E E E E E E E E E E E E E E E E E E D D D D D D D D D D D D D n n D n D D n n n n n n n n n                                                                                                                                                                                                                                                                                                                                                                                                                                                                     , , , , , , , , , , , , , , , , > , , , > , , , , , > > , , , > > > > > > > > > > > > > > > > > > > > > > > > > > > > >                                                                                 & - & & & & & & & & & & & & & & & & & & & & & & & & & & & & & & & & & & & & & & &     ",
"    6.6.6.6.2.2.2.2.2.2.2.2.:.:.:.:.:.:.:.:.:.:.:.:.:.:.:.:.:.:.:.:.:.:.:.:.:.:.:.:.o.                                                                                  } } ( ( ( ( ( ( ( ( E E E E E E E E E E E E E E E E E E E E D D D D D D D D D D D D D D n n D D D D D D D D n n n n n n                                                                                                                                                                                                                                                                                                                                                                                                                                                                 , , , , , , , , , , , , , , , , > > > > > > > , , , , , , , , > > > > > > > > > > > > > > > > > > > > > > > > > > > > >                                                                                   - & & & & & & & & & & & & & & & & & & & & & & & & & & & & & & & & & & & & & & & &     ",
"    6.6.6.2.2.2.2.2.2.2.2.:.:.:.:.:.:.:.:.:.:.:.:.:.:.:.:.:.:.:.:.:.:.:.:.:.:.:.:.:.}                                                                                     ( ( ( ( ( ( ( ( E E E E E E E E E E E D D E E E E E E E D D D D D D D D D D D D D D D n n D D D D n n D n n n n n n n n                                                                                                                                                                                                                                                                                                                                                                                                                                                             , , , , , , , , , , , , , , , , > > , > > > > , > , , , , , , > > > > > > > > > > > > > > > > > > > > > > > > > > > > >                                                                                     & & & & & & & & & & & & & & & & & & & & & & & & & & & & & & & & & & & & & & & & &     ",
"    6.6.2.2.2.2.2.2.2.2.:.:.:.:.:.:.:.:.:.:.:.:.:.:.:.:.:.:.:.:.:.:.:.:.:.o.o.o.o.} }                                                                                       ( ( ( ( ( ( E E E E E E E E E E E E E E E E E E E E D D D D D D D D D D D D D D D n n D D D n n n n n n a a n n n n n n                                                                                                                                                                                                                                                                                                                                                                                                                                                         , , , , , , , , , , , , , , , , > > , , > > > > > > > > , > , > > > > > > > > > > > > > > > > > > > > > > > > > > > > ;                                                                                       & & & & & & & & & & & & & & & & & & & & & & & & & & & & & & & & & & & & & & & & &     ",
"    6.2.2.2.2.2.2.2.2.:.:.:.:.:.:.:.:.:.:.:.:.:.:.:.:.:.:.:.:.:.:.:.:.:.o.o.o.o.o.} }                                                                                         ( ( ( ( E E E E E E E E E E E E D E E E E E E E D D D D D D D D D D D D D D D D n n n D D n n n n n n a n n n n n n n n                                                                                                                                                                                                                                                                                                                                                                                                                                                     , , , , , , , , , , , , , , , , > > > , , > > > > > > > > > > > > > > > > > > > > > > > > > > > > > > > > > > > > > > >                                                                                         & & & & & & & & & & & & & & & & & & & & & & & & & & & & & & & & & & & & & & & & &     ",
"    2.2.2.2.2.2.2.2.:.:.:.:.:.:.:.:.:.:.:.:.:.:.:.:.:.:.:.:.:.:.:.:.:.o.o.o.o.:.o.o.o.                                                                                          ( ( E E E E E E E E E E E E E D E E E E E E D D D D D D D D D D D D D D D D n n D D D D n D n n n n n n n n n n n n n n                                                                                                                                                                                                                                                                                                                                                                                                                                                 , , , , , , , , , , , , , , , , , , , , , , > > > > , , > > , > > > > > > > > > > > > > > > > > > > > > > > > > > > > >                                                                                           & & & & & & & & & & & & & & & & & & & & & & & & & & & & & & & & & & & & & & & & &     ",
"    2.2.2.2.2.2.2.:.:.:.:.:.:.:.:.:.:.:.:.:.:.:.:.:.:.:.:.:.:.:.:.:.o.o.:.o.:.:.:.:.o.                                                                                            E E E E E E E E E E E E E E E D E E E E D D D D D D D D D D D D D D D D D n n D D D D D n n n n n n n n n n n n n n n n                                                                                                                                                                                                                                                                                                                                                                                                                                             , , , , , , , , , , , , , , , , > , , , , , , > > > > , , > > > > > > > > > > > > > > > > > > > > > > > > > > > > > > >                                                                                             & & & & & & & & & & & & & & & & & & & & & & & & & & & & & & & & & & & & & & & & &     ",
"    2.2.2.2.2.2.:.:.:.:.:.:.:.:.:.:.:.:.:.:.:.:.:.:.:.:.:.:.:.:.:.o.o.o.:.:.:.:.:.:.o.                                                                                              E E E E E E E E E E E E E E D E E E D D D D D D D D D D D D D n n D D n n n D D D D n n n n n n n n n n n n n n n n n n                                                                                                                                                                                                                                                                                                                                                                                                                                         , , , , , , , , , , , , , , , , > > , , > > , , > > > , , , > > > > > > > > > > > > > > > > > > > > > > > > > > > > > ;                                                                                               & & & & & & & & & & & & & & & & & & & & & & & & & & & & & & & & & & & & & & & & &     ",
"    2.2.2.2.2.:.:.:.:.:.:.:.:.:.:.:.:.:.:.:.:.:.:.:.:.:.:.:.:.:.o.o.o.o.:.:.:.:.:.:.o.                                                                                                E E E E E E E E E E E E E E E E D D D D D D D D D D D D D n n D D D D n n n D D n n n n n n n n a n n n n n n n n n n n                                                                                                                                                                                                                                                                                                                                                                                                                                     , , , , , , , , , , , , , , , , > > > , , > > , , > > > > , , > > > > > > > > > > > > > > > > > > > > > > > > > > > > ;                                                                                                 & & & & & & & & & & & & & & & & & & & & & & & & & & & & & & & & & & & & & & & & &     ",
"    2.2.2.2.:.:.:.:.:.:.:.:.:.:.:.:.:.:.:.:.:.:.:.:.:.:.:.:.:.o.:.:.:.} } } :.:.:.:.o.                                                                                                  E E E E E E E E E E E E E E D D D D D D D D D D D D D n D n n n D D D D n n n n n n n n n n n n n n n n n n n n n n a a                                                                                                                                                                                                                                                                                                                                                                                                                                 , , , , , , , , , , , , , , , , , , , , , , > > > > > > , , , > > > > > > > > > > > > > > > > > > > > > > > > > > > > >                                                                                                   & & & & & & & & & & & & & & & & & & & & & & & & & & & & & & & & & & & & & & & & &     ",
"    2.2.2.:.:.:.:.:.:.:.:.:.:.:.:.:.:.:.:.:.:.:.:.:.:.:.:.:.o.o.:.:.:.} :.} :.:.:.o.o.                                                                                                    E E E E E E E E E E E E D D D D D D D D D D D D D n n D n n n D D D D n n n n n n n n n n n n n n n n n n a n n a a a a                                                                                                                                                                                                                                                                                                                                                                                                                             , , , , , , , , , , , , , , , , > > > , , , , > > > > > > , , > > > > > > > > > > > > > > > > > > > > > > > > > > > > >                                                                                                     & & & & & & & & & & & & & & & & & & & & & & & & & & & & & & & & & & & & & & & % &     ",
"    2.2.:.:.:.:.:.:.:.:.:.:.:.:.:.:.:.:.:.:.:.:.:.:.:.:.:.:.o.o.:.:.} } :.:.:.:.o.o.o.                                                                                                    E E E E E E E E E E E D D D D D D D D D D D D D n D n D D n n D D D D n n n n n n n n n n n n a n n n n n n h a a a a a a                                                                                                                                                                                                                                                                                                                                                                                                                         , , , , , , , , , , , , , , , , > > > > > > , > > > > , > > , > > > > > > > > > > > > > > > > > > > > > > > > > > > > >                                                                                                       & & & & & & & & & & & & & & & & & & & & & & & & & & & & & & & & & & & & & & % % &     ",
"    2.:.:.:.:.:.:.:.:.:.:.:.:.:.:.:.:.:.:.:.:.:.:.:.:.:.:.:.o.o.:.:.} } } } :.o.o.o.o.                                                                                                      E E E E E E E E E D D D D D D D D D D D D D n n D D D D n n n D D n n n n n n n n n n n a n a a n n n n h u a a a a a a a                                                                                                                                                                                                                                                                                                                                                                                                                     , , , , , , , , , , , , , , , , > > > > > > > , > > > > , , , > > > > > > > > > > > > > > > > > > > > > > > > > > > > > ;                                                                                                       & & & & & & & & & & & & & & & & & & & & & & & & & & & & & & & & & & & & & % % % &     ",
"    :.:.:.:.:.:.:.:.:.:.:.:.:.:.:.:.:.:.:.:.:.:.:.:.:.o.:.:.:.} :.:.} } :.:.o.o.o.o.o.                                                                                                        D E E E E E E D D D D D D D D D D D D D D D D D D D D D D D D n n n n n n n n n n n n n n n n n n n h a a a a a a a a a a                                                                                                                                                                                                                                                                                                                                                                                                                 , , , , , , , , , , , , , , , , > > > , , , > > > > > > > , , > > > > > > > > > > > > > > > > > > > > > > > > > > > > > ;                                                                                                         & & & & & & & & & & & & & & & & & & & & & & & & & & & & & & & & & & & & % % % % &     ",
"    :.:.:.:.:.:.:.:.:.:.:.:.:.:.:.:.:.:.:.:.:.:.:.:.o.o.:.:.:.:.:.:.} } :.o.o.o.o.o.o.                                                                                                          E E E E E D D D D D D D D D D D D D D D D D D D D D D D D n n n n n n n n n n n n n n n n n n n h u u u a a a a a a a a u                                                                                                                                                                                                                                                                                                                                                                                                             , , , , , , , , , , , , , , , , > > > , , , , > > > > > > > , > > > > > > > > > > > > > > > > > > > > > > > > > > > > > >                                                                                                           & & & & & & & & & & & & & & & & & & & & & & & & & & & & & & & & & & & % % % % % &     ",
"    :.:.:.:.:.:.:.:.:.:.:.:.:.:.:.:.:.:.:.:.:.:.:.o.o.o.:.:.:.+.} } } } o.o.o.o.o.o.o.                                                                                                            E E E D D D D D D D D D D D D D n D D D D n n n n D n n n n n n n n n a n n n n n n n n n n n u a u u a a a a a a a a a u                                                                                                                                                                                                                                                                                                                                                                                                         , , , , , , , , , , , , , , , , > > > > , , , , , > > , > > > > > > > > > > > > > > > > > > > > > > > > > > > > > > > > >                                                                                                             & & & & & & & & & & & & & & & & & & & & & & & & & & & & & & & & & & & % % % % % &     ",
"    :.:.:.:.:.:.:.:.:.:.:.:.:.:.:.:.:.:.:.:.:.:.o.o.o.o.:.:.:.+.} } } } o.o.o.o.o.o.}                                                                                                               E D D D D D D D D D D D D D n n D n D D n n n n n n n n n n n n n n a n n n n n n n n n n a u u a u a a a a a a a a u u u                                                                                                                                                                                                                                                                                                                                                                                                     , , , , , , , , , , , , , , , , > , , , > , , , , , > > , , , > > > > > > > > > > > > > > > > > > > > > > > > > > > > > >                                                                                                               & & & & & & & & & & & & & & & & & & & & & & & & & & & & & & & & & & % % % % % % &     ",
"    :.:.:.:.:.:.:.:.:.:.:.:.:.:.:.:.:.:.:.:.:.o.:.:.:.:.:.:.} } +.+.o.o.o.o.o.o.o.} }                                                                                                                 D D D D D D D D D D D D n n n D D D D D D D D n n n n n n a n n n n n n n n n n a n n a a a a a a a a a a a a a u u u w u                                                                                                                                                                                                                                                                                                                                                                                                 , , , , , , , , , , , , , , , , > > > > > > > , , , , , , , , > > > > > > > > > > > > > > > > > > > > > > > > > > > > > >                                                                                                                 & & & & & & & & & & & & & & & & & & & & & & & & & & & & & & & & % % % % % % % % &     ",
"    :.:.:.:.:.:.:.:.:.:.:.:.:.:.:.:.:.:.:.:.o.o.:.:.:.:.:.:.} } :.o.o.o.o.o.o.o.} } }                                                                                                                   E D D D D D D D D D n n n n D D D D n n D n n n n n n n a n n n n n n n n n n n n a a a a a a a a a a a a a u u w u u u u                                                                                                                                                                                                                                                                                                                                                                                             , , , , , , , , , , , , , , , , , > , > > > > , > , , , , , , > > > > > > > > > > > > > > > > > > > > > > > > > > > > > >                                                                                                                   & & & & & & & & & & & & & & & & & & & & & & & & & & & & & & & % % % % % % % % & &     ",
"    :.:.:.:.:.:.:.:.:.:.:.:.:.:.:.:.:.:.:.o.o.o.:.:.} } } } } } o.o.o.o.o.o.o.} } } }                                                                                                                     D D D D D D D D D D n n D D D n n n n n n n n n n n n n n n n n n n n n n n h a a a a a a a a a a a a a u u u u u u u u u                                                                                                                                                                                                                                                                                                                                                                                         , , , , , , , , , , , , , , , , , , , , > > > > > > > > , > , > > > > > > > > > > > > > > > > > > > > > > > > > > > > > >                                                                                                                     & & & & & & & & & & & & & & & & & & & & & & & & & & & & & & % % % % % % % & & & &     ",
"    :.:.:.:.:.:.:.:.:.:.:.:.:.:.:.:.:.:.o.o.o.o.} } } } } } } } o.o.o.o.o.o.} } } } }                                                                                                                       D D D D D D D D D n n n D D n n n n n n n n n n n n n n n n n n n n n n h u a a a a a a a a a a a a u u u u u u u u u u a                                                                                                                                                                                                                                                                                                                                                                                     , , , , , , , , , , , , , , , , > , , , , > > > > > > > > > > > > > > > > > > > > > > > > > > > > > > > > > > > > > > > >                                                                                                                       & & & & & & & & & & & & & & & & & & & & & & & & & & & & & % % % % % % % % % & & &     ",
"    :.:.:.:.:.:.:.:.:.:.:.:.:.:.:.:.:.o.o.:.:.:.} :.:.} :.:.o.o.o.o.o.o.o.} } } } } }                                                                                                                         D D D D n D n n n D D D D n D n n n n n n n n n n n n n n n n n n n h a a a a a a a a a a a a a u u u u u u u u w u u w w                                                                                                                                                                                                                                                                                                                                                                                 , , , , , , , , , , , , , , , , > > > > , , > > > > , , > > , > > > > > > > > > > > > > > > > > > > > > > > > > > > > ; >                                                                                                                         & & & & & & & & & & & & & & & & & & & & & & & & & & & & % % % % & & & % % % & % &     ",
"    :.:.:.:.:.:.:.:.:.:.:.:.:.:.:.:.o.o.o.:.:.:.} } :.} :.o.o.o.o.o.o.o.} } } } } } }                                                                                                                           D D n n D n n n D D D D D n n n n n n n n n n n a a n n n n n n h u u u a a a a a a a a a a w u u u u u u u u w u w w w w                                                                                                                                                                                                                                                                                                                                                                             , , , , , , , , , , , , , , , , > > > > > , , > > > > , , > > > > > > > > > > > > > > > > > > > > > > > > > > > > > > ; :                                                                                                                           & & & & & & & & & & & & & & & & & & & & & & & & & & & & % % % & & & & % % % % % &     ",
"    :.:.:.:.:.:.:.:.:.:.:.:.:.:.:.:.o.o.o.o.:.:.:.:.:.:.o.o.o.o.o.o.o.} } } } } } } }                                                                                                                             D D D D D n n D D D D n n n n n n a n n n n n n n n n a n n h u u u u a a a a a a a a a w u u u u u u u u u u w w w w w w                                                                                                                                                                                                                                                                                                                                                                         , , , , , , , , , , , , , , , , > > > > > , , , > > > , , , > > > > > > > > > > > > > > > > > > > > > > > > > > > > > > ;                                                                                                                             & & & & & & & & & & & & & & & & & & & & & & & & & & & & & % % % % & & % % % % % &     ",
"    :.:.:.:.:.:.:.:.:.:.:.:.:.:.:.:.o.o.o.:.:.:.:.:.:.o.o.o.o.o.o.o.} } } } } } } } }                                                                                                                               D D D D n n n D D n n n n n n a a n n n a n n n n n n n h u u u a u a a a a a a a a u u u u u u u u u u u w w w w w w w w                                                                                                                                                                                                                                                                                                                                                                     , , , , , , , , , , , , , , , , > > > > > > , , , > > > > , , > > > > > > > > > > > > > > > > > > > > > > > > > > > > > ;                                                                                                                               & & & & & & & & & & & & & & & & & & & & & & & & & & & & & % % % % % & % % % % % &     ",
"    :.:.:.:.:.:.:.:.:.:.:.:.:.o.:.:.:.:.:.:.} } +.:.o.o.o.o.o.o.o.} } } } } } } } } }                                                                                                                                 D D D D D D D n n n n n n n n n n n n n n n n n n n n a a a a a a a a a a a a a w u u w u u u w u u u w w w w w w w w w w                                                                                                                                                                                                                                                                                                                                                                 , , , , , , , , , , , , , , , , > > > , , , , , > > > > , , , > > > > > > > > > > > > > > > > > > > > > > > > > > > > > >                                                                                                                                 & & & & & & & & & & & & & & & & & & & & & & & & % % % & & % % & % & % % % % % % &     ",
"    :.:.:.:.:.:.:.:.:.:.:.:.o.o.:.:.:.:.:.:.} } +.o.o.o.o.o.o.o.} } } } } } } } } } }                                                                                                                                   D D D D D n n n n n n n n n n n n n n n n n n n n a a a a a a a a a a a a a w w u u w u u u u u u w w w w w w w w w w w w                                                                                                                                                                                                                                                                                                                                                             , , , , , , , , , , , , , , , , > > > , , , , , , > > > > , , > > > > > > > > > > > > > > > > > > > > > > > > > > > > > >                                                                                                                                   & & & & & & & & & & & & & & & & & & & & & & & % % % % & & % % % % % & & % % % % &     ",
"    :.:.:.:.:.:.:.:.:.:.:.o.o.o.:.:.} } } } } } o.o.o.o.o.o.o.} } } } } } } } } } } (                                                                                                                                     D D D n n n n n n n n a n n n n n n n n n n n a a a a a a a a a a a a a u w u u u u u u u u u w w w w w w w w w w w w w w                                                                                                                                                                                                                                                                                                                                                         , , , , , , , , , , , , , , , , > > > > , , , , > > > , > > , > > > > > > > > > > > > > > > > > > > > > > > > > > > > > >                                                                                                                                     & & & & & & & & & & & & & & & & & & & & & & % % % % % & & % % % % % % % % % % % %     ",
"    :.:.:.:.:.:.:.:.:.:.o.o.o.o.} } } } } } } } o.o.o.o.o.o.} } } } } } } } } } } } (                                                                                                                                       D n n n n n n n n n n a n n n n n n n n n a a a a a a a a a a a a a u u u u u u u u u u u w w w w w w w w w w w w w w w w                                                                                                                                                                                                                                                                                                                                                     , , , , , , , , , , , , , , , , > > > , > , , , > > > > , , , > > > > > > > > > > > > > > > > > > > > > > > > > > > > > >                                                                                                                                       & & & & & & & & & & & & & & & & & & & & & % % % % % % % % % % % % % % & % % % % %     ",
"    :.:.:.:.:.:.:.:.:.o.o.:.:.:.} :.:.} :.:.o.o.o.o.o.o.o.} } } } } } } } } } } } } (                                                                                                                                         n n n n n n n n n n n n a a n n n n h u u a a a a a a a a a a a u u u u u u u u u u u w w w w w w w w w w w w w w w w w w                                                                                                                                                                                                                                                                                                                                                 , , , , , , , , , , , , , , , , > > > > , , > > , , > > > , , > > > > > > > > > > > > > > > > > > > > > > > > > > > > ; >                                                                                                                                         & & & & & & & & & & & & & & & & & & & & % % % % & & & % % % % % % % % % % % % % %     ",
"    :.:.:.:.:.:.:.:.o.o.o.o.:.:.} } :.} :.o.o.o.o.o.o.o.} } } } } } } } } } } } } } (                                                                                                                                           n n n n n n n n n n n n n n n n h u u u a a a a a a a a a a u u u u u u u u u u u w w w w w w w w w w w w w w w w w w w 2                                                                                                                                                                                                                                                                                                                                             , , , , , , , , , , , , , , , , > > > > > > > , , , , > > > , > > > > > > > > > > > > > > > > > > > > > > > > > > > > ; ;                                                                                                                                           & & & & & & & & & & & & & & & & & & & & % % % & & & & % % % % % % % % & & % % % %     ",
"    :.:.:.:.:.:.:.:.o.o.o.:.:.:.:.:.:.:.o.o.o.o.o.o.o.} } } } } } } } } } } } } } } (                                                                                                                                             n n n n n n n n n n n n n n h a u u u a a a a a a a a a u u u u u u u u u u w w w w w w w w w w w w w w w w w w w w w w w                                                                                                                                                                                                                                                                                                                                         , , , , , , , , , , , , , , , , , , > > > > > > > , , > > > > > > > > > > > > > > > > > > > > > > > > > > > > > > > > > ;                                                                                                                                             & & & & & & & & & & & & & & & & & & % & & % % % % & & % % & & % % % % & % % % % %     ",
"    :.:.:.:.:.:.:.:.o.o.:.:.:.:.:.:.:.o.o.o.o.o.o.o.} } } } } } } } } } } } } } } } (                                                                                                                                               h n n n n n n n n n n n h u a u u u a a a a a a a a w u u u u u w u u u u w w w w w w w w w w w w w w w w w w w w w w w w                                                                                                                                                                                                                                                                                                                                     , , , , , , , , , , , , , , , , , , , > > , , > > > > , > > > > > > > > > > > > > > > > > > > > > > > > > > > > > > > > =                                                                                                                                               & & & & & & & & & & & & & & & & & % % & & % % % % % & & & & & % % % % % % % % % %     ",
"    :.:.:.:.:.:.:.:.o.o.:.:.:.:.:.:.o.o.o.o.o.o.o.} } } } } } } } } } } } } } } } } (                                                                                                                                                 n n n n n n n n n n n a a a a a a a a a a a a a u u u u u u u u u u u w w w w w w w w w w w w w w w w w w w w w w w w w w                                                                                                                                                                                                                                                                                                                                 , , , , , , , , , , , , , , , , > > > > > > , , > > > > , , , > > > > > > > > > > > > > > > > > > > > > > > > > > > > > :                                                                                                                                                 & & & & & & & & & & & & & & & & % & & & & % % % & & % % % % & & & % % % % % % % %     ",
"    :.:.:.:.:.:.:.:.} } :.:.:.:.:.o.o.o.o.o.o.o.} } } } } } } } } } } } } } } } } } (                                                                                                                                                   n n n n n n n n n a a a a a a a a a a a a a u u w w u u u u u u u w w w w w w w w w w w w w w w w w w w w w w w w w w w w                                                                                                                                                                                                                                                                                                                             , , , , , , , , , , , , , , , , > > > > > > > , , > > > > , , > > > > > > > > > > > > > > > > > > > > > > > > > > > > ; :                                                                                                                                                   & & & & & & & & & & & & & & & % & & & & & % % % % % % % % % % & & % % % % % % % %     ",
"    :.:.:.o.:.:.o.} } } } +.:.:.o.o.o.o.o.o.o.} } } } } } } } } } } } } } } } } } } (                                                                                                                                                     n n n n n n n a a a a a a a a a a a a a u u w w u u u u u u u w w w w w w w w w w w w w w w w w w w w w w w w w w w w w w                                                                                                                                                                                                                                                                                                                         , , , , , , , , , , , , , , , , > > , , , , > , , , > , > > , > > > > > > > > > > > > > > > > > > > > > > > > > > > > > ;                                                                                                                                                     & & & & & & & & & & & & & & % % % & & % % % % & % % % % % % % & % % % % % % % % %     ",
"    :.:.o.o.:.:.} } } } } :.:.o.o.o.o.o.o.o.} } } } } } } } } } } } ( } } ( } } } } (                                                                                                                                                       n n n n n a a a a a a a a a a a a a u u u u u u u u u u u w w w w w w w w w w w w w w w w w w w w w w w w w w w w w w w                                                                                                                                                                                                                                                                                                                         , , , , , , , , , , , , , , , > > > , , , , > , , , > , , , > > > > > > > > > > > > > > > > > > > > > > > > > > > > > :                                                                                                                                                       & & & & & & & & & & & & & % % % % & & % % % % % % % % % % % % % % % % % % % % % %     ",
"    :.:.:.:.:.:.:.:.:.:.} } } } o.o.o.o.o.} } } } } } } } } } } } } } } } } } } } } (                                                                                                                                                         a n h u u a a a a a a a a a a a w u u u u u u u u u u w w w w w w w w w w w w w w w w w w w w w w w w w w w w w w w w w                                                                                                                                                                                                                                                                                                                     , , , , , , , , , , , , , , , > > > , > > , , , , , , > , , > > > > > > > > > > > > > > > > > > > > > > > > > > > > > ;                                                                                                                                                         & & & & & & & & & & & & % % % % % % & & & % % % % % & % % % % % % % % % % % % % %     ",
"    :.:.o.o.:.:.:.:.:.:.} } } } o.o.o.o.} } } } } } } } } } } } } } } } } } } } } } (                                                                                                                                                           u u u u a a a a a a a a a a u u u u u u u u u u u w w w w w w w w w w w w w w w w w w w w w w w w w w w w w w w w w w w                                                                                                                                                                                                                                                                                                                 , , , , , , , , , , , , , , , > > > , , > > , , , , , , > , > > > > > > > > > > > > > > > > > > > > > > > > > > > > > ;                                                                                                                                                           & & & & & & & & & & & % % % % % % % % & % % % % % & & % % % % % % % % % % % % % %     ",
"    :.:.o.} } } :.:.:.:.o.o.} o.o.o.o.} } } } } } } } } } } } } } } } } } } } } } } (                                                                                                                                                             a u u a a a a a a a a a u u u u u u u u u u u w w w w w w w w w w w w w w w w w w w w w w w w w w w w w w e e 2 2 w w w                                                                                                                                                                                                                                                                                                             , , , , , , , , , , , , , , , > > > > , , > > > > , , > > > > > > > > > > > > > > > > > > > > > > > > > > > > > > > > >                                                                                                                                                             & & & & & & & & & & & % % % % % % % % & & % % % % & % % % % % % % % % % % % % % %     ",
"    :.:.} } } } } } :.o.o.o.o.o.o.o.} } } } } } } } } } } } } } } } } } } } } } } } (                                                                                                                                                               u u a a a a a a a a u u u u u u u u u u u w w w w w w w w w w w w w w w w w w w w w w w w w w w w w w w e 2 2 2 w w w w                                                                                                                                                                                                                                                                                                         , , , , , , , , , , , , , , , > , , , > , , > > > > > > > > > > > > > > > > > > > > > > > > > > > > > > > > > > > > > >                                                                                                                                                               & & & & & & & & & & % % % % % % % % % & & % % % % % % % % % % % % % % % % % % % %     ",
"    :.:.:.:.:.} :.:.o.o.o.o.o.o.o.} } } } } } } } } } } } } } } } } } ( ( ( } } } } (                                                                                                                                                                 u a a a a a a a w u w w u u u u u u u w w w w w w w w w w w w w w w w w w w w w w w w w w w w w w e w 2 2 2 2 2 w w w 2                                                                                                                                                                                                                                                                                                     , , , , , , , , , , , , , , , > > > , , , , , > > > > , , , > > > > > > > > > > > > > > > > > > > > > > > > > > > > > >                                                                                                                                                                 & & & & & & & & % % % & & % % & % & % % % % % % % % % % % % % % % % % % % % % % %     ",
"    :.:.:.:.} } :.o.o.o.o.o.o.o.} } } } } } } } } } } } } } } } } } } } } } } } } ( (                                                                                                                                                                   n a a a a a w w u u u u u u w u u w w w w w w w w w w w w w w w w w w w w w w w w w w w w w w e e 2 w 2 2 w 2 w 2 2 w w                                                                                                                                                                                                                                                                                                 , , , , , , , , , , , , , , , > > > , , , , , , > > > > , , > > > > > > > > > > > > > > > > > > > > > > > > > > > > > >                                                                                                                                                                   & & & & & & & % % % % & & % % % % % & & % % % % % % % % % % % % % % % % % % % % %     ",
"    :.:.} } } } o.o.o.o.o.o.o.} } } } } } } } } } } } } } } } } } } } } } } } } } } (                                                                                                                                                                     n a a a u w u u u u u u u u u w w w w w w w w w w w w w w w w w w w w w w w w w w w w w w w e w 2 w w w w 2 2 2 w w w e                                                                                                                                                                                                                                                                                             , , , , , , , , , , , , , , , > > > > , , , , > > > > > > , > > > > > > > > > > > > > > > > > > > > > > > > > > > > ; ;                                                                                                                                                                     & & & & & & % % % % % & & % % % % % % % % % % % % % % % % % % % % % % % % % % % %     ",
"    :.:.} } } } o.o.o.o.o.o.} } } } } } } } } } } } } } } } } } } } } } } } } } } } (                                                                                                                                                                       n a u u u u u u u u u u u w w w w w w w w w w w w w w w w w w w w w w w w w w w w w w w e 2 w 2 w w w w w 2 2 w w e e 2                                                                                                                                                                                                                                                                                         , , , , , , , , , , , , , , , > > > , > , , , > > > , > > > > > > > > > > > > > > > > > > > > > > > > > > > > > > > ; ;                                                                                                                                                                       & & & & & % % % % % % % % % % % % % % & % % % % % % % % % % % % % % % % % % % % %     ",
"    :.:.} :.o.o.o.o.o.o.o.} } } } } } } } } } } } } } } } } } } } } } } } } } } } } E                                                                                                                                                                         h u u u u u u u u u u w w w w w w w w w w w w w w w w w w w w w w w w w w w w w w w w w w w w w w w w w e w w e e 2 2 2                                                                                                                                                                                                                                                                                     , , , , , , , , , , , , , , , > > > > , , > > , , > > , , > > > > > > > > > > > > > > > > > > > > > > > > > > > > > > >                                                                                                                                                                         & & & & % % % % & & & % % % % % % % % % % % % % % % % % % % % % % % % % % % % % %     ",
"    :.:.+.o.o.o.o.o.o.o.} } } } } } } } } } } } } } } } } } } } } } } } } } } } } ( E                                                                                                                                                                           u u u u u u u u u w w w w w w w w w w w w w w w w w w w w w w w w w w w w w w e w w w w w w 2 2 2 2 w w w w w 2 2 2 2 2                                                                                                                                                                                                                                                                                 , , , , , , , , , , , , , , , > > > > > > > , , , , > > , , > > > > > > > > > > > > > > > > > > > > > > > > > > > > > =                                                                                                                                                                           & & & & % % % & & & & % % % % % % % % & & % % % % % % % % % % % % % % % % % % % %     ",
"    :.:.o.o.o.o.o.o.o.} } } } } } } } } } } } } } } } } } } } } } } } } } } } } ( ( (                                                                                                                                                                             u u u u u u u w w w w w w w w w w w w w w w w w w w w w w w w w w w w w w e e w w w w 2 2 2 2 2 2 w w e e 2 2 2 2 2 2 2                                                                                                                                                                                                                                                                             , , , , , , , , , , , , , , , , , > > > > > > > , , > > > , > > > > > > > > > > > > > > > > > > > > > > > > > > > > ; ;                                                                                                                                                                             & & % & & % % % % & & % % & & % % % % & % % % % % % % % % % % % % % % % % % % % %     ",
"    :.o.o.o.o.o.o.o.} } } } } } } } } } } } } } } } ( ( } } } } } } } } E E } ( ( ( (                                                                                                                                                                               u u u u w w w w w w w w w w w w w w w w w w w w w w w w w w w w w w w e e 2 w w 2 2 2 w 2 2 e w w e e 2 2 2 2 2 2 2 2 2                                                                                                                                                                                                                                                                         , , , , , , , , , , , , , , , , , , > > , , > > > > , > > > > > > > > > > > > > > > > > > > > > > > > > > > > > > > ; ;                                                                                                                                                                               & % % & & % % % % % & & & & & % % % % % % % % % % % % % % % % % % % % % % % % % %     ",
"    o.o.o.o.o.o.o.} } } } } } } } } } } } } } } } } } } } } ( ( } } } } } } ( ( ( ( (                                                                                                                                                                                 u u u w w w w w w w w w w w w w w w w w w w w w w w w w w w w w w e e 2 w 2 2 w w w w w w w w e e 2 2 2 2 2 2 2 2 2 2 2                                                                                                                                                                                                                                                                     , , , , , , , , , , , , , , , > > > > > > , , > > > > , , , > > > > > > > > > > > > > > > > > > > > > > > > > > > > > >                                                                                                                                                                                 % % % & & % % % & & % % % % & & & % % % % % % % % % % % % % % % % % % % % % % % %     ",
"    o.o.o.o.o.o.} } } } } } } } } } } } } } } } ( ( } } } } } } } } } } E ( E ( ( ( (                                                                                                                                                                                   w w w w w w w w w w w w w w w w w w w w w w w w w w w w w w w w e 2 2 w 2 2 w w w w w w w e e 2 2 2 2 2 2 2 2 2 2 2 2 2                                                                                                                                                                                                                                                                 , , , , , , , , , , , , , , , > > > > > > > , , > > > > , , > > > > > > > > > > > > > > > > > > > > > > > > > > > > > >                                                                                                                                                                                   % % % & & % % % % % % % % % % & & % % % % % % % % % % % % % % % % % % % % % % % %     ",
"    o.o.o.o.o.} } } } } } } } } } } } } } } } } } } } } } } } } } } E E E E E ( ( ( (                                                                                                                                                                                     w w w w w w w w w w w w w w w w w w w w w w w w w w w w w w w 2 2 w w 2 2 2 w 2 2 w 2 w w 2 2 2 2 2 2 2 2 2 2 2 2 2 2 2                                                                                                                                                                                                                                                             , , , , , , , , , , , , , , , > > , , , , > , , , > , > > , > > > > > > > > > > > > > > > > > > > > > > > > > > > > > >                                                                                                                                                                                     & & % % % % % & % % % % % % % & % % % % % % % % % % % % % % % % % % % % % % % % %     ",
"    o.o.o.o.} } } } } } } } } } } } } } ( ( } } } } } } } } } } } } E E E E E ( ( ( (                                                                                                                                                                                       w w w w w w w w w w w w w w w w w w w w w w w w w w w w w 2 2 2 w w 2 2 2 2 2 2 2 2 w 2 2 2 2 2 2 2 2 2 2 2 2 2 2 2 2 2                                                                                                                                                                                                                                                         , , , , , , , , , , , , , , , > > > , , , , > , , , > , , , > > > > > > > > > > > > > > > > > > > > > > > > > > > > > >                                                                                                                                                                                       % & & % % % % % % % % % % % % % % % % % % % % % % % % % % % % % % % % % % % % % %     ",
"    o.o.o.} } } } } } } } } } } } } } } } ( } } } } } } } } } } } } ( E ( ( ( ( ( ( (                                                                                                                                                                                         w w w w w w w w w w w w w w w w w w w w w w w w w w e 2 2 w w w w w w w w 2 2 2 e 2 2 e 2 2 2 2 2 e 2 2 2 2 2 2 2 2 2 2                                                                                                                                                                                                                                                     , , , , , , , , , , , , , , , > > > , > > , , , , , , > , , > > > > > > > > > > > > > > > > > > > > > > > > > > > > > >                                                                                                                                                                                         % % % & & % % % % % & % % % % % % % % % % % % % % % % % % % % % % % % % % % % % %     ",
"    o.o.} } } } } } } } } } } } } } } } } } ( } } } } } } } E E } ( ( E ( ( ( ( ( E (                                                                                                                                                                                           w w w w w w w w w w w w w w w w w w w w w w w e e 2 2 2 w w w w w w w w 2 2 e 2 2 2 e e e 2 2 2 2 2 2 e 2 2 2 2 2 2 2 2                                                                                                                                                                                                                                                 , , , , , , , , , , , , , , , > > > , , > > , , , , , , > , > > > > > > > > > > > > > > > > > > > > > > > > > > > > > >                                                                                                                                                                                           % % % & % % % % % & & % % % % % % % % % % % % % % % % % % % % % % % % % % % % % %     ",
"    o.} } } } } } } } } } } } } } } } } } } } } } } } } } E } } ( ( ( ( ( ( ( ( E E (                                                                                                                                                                                             w w w w w w w w w w w w w w w w w w w w w w w w w 2 2 2 2 2 2 e 2 w w e w 2 2 2 2 2 2 2 2 2 2 2 2 2 2 2 2 2 2 2 2 2 2 2                                                                                                                                                                                                                                             , , , , , , , , , , , , , , , > > > > , , > > > > , , > > > > > > > > > > > > > > > > > > > > > > > > > > > > > > > > ;                                                                                                                                                                                             % % % & & % % % % & % % % % % % % % % % % % % % % % % % % % % % % % % % % % % % %     ",
"    } } } } } } } } } } } } } } } } } } } } } } } } } } } } } ( ( ( ( ( ( ( ( E E E (                                                                                                                                                                                               w w w w w w w w w w w w w w w w w w w w w w w w w 2 2 2 2 2 2 2 w e e 2 2 2 2 2 2 2 2 2 2 2 2 2 2 2 2 2 2 2 2 2 2 2 2 2                                                                                                                                                                                                                                         , , , , , , , , , , , , , , , > , , , > , , > > > > > > > > > > > > > > > > > > > > > > > > > > > > > > > > > > > > > ;                                                                                                                                                                                               % % % & & % % % % % % % % % % % % % % % % % % % % % % % % % % % % % % % % % % % %     ",
"    } } } } } } } } } } } } } } } } } } } } } } } ( } } } } ( ( ( ( ( ( ( ( E E E E (                                                                                                                                                                                                 w w w w w w w w w w w w w w w w w w e w w w w 2 2 2 2 2 w w w e e 2 2 2 2 2 2 2 2 2 2 2 2 2 2 2 2 2 2 2 2 2 2 2 2 2 2 2                                                                                                                                                                                                                                     , , , , , , , , , , , , , , , , , , , , , > > > > > > > > > > > > > > > > > > > > > > > > > > > > > > > > > > > > > > >                                                                                                                                                                                                 % % % % % & & % % % % % % % % % % % % % % % % % % % % % % % % % % % % % % % % % %     ",
"    } } } } } } } } } ( } } } } } } } } } } } } } ( } } } ( ( ( ( ( ( ( ( E E E E E (                                                                                                                                                                                                   w w w w w w w w w w w w w w w w e 2 w w w w 2 2 2 2 w w w w e 2 2 2 2 2 2 2 2 2 2 2 2 2 2 2 2 2 2 2 2 2 2 2 2 2 2 2 2 2                                                                                                                                                                                                                                 , , , , , , , , , , , , , , , > > > , , , , > > > > , , > > > > > > > > > > > > > > > > > > > > > > > > > > > > > > > ;                                                                                                                                                                                                   % % % % % & & % % % % % % % % % % % % % % % % % % % % % % % % $ % % % % % % % % %     ",
"    } } } } } } } } } } } } ( ( ( } } } } } } } } E E } E E ( E ( ( ( ( E E E E E E (                                                                                                                                                                                                     w w w w w w w w w w w w w w w 2 2 2 w w w w 2 w w w w w w 2 w 2 2 2 2 2 2 2 2 2 2 e e 2 2 2 2 2 2 2 2 2 2 2 2 2 2 2 2 2                                                                                                                                                                                                                             , , , , , , , , , , , , , , , > > > > > > , > > > , , , , , > > > > > > > > > > > > > > > > > > > > > > > > > > > > ; ;                                                                                                                                                                                                     & % % % % & & % % % % % % % % % % % % % % % % % % % % % % % % $ $ % % % % % % % %     ",
"    } } } } } } } } } } } } } } } } } } } } } } E E E ( E E E E ( ( ( E E E E E E E (                                                                                                                                                                                                       w w w w w w w w w w w w w 2 2 2 2 2 w w 2 2 w w w w w 2 2 e 2 2 2 2 2 2 2 2 2 2 2 2 2 2 2 2 2 2 2 2 2 2 2 2 2 2 2 2 2 2                                                                                                                                                                                                                         , , , , , , , , , , , , , , , > > > > > > > , > > > , , , , > > > > > > > > > > > > > > > > > > > > > > > > > > > > ; -                                                                                                                                                                                                       % % % % % % & % % % % % % % % % % % % % % % % % % % % % % % % % % % % % % % % % %     ",
"    } } } } } } } } } } } } } } } } } ( ( ( } } } } ( ( E ( ( ( ( ( E E E E E E E E (                                                                                                                                                                                                         w w w w w w w w w e e 2 2 w w 2 2 w w w w w 2 2 2 2 2 2 2 2 2 2 2 2 2 2 2 2 2 2 2 2 2 2 2 2 2 2 2 2 2 2 2 2 2 2 2 2 2 2                                                                                                                                                                                                                     , , , , , , , , , , , , , , , > > > , , , > > > > > > , , , > > > > > > > > > > > > > > > > > > > > > > > > > > > > > >                                                                                                                                                                                                         % % % % % % % % % % % % % % % % % % % % % % % % % % % % % % % % % % % % % % % % %     ",
"    } } } } } } } } } } } } } } } } } } } } } } } ( ( ( ( ( ( ( ( E E E E E E E E E (                                                                                                                                                                                                           w w w w w w w e e 2 2 2 w w 2 2 w w w w w e 2 2 2 2 2 2 2 2 2 2 2 2 2 2 2 2 2 2 2 2 2 2 2 2 2 2 2 2 2 2 2 2 2 2 2 2 2 2                                                                                                                                                                                                                 , , , , , , , , , , , , , , , > > > , , , , > > > > > > , , > > > > > > > > > > > > > > > > > > > > > > > > > > > > > >                                                                                                                                                                                                           % % % % % % % % % % % % % % % % % % % % % % % % % % % % % % % % % % % % % % $ $ %     ",
"    } } } } } } } } } } } } } ( } } } } } } } } ( ( ( ( ( ( ( ( E E E E E E E E E E (                                                                                                                                                                                                             w w w w w e e 2 2 w w w w 2 2 w w w w 2 2 2 2 2 2 2 2 2 2 2 2 2 2 2 2 2 2 2 2 2 2 2 2 2 2 2 2 2 2 2 2 2 2 2 2 2 2 2 2 2                                                                                                                                                                                                             , , , , , , , , , , , , , , , > > > > , , , , , > > , > > , > > > > > > > > > > > > > > > > > > > > > > > > > > > > > >                                                                                                                                                                                                             % % % % % % % % % % % % % % % % % % % % % % % % % % % % % % % % % % % % % $ $ $ %     ",
"    } } } } } } } } } } } } } } } } } } } } } ( E ( ( ( ( ( ( E E E E E E E E E E E E                                                                                                                                                                                                               w w w e e 2 w w w w w w 2 2 2 2 w e e 2 2 2 2 2 2 2 e e 2 2 2 2 2 2 2 2 2 2 2 2 2 2 2 2 2 2 2 2 2 2 2 2 2 2 2 2 2 2 2 2                                                                                                                                                                                                         , , , , , , , , , , , , , , , > , , , > , , , , , > > , , , > > > > > > > > > > > > > > > > > > > > > > > > > > > > > >                                                                                                                                                                                                               % % % % % % % % % % % % % % % % % % % % % % % % % % % % % % % % % % % % $ $ $ $ %     ",
"    } } } } } } } } ( ( ( } } } } } } E } } ( ( E E ( ( ( ( E E E E E E E E E E E E E                                                                                                                                                                                                                 w w w w 2 2 w w 2 w w e 2 2 2 2 2 2 2 2 2 2 2 2 2 2 2 2 2 2 2 2 2 2 2 2 2 2 2 2 2 2 2 2 2 2 2 2 2 2 1 2 2 2 2 2 2 2 2 1                                                                                                                                                                                                     , , , , , , , , , , , , , , , > > > > > > > , , , , , , , , > > > > > > > > > > > > > > > > > > > > > > > > > > > > > >                                                                                                                                                                                                                 % % % % % % % % % % % % % % % % % % % % % % % % % $ % % % % % % % % % % $ $ $ $ %     ",
"    } } } } } } } } } } } } } } } } } E } ( ( ( ( E ( ( ( E E E E E E E E E E E E E E                                                                                                                                                                                                                   w w w 2 2 w 2 2 w w 2 2 2 2 2 2 2 2 2 2 e e 2 2 2 2 2 2 2 2 2 2 2 2 2 2 2 2 2 2 2 2 2 2 2 2 2 2 1 2 2 2 2 2 2 1 2 1 1 1                                                                                                                                                                                                 , , , , , , , , , , , , , , , , > , > > > > , > , , , , , , > > > > > > > > > > > > > > > > > > > > > > > > > > > > ; >                                                                                                                                                                                                                   % % % % % % % % % % % % % % % % % % % % % $ % % % % % % % % $ % % % % $ $ $ $ $ %     ",
"    ( } } } } } } } } } } } } } } } E E ( ( ( ( E E E ( E E E E E E E E E E E E E E E                                                                                                                                                                                                                     w w w w w 2 2 w w w w e e 2 2 2 2 2 2 2 2 2 2 2 2 2 2 2 2 2 2 2 2 2 2 2 2 2 2 2 2 2 2 2 2 2 2 1 1 2 2 2 1 1 1 1 1 1 1 1                                                                                                                                                                                             , , , , , , , , , , , , , , , , , , , > > > > > > > > , > , > > > > > > > > > > > > > > > > > > > > > > > > > > > > ; ;                                                                                                                                                                                                                     % % % % % % % % % % % % % % % % % % % % % % % % % % % % % % $ % % % $ $ $ $ $ $ %     ",
"    ( } } } } } } } } } } } } } } } E E E ( ( ( ( ( E E E E E E E E E E E E E E E E E                                                                                                                                                                                                                       2 w w w w w w w w e e 2 2 2 2 2 2 e 2 2 2 2 2 2 2 2 2 2 2 2 2 2 2 2 2 2 2 2 2 2 2 2 2 2 2 2 1 1 2 2 2 1 1 1 1 1 1 1 1 1                                                                                                                                                                                         , , , , , , , , , , , , , , , > , , , , > > > > > > > > > > > > > > > > > > > > > > > > > > > > > > > > > > > > > > > ;                                                                                                                                                                                                                       % % % % % % % % % % % % % % % % % % % % % % % % % % % % % % $ % % $ $ $ $ $ $ $ %     ",
"    ( } } } } } } } } } } } } } } } ( ( ( ( ( ( ( ( E E E E E E D D E E E E E E E E E                                                                                                                                                                                                                         w w w 2 2 w w e e 2 2 2 2 2 2 e e 2 2 2 2 2 2 2 2 2 2 2 2 2 2 2 2 2 2 2 2 2 2 2 2 1 2 2 2 2 2 2 2 2 2 1 1 1 1 1 1 1 1 2                                                                                                                                                                                     , , , , , , , , , , , , , , , > > > > , , > > > > , , > > , > > > > > > > > > > > > > > > > > > > > > > > > > > > > > >                                                                                                                                                                                                                         % % % % % % % % % % % % % % % % % % % % % % % % % % % % % % % $ $ $ $ $ $ $ $ $ %     ",
"    ( } } } } } } } } } } } } } } ( E E ( ( ( ( ( E E E E E E E D E E E E E E E E E E                                                                                                                                                                                                                           w 2 2 2 w e e 2 2 2 2 2 2 2 2 2 e 2 2 2 2 2 2 2 2 2 2 2 2 2 2 2 2 2 2 2 2 2 2 2 2 2 2 2 2 2 2 2 2 1 1 1 1 1 1 1 1 1 1 1                                                                                                                                                                                 , , , , , , , , , , , , , , , > > > > > , , > > > > , , > > > > > > > > > > > > > > > > > > > > > > > > > > > > > > > >                                                                                                                                                                                                                           % % % % % % % % % % % % % % % % % % % % % % % % % % % % % % % $ $ $ $ $ $ $ $ $ %     ",
"    ( } } } } } } } } } } } } } E E E E ( ( ( ( E E E E E E E E E E E E E E E E E E E                                                                                                                                                                                                                             w 2 2 e e 2 2 2 2 2 2 2 2 2 2 e 2 2 2 2 2 2 2 2 2 2 2 2 2 2 2 2 2 2 2 2 2 2 2 2 2 2 2 2 2 2 2 1 1 1 1 1 1 1 1 1 1 1 1 1                                                                                                                                                                             , , , , , , , , , , , , , , , > > > > > , , , > > > , , , > > > > > > > > > > > > > > > > > > > > > > > > > > > > > ; ;                                                                                                                                                                                                                             % % % % % % % % % % % % % % % % % % % % % % % % % % % % % % $ $ $ $ $ $ $ $ $ $ %     ",
"    ( } } } } } } } } } E } } ( ( E E E ( ( ( E E E E E E E E E E E E E E E E E E E E                                                                                                                                                                                                                               2 2 e 2 2 2 2 2 2 2 2 2 2 2 2 2 2 2 2 2 2 2 2 2 2 2 2 2 2 2 2 2 2 2 2 2 2 2 2 2 2 2 2 2 2 1 1 1 1 1 1 1 1 1 1 1 1 1 1 1                                                                                                                                                                         , , , , , , , , , , , , , , , > > > > > > , , , > > > > , , > > > > > > > > > > > > > > > > > > > > > > > > > > > > ; ;                                                                                                                                                                                                                               % % % % % % % % % % % % % % % % % % % % % % % % % % % % % $ $ $ $ $ $ $ $ $ $ $ %     ",
"    ( } } } } } } } } } } } ( ( ( ( ( ( ( ( E E E E E E E E E E E D E E E D D E E E D                                                                                                                                                                                                                                 w 2 2 2 2 2 2 2 2 2 2 2 2 2 2 2 2 2 2 2 2 2 2 2 2 2 2 2 2 2 2 2 2 1 1 2 2 2 1 1 1 2 2 1 1 1 1 1 1 1 1 1 1 1 1 1 1 1 1 1                                                                                                                                                                     , , , , , , , , , , , , , , , > > > , , , , , > > > > , , , > > > > > > > > > > > > > > > > > > > > > > > > > > > > > >                                                                                                                                                                                                                                 % % % % % % % % % % % % % % % % % % $ $ % % % % % % % % $ $ $ $ $ $ $ $ $ $ $ $ %     ",
"    ( } } } } } } } } } } ( ( ( ( ( ( ( ( E E E E E E E E E E E E D E E E E E E E D D                                                                                                                                                                                                                                   2 2 2 2 2 2 2 2 2 2 2 2 2 2 2 2 2 2 2 2 2 2 2 2 2 2 2 2 2 2 2 2 1 1 2 2 1 1 2 1 2 1 1 1 1 1 1 1 1 1 1 1 1 1 1 1 1 1 1 <                                                                                                                                                                 , , , , , , , , , , , , , , , > > > , , , , , , > > > > , , > > > > > > > > > > > > > > > > > > > > > > > > > > > > > >                                                                                                                                                                                                                                   % % % % % % % % % % % % % % % % % % % % % % % $ $ % $ $ $ $ $ $ $ $ $ $ $ $ $ $ %     ",
"    ( } } } } } } E E } E E ( ( ( ( ( ( E E E E E E E E E E E E E E E E E E E E D D D                                                                                                                                                                                                                                     2 2 2 2 2 2 2 2 2 2 2 2 2 2 2 2 2 2 2 2 2 2 2 2 2 2 2 2 1 2 2 1 2 2 2 2 2 2 2 1 1 1 1 1 1 1 1 1 1 1 1 1 1 1 1 1 1 1 1 1                                                                                                                                                             , , , , , , , , , , , , , , , > > > > , , , , > > > , > > , > > > > > > > > > > > > > > > > > > > > > > > > > > > > > >                                                                                                                                                                                                                                     % % % % % % % % % % % % % % % % % % % % % % % % % $ $ $ $ $ $ $ $ $ $ $ $ $ $ $ %     ",
"    ( } } } } } E E E E E E E E ( ( ( E E E E E E E E E E E E D E E E E E E E D D D D                                                                                                                                                                                                                                       2 2 e 2 2 2 2 2 2 2 2 2 2 2 2 2 2 2 2 2 2 2 2 2 2 2 1 1 2 2 2 2 2 2 2 2 2 1 1 1 1 1 1 1 1 1 1 1 1 1 1 1 1 1 1 1 1 1 1 <                                                                                                                                                         , , , , , , , , , , , , , , , > > > , > , , , > > > > , , , > > > > > > > > > > > > > > > > > > > > > > > > > > > > > >                                                                                                                                                                                                                                       % % % % % % % % % % % % % % % % % % % % % % % % % $ $ $ $ $ $ $ $ $ $ $ $ $ $ $ $     ",
"    ( } } } } } } } ( ( E ( ( ( ( ( E E E E E E E E E E E E E D E E E E E E D D D D D                                                                                                                                                                                                                                         e e 2 2 2 2 2 2 2 2 2 2 2 2 2 2 2 2 2 2 2 2 2 2 2 2 2 2 2 2 2 2 2 2 2 1 1 1 1 1 1 1 1 1 1 1 1 1 1 1 1 1 1 1 1 1 1 1 1 1                                                                                                                                                     , , , , , , , , , , , , , , , > > > > , , > > , , > > > , , > > > > > > > > > > > > > > > > > > > > > > > > > > > > > >                                                                                                                                                                                                                                         % % % % % % % % % % % % % % % % % $ % % % % % % $ $ $ $ $ $ $ $ $ $ $ $ $ $ $ $ $     ",
"    ( } } } } } } ( ( ( ( ( ( ( ( E E E E E E E E E E E E E E E E E E E E D D D D D D                                                                                                                                                                                                                                           e 2 2 2 2 2 2 2 2 2 2 2 2 2 2 2 2 2 2 2 2 2 2 2 2 2 2 2 2 2 2 2 2 1 1 1 1 1 1 1 1 1 1 1 1 1 1 1 1 1 1 1 1 1 1 1 1 1 1 1                                                                                                                                                 , , , , , , , , , , , , , , , > > > > > > > , , , , > > > , > > > > > > > > > > > > > > > > > > > > > > > > > > > > > >                                                                                                                                                                                                                                           % % % % % % % % % % % % % % % % % % % % % % % $ $ $ $ $ $ $ $ $ $ $ $ $ $ $ $ $ $     ",
"    ( } } } } } ( ( ( ( ( ( ( ( E E E E E E E E E E E E E E E E E E E E D D D D D D D                                                                                                                                                                                                                                             2 2 2 2 2 2 2 2 2 2 2 2 2 2 2 2 2 2 2 2 2 1 1 2 2 2 2 2 2 2 2 1 1 1 1 1 1 1 1 1 1 1 1 1 1 1 1 1 1 1 1 1 1 1 1 1 1 1 1 1                                                                                                                                             , , , , , , , , , , , , , , , , , > > > > > > > , , > > > > > > > > > > > > > > > > > > > > > > > > > > > > > > > > > >                                                                                                                                                                                                                                             % % % % % % % % % % % % % % % % % % % % % % $ $ $ $ $ $ $ $ $ $ $ $ $ $ $ $ $ $ $     ",
"    ( } } } } ( E ( ( ( ( ( ( E E E E E E E E E E E E E E E E E E E E D D D D D D D D                                                                                                                                                                                                                                               2 2 2 2 2 2 2 2 2 2 2 2 2 2 2 2 2 2 2 2 1 1 2 2 2 2 2 2 2 1 1 1 1 1 1 1 1 1 1 1 1 1 1 1 1 1 1 1 1 1 1 1 1 1 1 1 1 1 1 1                                                                                                                                         , , , , , , , , , , , , , , , , , , > > , , > > > > , > > > > > > > > > > > > > > > > > > > > > > > > > > > > > > > > >                                                                                                                                                                                                                                               % % % % % % % % % % $ % % % % % % % $ % % $ $ $ $ $ $ $ $ $ $ $ $ $ $ $ $ $ $ $ $     ",
"    ( E } } ( ( E E ( ( ( ( E E E E E E E E E E E E E E E E E E E E D D D D D D D D D                                                                                                                                                                                                                                                 2 2 2 2 2 2 2 2 2 2 2 2 2 2 2 2 2 2 2 2 1 2 2 2 2 2 2 1 1 1 1 1 1 1 1 1 1 1 1 1 1 1 1 1 1 1 1 1 1 1 1 1 1 1 1 1 1 1 1 1                                                                                                                                     , , , , , , , , , , , , , , , > > > > > > , , > > > > , , , > > > > > > > > > > > > > > > > > > > > > > > > > > > > > >                                                                                                                                                                                                                                                 % % % % % % % % % % $ % % % % % % % % % $ $ $ $ $ $ $ $ $ $ $ $ $ $ $ $ $ $ $ $ $     ",
"    ( E } ( ( ( E E ( ( ( E E E E E E E E E E E E E E E E E E E E D D D D D D D D D D                                                                                                                                                                                                                                                   2 2 2 2 2 2 2 2 2 2 2 2 2 2 2 2 2 2 1 1 2 2 2 2 2 1 1 1 1 1 1 1 1 1 1 1 1 1 1 1 1 1 1 1 1 1 1 1 1 1 1 1 1 1 1 1 1 < < 1                                                                                                                                 , , , , , , , , , , , , , , , > > > > > > > , , > > > > , , > > > > > > > > > > > > > > > > > > > > > > > > > > > > > >                                                                                                                                                                                                                                                   % % % % % % % % % % % % % % % % % % % $ $ $ $ $ $ $ $ $ $ $ $ $ $ $ $ $ $ $ $ $ $     ",
"    E E ( ( ( ( ( ( ( ( E E E E E E E E E E E E E E E E E E E E D D D D D D D D D D D                                                                                                                                                                                                                                                     2 2 2 2 2 2 2 2 2 2 2 2 2 2 2 2 2 1 2 2 2 2 2 1 1 1 1 1 1 1 1 1 1 1 1 1 1 1 1 1 1 1 1 1 1 1 1 1 1 1 1 1 1 1 1 < < < < 1                                                                                                                             , , , , , , , , , , , , , , , > > , , , , > , , , > , > > , > > > > > > > > > > > > > > > > > > > > > > > > > > > > > >                                                                                                                                                                                                                                                     % % % % % % % % % % % % % % % % % % $ $ $ $ $ $ $ $ $ $ $ $ $ $ $ $ $ $ $ $ $ $ $     ",
"    E E E ( ( ( ( E E E E E E E E E E E E E E E E E E E E E E D D D D D D D D D D D D                                                                                                                                                                                                                                                       2 2 2 2 2 2 2 2 2 2 2 2 2 2 2 2 2 2 2 2 2 1 1 1 1 1 1 1 1 1 1 1 1 1 1 1 1 1 1 1 1 1 1 1 1 1 1 1 1 1 1 1 1 < < < < < < <                                                                                                                         , , , , , , , , , , , , , , , > > > , , , , > , , , > , , , > > > > > > > > > > > > > > > > > > > > > > > > > > > > > >                                                                                                                                                                                                                                                       % % % % % % % % % % % % % % % % % $ $ $ $ $ $ $ $ $ $ $ $ $ $ $ $ $ $ $ $ $ $ $ $     ",
"    ( ( ( ( ( ( ( ( E E E E E E E E E E E E E E E D E E E E D D D D D D D D D D D D D                                                                                                                                                                                                                                                         2 2 2 2 2 2 2 2 2 2 2 2 2 2 2 2 2 2 2 1 1 1 1 1 1 1 1 1 1 1 1 1 1 1 1 1 1 1 1 1 1 1 1 1 1 1 1 1 1 1 1 < < < < < < < <                                                                                                                       , , , , , , , , , , , , , , , > > > , > > , , , , , , > , , > > > > > > > > > > > > > > > > > > > > > > > > > > > > ; >                                                                                                                                                                                                                                                         % % % % % % % % % $ % % % % % % $ $ $ $ $ $ $ $ $ $ $ $ $ $ $ $ $ $ $ $ $ $ $ $ $     ",
"    ( ( ( ( ( ( ( E E E E E E E E E E E E E E D E E E E E D D D D D D D D D D D D D n                                                                                                     u                                                                                                                                                     2 2 2 2 2 2 2 2 2 2 2 2 2 2 2 2 2 1 1 1 1 1 1 1 1 1 1 1 1 1 1 1 1 1 1 1 1 1 1 1 1 1 1 1 1 1 1 1 1 < < < < < < < < < <                                                                                                                     , , , , , , , , , , , , , , > > > , , > > , , , , , , > , > > > > > > > > > > > > > > > > > > > > > > > > > > > > ; ;                                                                                                                                                     &                                                                                                     % % % % % % % % % % % % % % $ $ $ $ $ $ $ $ $ $ $ $ $ $ $ $ $ $ $ $ $ $ $ $ $ $ $     ",
"    ( ( ( ( ( ( E E E E E E E E D E E E E E E E E E E E D D D D D D D D D D D D D D D                                                                                                     u u                                                                                                                                                     2 2 2 2 2 1 2 2 2 2 2 1 1 2 1 1 1 1 1 1 1 1 1 1 1 1 1 1 1 1 1 1 1 1 1 1 1 1 1 1 1 1 1 1 1 1 1 < < < < < < < < < < < <                                                                                                                 , , , , , , , , , , , , , , > > > > , , > > > > , , > > > > > > > > > > > > > > > > > > > > > > > > > > > > > > > > ;                                                                                                                                                     & &                                                                                                     % % % % % % % % % % $ % % $ $ $ $ $ $ $ $ $ $ $ $ $ $ $ $ $ $ $ $ $ $ $ $ $ $ $ $     ",
"    ( ( ( ( ( E E E E E E E E E D E E E E E E E E E E D D D D D D D D D D D D D D D D                                                                                                     u u w                                                                                                                                                     2 2 2 2 1 1 1 2 2 2 2 1 1 1 1 1 1 1 1 1 1 1 1 1 1 1 1 1 1 1 1 1 1 1 1 1 1 1 1 1 1 1 1 1 1 < < < < < < < < < < < < < <                                                                                                             , , , , , , , , , , , , , , > , , , > , , > > > > > > > > > > > > > > > > > > > > > > > > > > > > > > > > > > > > > ;                                                                                                                                                     & & &                                                                                                     % % % % % % % % % % % % $ $ $ $ $ $ $ $ $ $ $ $ $ $ $ $ $ $ $ $ $ $ $ $ $ $ $ $ $     ",
"    ( ( ( ( E E E E E E E E E E E E E E D E E E E E D D D D D D D D D D D D D n D D D                                                                                                     u w w w                                                                                                                                                     2 2 2 2 2 2 2 2 2 2 2 1 1 1 1 1 1 1 1 1 1 1 1 1 1 1 1 1 1 1 1 1 1 1 1 1 1 1 1 1 1 1 1 < < < < < < < < < < < < < < < <                                                                                                         , , , , , , , , , , , , , , , , , , , , > > > > > > > > > > > > > > > > > > > > > > > > > > > > > > > > > > > > > > ;                                                                                                                                                     & & & &                                                                                                     % % % % % % % % % % % $ $ $ $ $ $ $ $ $ $ $ $ $ $ $ $ $ $ $ $ $ $ $ $ $ $ $ $ $ $     ",
"    ( ( ( E E E E E E E E E E E E E E E E E E E E D D D D D D D D D D D D D n n D D D                                                                                                     w w w w w                                                                                                                                                     2 2 2 2 2 2 2 2 2 1 1 1 1 1 1 1 1 1 1 1 1 1 1 1 1 1 1 1 1 1 1 1 1 1 1 1 1 1 1 1 1 < < < < < < < < < < < < < < < < < <                                                                                                     , , , , , , , , , , , , , , > > > , , , , > > > > , , > > > > > > > > > > > > > > > > > > > > > > > > > > > > > > > >                                                                                                                                                     & & & & &                                                                                                     % % % % % % % % % % % $ $ $ $ $ $ $ $ $ $ $ $ $ $ $ $ $ $ $ $ $ $ $ $ $ $ $ $ $ #     ",
"    ( ( E E E E E E D E E E E E E E E E E E E E D D D D D D D D D D D D D D n n D D D                                                                                                     w w w w w w                                                                                                                                                     2 2 2 2 2 2 2 1 1 1 1 1 1 1 1 1 1 1 1 1 1 1 1 1 1 1 1 1 1 1 1 1 1 1 1 1 1 1 1 < < < < < < < < < < < < < < < < < < < <                                                                                                 , , , , , , , , , , , , , , > > > > > > , > > > , , , , , > > > > > > > > > > > > > > > > > > > > > > > > > > > > > >                                                                                                                                                     & & & & & &                                                                                                     % % % % % % % % % % $ $ $ $ $ $ $ $ $ $ $ $ $ $ $ $ $ $ $ $ $ $ $ $ $ $ $ $ $ $ #     ",
"    ( E E E E E E D D E E E E E E E E E E E E D D D D D D D D D D D D D D D n n D D D                                                                                                     w w w w w w w                                                                                                                                                     2 2 2 2 2 1 1 1 1 1 1 1 1 1 1 1 1 1 1 1 1 1 1 1 1 1 1 1 1 1 1 1 1 1 1 1 1 < < < < < < < < < < < < < < < < < < < < < <                                                                                             , , , , , , , , , , , , , , > > > > > > > , > > > , , , , > > > > > > > > > > > > > > > > > > > > > > > > > > > > > >                                                                                                                                                     & & & & & & &                                                                                                     % % % % % % % % % $ $ $ $ $ $ $ $ $ $ $ $ $ $ $ $ $ $ $ $ $ $ $ $ $ $ $ $ $ $ $ #     ",
"    ( E E E E E E E E E E E E E E E E E E E D D D D D D D D D D D D D n D D D n D D n                                                                                                     w w w w w w w w                                                                                                                                                     2 2 2 1 1 1 1 1 1 1 1 1 1 1 1 1 1 1 1 1 1 1 1 1 1 1 1 1 1 1 1 1 1 1 1 < < < < < < < < < < < < < < < < < < < < < < < <                                                                                         , , , , , , , , , , , , , , > > > , , , > > > > > > , , , > > > > > > > > > > > > > > > > > > > > > > > > > > > > ; >                                                                                                                                                     & & & & & & & &                                                                                                     % % % % % % % % $ $ $ $ $ $ $ $ $ $ $ $ $ $ $ $ $ $ $ $ $ $ $ $ $ $ $ $ $ $ $ $ $     ",
"    ( E E E E E E E E E E E E E E E E E D D D D D D D D D D D D D D n n D D D D D D n                                                                                                     w w w w w w w w w                                                                                                                                                     2 1 1 1 1 1 1 1 1 1 1 1 1 1 1 1 1 1 1 1 1 1 1 1 1 1 1 1 1 1 1 1 1 < < < < < < < < < < < < < < < < < < < < < < < < < <                                                                                     , , , , , , , , , , , , , , > > > , , , , > > > > > > , , > > > > > > > > > > > > > > > > > > > > > > > > > > > > ; ;                                                                                                                                                     & & & & & & & & &                                                                                                     % % % % % % $ $ $ $ $ $ $ $ $ $ $ $ $ $ $ $ $ $ $ $ $ $ $ $ $ $ $ $ $ $ $ $ $ $ @     ",
"    ( E E E E E E E E D E E E E E E E E D D D D D D D D D D D D D D n D D D D D n n n                                                                                                     w w w w w w w w w w                                                                                                                                                     1 1 1 1 1 1 1 1 1 1 1 1 1 1 1 1 1 1 1 1 1 1 1 1 1 1 1 1 1 1 1 < < < < < < < < < < < < < < < < < < < < < < < < < < < <                                                                                 , , , , , , , , , , , , , , > > > > , , , , , > > , > > , > > > > > > > > > > > > > > > > > > > > > > > > > > > > > ;                                                                                                                                                     & & & & & & & & & &                                                                                                     % % % % % $ $ $ $ $ $ $ $ $ $ $ $ $ $ $ $ $ $ $ $ $ $ $ $ $ $ $ $ $ $ $ $ $ $ $ $     ",
"    ( E E E E E E E E E E E E E E E E D D D D D D D D D D D D D D D D D D D D D n n n                                                                                                     w w w w w w w w w w w                                                                                                                                                     2 1 1 1 1 1 1 1 1 1 1 1 1 1 1 1 1 1 1 1 1 1 1 1 1 1 1 1 1 < < < < < < < < < < < < < < < < < < < < < < < < < < < < < <                                                                             , , , , , , , , , , , , , , > , , , > , , , , , > > , , , > > > > > > > > > > > > > > > > > > > > > > > > > > > > > >                                                                                                                                                     & & & & & & & & & & &                                                                                                     % % % % $ $ $ $ $ $ $ $ $ $ $ $ $ $ $ $ $ $ $ $ $ $ $ $ $ $ $ $ $ $ $ $ $ $ $ $ $     ",
"    ( E E E E E E E E E E E E E E E D D D D D D D D D D D D D D D D n n n D D D D D n                                                                                                     w w w w w w w w w w w w                                                                                                                                                     2 1 1 1 1 1 1 1 1 1 1 1 1 1 1 1 1 1 1 1 1 1 1 1 1 1 1 < < < < < < < < < < < < < < < < < < < < < < < < < < < < < < < <                                                                         , , , , , , , , , , , , , , > > > > > > > , , , , , , , , > > > > > > > > > > > > > > > > > > > > > > > > > > > > ; >                                                                                                                                                     & & & & & & & & & & & &                                                                                                     % % % % $ $ $ $ $ $ $ $ $ $ $ $ $ $ $ $ $ $ $ $ $ $ $ $ $ $ $ $ $ $ $ $ $ $ $ $ $     ",
"    ( E E E E E E E E E E E E E E D D D D D D D D D D D D D D D D D n n n D D D D n n                                                                                                     w w w w w w w w w w w w w                                                                                                                                                     2 1 1 1 1 1 1 1 1 1 1 1 1 1 1 1 1 1 1 1 1 1 1 1 1 < < < < < < < < < < < < < < < < < < < < < < < < < < < < < < < < < <                                                                     , , , , , , , , , , , , , , > > , > > > > , > , , , , , , > > > > > > > > > > > > > > > > > > > > > > > > > > > > ; >                                                                                                                                                     & & & & & & & & & & & & &                                                                                                     % % % $ $ $ $ $ $ $ $ $ $ $ $ $ $ $ $ $ $ $ $ $ $ $ $ $ $ $ $ $ $ $ $ $ $ $ $ $ $     ",
"    ( E E E E E E E D D E E E E D D D D D D D D D D D D D D D n D n n n D D D D n n n                                                                                                     w w w w w w w w w w w w w w                                                                                                                                                     1 1 1 1 1 1 1 1 1 1 1 1 1 1 1 1 1 1 1 1 1 1 1 < < < < < < < < < < < < < < < < < < < < < < < < < < < < < < < < < < < <                                                                 , , , , , , , , , , , , , , > > , , > > > > > > > > , > , > > > > > > > > > > > > > > > > > > > > > > > > > > > > ; >                                                                                                                                                     & & & & & & & & & & & & & &                                                                                                     % % $ $ $ $ $ $ $ $ $ $ $ $ $ $ $ $ $ $ $ $ $ $ $ $ $ $ $ $ $ $ $ $ $ $ $ $ $ $ $     ",
"    ( E E E E E E E E E E E E D D D D D D D D D D D D D D D D n D D n n D D D n n n n                                                                                                     w w w w w w w w w w w w w w w                                                                                                                                                     1 1 1 1 1 1 1 1 1 1 1 1 1 1 1 1 1 1 1 1 1 < < < < < < < < < < < < < < < < < < < < < < < < < < < < < < < < < < < < < <                                                             , , , , , , , , , , , , , , > > > , , > > > > > > > > > > > > > > > > > > > > > > > > > > > > > > > > > > > > > > > >                                                                                                                                                     & & & & & & & & & & & & & & %                                                                                                     % $ $ $ $ $ $ $ $ $ $ $ $ $ $ $ $ $ $ $ $ $ $ $ $ $ $ $ $ $ $ $ $ $ $ $ $ $ $ $ $     ",
"    ( E E E E E E E E E E E D D D D D D D D D D D D D D D D n n D D D D D n n n n n n                                                                                                     w w w w w w w w w w w w w w w w                                                                                                                                                     1 1 1 1 1 1 1 1 1 1 1 1 1 1 1 1 1 1 1 < < < < < < < < < < < < < < < < < < < < < < < < < < < < < < < < < < < < < < < <                                                         , , , , , , , , , , , , , , , , , , , , > > > > , , > > , > > > > > > > > > > > > > > > > > > > > > > > > > > > > > >                                                                                                                                                     & & & & & & & & & & & & & & % %                                                                                                     $ $ $ $ $ $ $ $ $ $ $ $ $ $ $ $ $ $ $ $ $ $ $ $ $ $ $ $ $ $ $ $ $ $ $ $ $ $ $ $ @     ",
"    ( E E E D E E E E D E D D D D D D D D D D D D D D D D D n n D D D D n n n n n n n                                                                                                     w w w w w w w w w w w w w w w w w                                                                                                                                                     1 1 1 1 1 1 1 1 1 1 1 1 1 1 1 1 1 < < < < < < < < < < < < < < < < < < < < < < < < < < < < < < < < < < < < < < < < , ,                                                     , , , , , , , , , , , , , , > , , , , , , > > > > , , > > > > > > > > > > > > > > > > > > > > > > > > > > > > > > > >                                                                                                                                                     & & & & & & & & & & & & & & % % %                                                                                                     $ $ $ $ $ $ $ $ $ $ $ $ $ $ $ $ $ $ $ $ $ $ $ $ $ $ $ $ $ $ $ $ $ $ $ $ $ $ $ $ @     ",
"    ( E E E D E E E E D D D D D D D D D D D D D D n n D D n n n D D D D n n n n n n n                                                                                                     w w w w w w w w w w w w w w w w w w                                                                                                                                                     1 1 1 1 1 1 1 1 1 1 1 1 1 1 1 < < < < < < < < < < < < < < < < < < < < < < < < < < < < < < < < < < < < < < < < , , , ,                                                 , , , , , , , , , , , , , , > > , , > > , , > > > , , , > > > > > > > > > > > > > > > > > > > > > > > > > > > > > > >                                                                                                                                                     & & & & & & & & & & & & & & % % % %                                                                                                     $ $ $ $ $ $ $ $ $ $ $ $ $ $ $ $ $ $ $ $ $ $ $ $ $ $ $ $ $ $ $ $ $ $ $ $ $ $ $ $ @     ",
"    E E E E E E E E E D D D D D D D D D D D D D n n D D D D n n n D D n n n n n n n n                                                                                                     w w w w w w w w w w w w w w w w w e 2                                                                                                                                                     1 1 1 1 1 1 1 1 1 1 1 1 1 < < < < < < < < < < < < < < < < < < < < < < < < < < < < < < < < < < < < < < < < , , , , , ,                                             , , , , , , , , , , , , , , > > > , , > > , , > > > > , , > > > > > > > > > > > > > > > > > > > > > > > > > > > > > >                                                                                                                                                     & & & & & & & & & & & & & & % % % % %                                                                                                     $ $ $ $ $ $ $ $ $ $ $ $ $ $ $ $ $ $ $ $ $ $ $ $ $ $ $ $ $ $ $ $ $ $ $ $ $ $ $ $ @     ",
"    E E E E E E E E D D D D D D D D D D D D D n D n n n D D D D n n n n n n n n n n n                                                                                                     w w w w w w w w w w w w w w w w w w w w                                                                                                                                                     1 1 1 1 1 1 1 1 1 1 1 < < < < < < < < < < < < < < < < < < < < < < < < < < < < < < < < < < < < < < < < , , , , , , , ,                                         , , , , , , , , , , , , , , , , , , , , > > > > > > , , , > > > > > > > > > > > > > > > > > > > > > > > > > > > > > >                                                                                                                                                     & & & & & & & & & & & & & & & & & % % &                                                                                                     $ $ $ $ $ $ $ $ $ $ $ $ $ $ $ $ $ $ $ $ $ $ $ $ $ $ $ $ $ $ $ $ $ $ $ $ $ $ $ $ @     ",
"    E E E E E E E D D D D D D D D D D D D D n n D n n n D D D D n n n n n n n n n n n                                                                                                     w w w w w w w w w w w w w w e w w w w w w                                                                                                                                                     1 1 1 1 1 1 1 1 1 < < < < < < < < < < < < < < < < < < < < < < < < < < < < < < < < < < < < < < < < , , , , , , , , , ,                                     , , , , , , , , , , , , , , > > > , , , , > > > > > > , , > > > > > > > > > > > > > > > > > > > > > > > > > > > > > >                                                                                                                                                     & & & & & & & & & & & & & & & & & & % % &                                                                                                     $ $ $ $ $ $ $ $ $ $ $ $ $ $ $ $ $ $ $ $ $ $ $ $ $ $ $ $ $ $ $ $ $ $ $ $ $ $ $ $ @     ",
"    E E E E E E D D D D D D D D D D D D D n D n D D n n D D D D n n n n n n n n n n n                                                                                                     w w w w w w w w w w w w w e e w 2 w w w w w                                                                                                                                                     1 1 1 1 1 1 1 < < < < < < < < < < < < < < < < < < < < < < < < < < < < < < < < < < < < < < < < , , , , , , , , , , , ,                                 , , , , , , , , , , , , , , > > > > > > , > > > > , > > , > > > > > > > > > > > > > > > > > > > > > > > > > > > > ; ;                                                                                                                                                     & & & & & & & & & & & & & & % % % % % % & &                                                                                                     $ $ $ $ $ $ $ $ $ $ $ $ $ $ $ $ $ $ $ $ $ $ $ $ $ $ $ $ $ $ $ $ $ $ $ $ $ $ $ $ $     ",
"    E E E E E D D D D D D D D D D D D D n n D D D D n n n D D n n n n n n n n n n n n                                                                                                     w w w w w w w w w w w w w e 2 2 2 w w 2 w w w                                                                                                                                                     1 1 1 1 1 < < < < < < < < < < < < < < < < < < < < < < < < < < < < < < < < < < < < < < < < , , , , , , , , , , , , , ,                             , , , , , , , , , , , , , , > > > > > > > , > > > > , , , > > > > > > > > > > > > > > > > > > > > > > > > > > > > ; ;                                                                                                                                                     & & & & & & & & & & & & & & % % % % % & & & &                                                                                                     $ $ $ $ $ $ $ $ $ $ $ $ $ $ $ $ $ $ $ $ $ $ $ $ $ $ $ $ $ $ $ $ $ $ $ $ @ $ $ $ $     ",
"    E E E E D D D D D D D D D D D D D D D D D D D D D D D D n n n n n n n n n n n n n                                                                                                     w w w w w w w w w w w w w 2 2 2 2 2 w 2 w w w w                                                                                                                                                     1 1 1 < < < < < < < < < < < < < < < < < < < < < < < < < < < < < < < < < < < < < < < < , , , , , , , , , , , , , , , ,                         , , , , , , , , , , , , , , > > > , , , > > > > > > > , , > > > > > > > > > > > > > > > > > > > > > > > > > > > > > >                                                                                                                                                     & & & & & & & & & & & & & & % % % % % % & % % %                                                                                                     $ $ $ $ $ $ $ $ $ $ $ $ $ $ $ $ $ $ $ $ $ $ $ $ $ $ $ $ $ $ $ $ $ $ $ @ @ @ @ $ $     ",
"    E E E D D D D D D D D D D D D D D D D D D D D D D D D n n n n n n n n n n n n n n                                                                                                     w w w w w w w w w w e w 2 2 2 2 2 2 2 2 w 2 2 w e                                                                                                                                                     1 < < < < < < < < < < < < < < < < < < < < < < < < < < < < < < < < < < < < < < < < , , , , , , , , , , , , , , , , , ,                     , , , , , , , , , , , , , , > > > , , , , > > > > > > > , > > > > > > > > > > > > > > > > > > > > > > > > > > > > > >                                                                                                                                                     & & & & & & & & & & & & & & % % % % % % % % % % %                                                                                                     $ $ $ $ $ $ $ $ $ $ $ $ $ $ $ $ $ $ $ $ $ $ $ $ $ $ $ $ $ $ $ $ $ $ @ @ @ @ @ $ $     ",
"    E E D D D D D D D D D D D D D n D D D D n n n n D n n n n n n n n n a n n n n n n                                                                                                     w w w w w w w w w w w w w 2 2 2 2 w w w w 2 2 e e 2                                                                                                                                                     < < < < < < < < < < < < < < < < < < < < < < < < < < < < < < < < < < < < < < < , , , , , , , , , , , , , , , , , , , ,                 , , , , , , , , , , , , , , > > > > , , , , , > > , > > > > > > > > > > > > > > > > > > > > > > > > > > > > > > > > >                                                                                                                                                     & & & & & & & & & & & & & & & % % % % % % & % % % %                                                                                                     $ $ $ $ $ $ $ $ $ $ $ $ $ $ $ $ $ $ $ $ $ $ $ $ $ $ $ $ $ $ $ $ $ $ $ $ $ @ @ $ $     ",
"    E D D D D D D D D D D D D D n n D n D D n n n n n n n n n n n n n n a n n n n n n                                                                                                     w w w w w w w w w w w w w 2 2 2 2 2 w w 2 2 2 e 2 2 2                                                                                                                                                     < < < < < < < < < < < < < < < < < < < < < < < < < < < < < < < < < < < < < , , , , , , , , , , , , , , , , , , , , , ,             , , , , , , , , , , , , , , > , , , > , , , , , > > , , , > > > > > > > > > > > > > > > > > > > > > > > > > > > > > >                                                                                                                                                     & & & & & & & & & & & & & & & % % % % % % & & % % % %                                                                                                     $ $ $ $ $ $ $ $ $ $ $ $ $ $ $ $ $ $ $ $ $ $ $ $ $ $ $ $ $ $ $ $ $ $ $ $ $ $ @ $ $     ",
"    E D D D D D D D D D D D D n n n D D D D D D D D n n n n n n a n n n n n n n n n n                                                                                                     w w w w w w w w w 2 2 2 2 2 2 2 2 w w w w 2 2 2 2 2 2 2                                                                                                                                                     < < < < < < < < < < < < < < < < < < < < < < < < < < < < < < < < < < < , , , , , , , , , , , , , , , , , , , , , , , ,         > , , , , , , , , , , , , , > > > > > > > , , , , , , , , > > > > > > > > > > > > > > > > > > > > > > > > > > > > > >                                                                                                                                                     & & & & & & & & & & & & & & % % % & & % % & & & % % % %                                                                                                     $ $ $ $ $ $ $ $ $ $ $ $ $ $ $ $ $ $ $ $ $ $ $ $ $ $ $ $ $ $ $ @ @ $ $ @ @ @ $ @ $     ",
"    E D D D D D D D D D D D D D n n D D D D n n D n n n n n n n a n n n n n n n n n n                                                                                                     w w w w w w e w 2 w w 2 w 2 2 2 2 w w w 2 2 2 2 2 2 2 2 2                                                                                                                                                     < < < < < < < < < < < < < < < < < < < < < < < < < < < , < < < < < , , , , , , , , , , , , , , , , , , , , , , , , ,         , , , , , , , , , , , , , > > , > > > > , > , , , , , , > > > > > > > > > > > > > > > > > > > > > > > > > > > > > >                                                                                                                                                     & & & & & & & & & & & & & & % % % % & & % % % % % % % % &                                                                                                     $ $ $ $ $ $ $ $ $ $ $ $ $ $ $ $ $ $ $ $ $ $ $ $ $ $ $ $ $ $ @ @ @ $ $ @ @ @ $ $ $     ",
"    E D D D D D D D D D D D D D n D D D n n n n n n n n n n n n n n n n n n n n n n n                                                                                                     w w w w w e e 2 2 w w w w w 2 2 w w w e e 2 2 2 2 2 2 2 2 2                                                                                                                                                     < < < < < < < < < < < < < < < < < < < < < < < < < < < < < < < , , , , , , , , , , , , , , , , , , , , , , , , , ,         , , , , , , , , , , , , > > , , > > > > > > > > , > , > > > > > > > > > > > > > > > > > > > > > > > > > > > > > >                                                                                                                                                     & & & & & & & & & & & & & & % % % % % % & % % % % % % % % %                                                                                                     $ $ $ $ $ $ $ $ $ $ $ $ $ $ $ $ $ $ $ $ $ $ $ $ $ $ $ $ $ @ @ $ @ $ $ @ @ $ $ $ @     ",
"    E D D D D D D D D D n n D D n n D D n n n n n n n n n n n n n n n n n n n n n n n                                                                                                     w w w w e e 2 2 2 2 w w w w w w w w e e 2 2 2 2 2 2 2 2 2 2 2                                                                                                                                                     < < < < < < < < < < < < < < < < < < < < < < < < < < < < < , , , , , , , , , , , , , , , , , , , , , , , , , , ,         , , , , , , , , , , , , > > , , > > > > > > > > > > > > > > > > > > > > > > > > > > > > > > > > > > > > > > > >                                                                                                                                                     & & & & & & & & & & & & & & % % % % % % % % % % % % % % % % %                                                                                                     $ $ $ $ $ $ $ $ $ $ $ $ $ $ $ $ $ $ $ $ $ $ $ $ $ $ $ $ @ @ @ $ $ $ $ @ $ $ $ $ @     ",
"    H D D D D D D D D n D n n n D D D D n D n n n n n n n n n n n n n n n n n n n h n                                                                                                     w w w w w w 2 2 w w w e w w w w w w w 2 2 2 2 2 2 2 2 2 2 2 2 2                                                                                                                                                     < < < < < < < < < < < < < < < < < < < < < < < < < < < , , , , , , , , , , , , , , , , , , , , , , , , , , , ,         , , , , , , , , , , > > > > , , > > > > , , > > , > > > > > > > > > > > > > > > > > > > > > > > > > > > > ; >                                                                                                                                                     & & & & & & & & & & & & & & % % % % & & & % % % % % % % % % % &                                                                                                     $ $ $ $ $ $ $ $ $ $ $ $ $ $ $ $ $ $ $ $ $ $ $ $ $ $ $ $ $ $ $ $ @ @ @ $ $ $ @ @ @     ",
"    H D D D D D D D n n D n n n D D D D D n n n n n n n n n n n a a n n n n n n h u n                                                                                                     w w w w 2 2 2 w w 2 2 2 2 w w w e e 2 w 2 2 2 2 2 2 2 2 2 2 2 2 2                                                                                                                                                     < < < < < < < < < < < < < < < < < < < < < < < < < , , , , , , , , , , , , , , , , , , , , , , , , , , , , ,         , , , , , , , , , > > > > > , , > > > > , , > > > > > > > > > > > > > > > > > > > > > > > > > > > > > > ; ;                                                                                                                                                     & & & & & & & & & & & & & & & % % % & & & & % % % % % % % % % % %                                                                                                     $ $ $ $ $ $ $ $ $ $ $ $ $ $ $ $ $ $ $ $ $ $ $ $ $ $ @ $ $ $ $ $ $ @ @ $ $ $ $ @ #     ",
"    H D D D D D D D D D D D n n D D D D n n n n n n a n n n n n n n n n a n n h u u n                                                                                                     w w w 2 w 2 2 w w w w 2 e w w e e 2 2 e e 2 2 2 2 2 2 2 2 2 2 2 2 2                                                                                                                                                     < < < < < < < < < < < < < < < < < < < < < < < , , , , , , , , , , , , , , , , , , , , , , , , , , , , , ,         , , , , , , , , > > , , , , , , > > > , , , > > > > > > > > > > > > > > > > > > > > > > > > > > > > > > ;                                                                                                                                                     & & & & & & & & & & & & & & & & & % % % % & & & % & & % % % % % % %                                                                                                     $ $ $ $ $ $ $ $ $ $ $ $ $ $ $ $ $ $ $ $ $ $ $ $ $ @ @ @ @ $ $ @ $ @ @ $ $ @ @ @ @     ",
"    H D D D D D D D D D D D n n n D D n n n n n n a a n n n a n n n n n n n h u a u n                                                                                                     w w w w w 2 2 w w w w 2 e w e e 2 2 2 2 2 2 2 2 2 2 e 2 2 2 2 2 2 2 2                                                                                                                                                     < < < < < < < < < < < < < < < < < < < < < , , , , , , , , , , , , , , , , , , , , , , , , , , , , , , ,         , , , , , , , > > > , , , , , , > > > > , , > > > > > > > > > > > > > > > > > > > > > > > > > > > > > >                                                                                                                                                     & & & & & & & & & & & & & & & & & & % % % % % & & & & & & % % % % % %                                                                                                     $ $ $ $ $ $ $ $ $ $ $ $ $ $ $ $ $ $ $ $ $ $ $ $ $ @ @ @ @ $ $ $ @ @ @ @ @ @ @ @ @     ",
"    E D D D D D n n D D D n n n D D n n n n n n n n n n n n n n n n n n n n a a a a n                                                                                                     w w w w w w w w w e 2 2 2 w e 2 2 2 2 2 2 2 e e 2 2 2 2 2 2 2 2 2 2 2 2                                                                                                                                                     < < < < < < < < < < < < < < < < < < < , , , , , , , , , , , , , , , , , , , , , , , , , , , , , , , ,         , , , , , , > > > > > > , , > > > > , , , > > > > > > > > > > > > > > > > > > > > > > > > > > > > > >                                                                                                                                                     & & & & & & & & & & & & & & % % % & & % % & % & % % % % % % % % % % % %                                                                                                     $ $ $ $ $ $ $ $ $ $ $ $ $ $ $ $ $ $ $ $ $ $ $ @ $ $ $ $ @ $ @ @ @ $ $ $ $ @ @ @ @     ",
"    E D D D D D n n D D D D n n D n n n n n n n n n n n n n n n n n n n n a a a a a n                                                                                                     w w w w w w 2 w w 2 2 2 2 w 2 2 2 2 2 2 2 2 2 2 2 2 2 e 2 2 2 2 2 2 2 2 2                                                                                                                                                     < < < < < < < < < < < < < < < < < , , , , , , , , , , , , , , , , , , , , , , , , , , , , , , , , ,         , , , , , > > > > > > > , , > > > > , , > > > > > > > > > > > > > > > > > > > > > > > > > > > > > >                                                                                                                                                     & & & & & & & & & & & & & & % % % % & & % % % % % & & % % % % % % % % % %                                                                                                     $ $ $ $ $ $ $ $ $ $ $ $ $ $ $ $ $ $ $ $ $ $ @ @ @ $ $ $ $ $ @ @ @ @ @ $ $ @ @ @ @     ",
"    E D D D D D n D D D D n n n n n n n n n n n a n n n n n n n n n n n a a a a a a n                                                                                                     2 w w 2 2 2 2 w w w w 2 2 2 2 2 2 2 2 2 2 2 2 2 2 2 2 2 2 2 2 2 2 2 2 2 2 2                                                                                                                                                     < < < < < < < < < < < < < , < , , , , , , , , , , , , , , , , , , , , , , , , , , , , , , , , , ,         , , , , , > , > > , > > > > > , > > , > > > > > > > > > > > > > > > > > > > > > > > > > > > > > >                                                                                                                                                     & & & & & & & & & & & & & & % % % % % & & % % % % % % % % % % % % % % % % %                                                                                                     $ $ $ $ $ $ $ $ $ $ $ $ $ $ $ $ $ $ $ $ $ @ @ @ @ $ $ $ $ $ $ @ @ @ @ @ @ @ @ @ @     ",
"    E D D D D n D D D D D n n n n n n n n n n n n a n n n n n n n n n a a a a a a a n                                                                                                     2 w w 2 2 2 2 w w w e 2 2 2 2 2 2 2 2 2 2 2 2 2 2 2 2 2 2 2 2 2 2 2 2 2 2 2 2                                                                                                                                                     < < < < < < < < < < < < < , , , , , , , , , , , , , , , , , , , , , , , , , , , , , , , , , , ,         , , , , , > , , , , > > > > > , , , > > > > > > > > > > > > > > > > > > > > > > > > > > > > > >                                                                                                                                                     & & & & & & & & & & & & & & % % % % % % % % % % % % % % & % % % % % % % % % %                                                                                                     $ $ $ $ $ $ $ $ $ $ $ $ $ $ $ $ $ $ $ $ @ @ @ $ $ $ $ $ $ $ $ @ @ @ @ @ @ @ @ @ @     ",
"    E D D D n n D D D D D D n n n n n n n n a n n n n a a n n n n h u u a a a a a a n                                                                                                     2 2 w 2 2 w w w 2 e e 2 2 2 2 2 2 2 2 2 2 2 2 2 2 2 2 2 2 2 2 2 2 2 2 2 2 2 2 2                                                                                                                                                     < < < < < < < < < < < , , , , , , , , , , , , , , , , , , , , , , , , , , , , , , , , , , , ,         , , , > > > , , > > > > , > > , , > > > > > > > > > > > > > > > > > > > > > > > > > > > > ; >                                                                                                                                                     & & & & & & & & & & & & & & % % % % & & & % % % % % % % % % % % % % % % % % % %                                                                                                     $ $ $ $ $ $ $ $ $ $ $ $ $ $ $ $ $ $ $ @ @ $ $ $ @ @ @ @ $ $ @ $ $ @ @ @ @ @ @ @ @     ",
"    E D D D n n D D D D D n n n n a n n n n n n n n n n n n n n h u u u a a a a a a n                                                                                                     2 w w w 2 w w 2 2 e 2 2 2 2 2 2 2 2 2 2 2 2 2 2 2 2 2 2 2 2 2 2 2 2 2 2 2 2 2 2 2                                                                                                                                                     < < < < < < < < < , , , , , , , , , , , , , , , , , , , , , , , , , , , , , , , , , , , , ,         , > , > > > , , > > > > , , > , > > > > > > > > > > > > > > > > > > > > > > > > > > > > ; ;                                                                                                                                                     & & & & & & & & & & & & & & & % % % & & & & % % % % % % % % & & % % % % % % % % %                                                                                                     $ $ $ $ $ $ $ $ $ $ $ $ $ $ $ $ $ $ @ @ $ $ $ $ @ @ @ @ $ @ @ $ @ @ @ @ @ @ @ @ @     ",
"    D D D n n n D D D D n n n n n a n n n n n n n n n n n n n h a u u u a a a a a a n                                                                                                     2 2 2 w w w w 2 2 2 2 2 2 2 2 2 2 2 2 2 2 2 2 2 2 2 2 2 2 2 2 2 2 2 2 2 2 2 2 2 2 2                                                                                                                                                     < < < < < < < , , , , , , , , , , , , , , , , , , , , , , , , , , , , , , , , , , , , , ,         > , , , > > , > > > > , , , > > > > > > > > > > > > > > > > > > > > > > > > > > > > > > ;                                                                                                                                                     & & & & & & & & & & & & & & % & & % % % % & & % % & & % % % % & % % % % % % % % % %                                                                                                     $ $ $ $ $ $ $ $ $ $ $ $ $ $ $ $ $ @ @ @ @ $ $ $ $ @ @ $ @ @ $ # # @ @ $ # # @ @ @     ",
"    D D D n n n n D D n n n n n n n n n n n n n n n n n n n h u a u u u a a a a a a n                                                                                                     2 e 2 w w w e 2 2 2 2 2 2 2 e e 2 2 2 2 2 2 2 2 2 2 2 2 2 2 2 2 2 2 2 2 2 2 2 2 2 2 2                                                                                                                                                     < < < < < , , , , , , , , , , , , , , , , , , , , , , , , , , , , , , , , , , , , , , ,         > , , , > > , > > > , , , , > > > > > > > > > > > > > > > > > > > > > > > > > > > > > >                                                                                                                                                     & & & & & & & & & & & & & & % % & & % % % % % & & & & & % % % % % % % % % % % % % % %                                                                                                     $ $ $ $ $ $ $ $ $ $ $ $ $ $ $ $ @ @ @ @ @ $ $ $ $ $ @ @ @ @ # # # @ @ $ $ # @ @ @     ",
"    n n D D D D n n n n n n n n n n n n n n n n n n n n n n a a a a a a a a a a a a n                                                                                                     w w w w w w w 2 2 2 2 2 e 2 2 2 2 e 2 2 2 2 2 2 2 2 2 2 2 2 2 2 2 2 2 2 2 2 2 2 2 2 1 2                                                                                                                                                     < < < , , , , , , , , , , , , , , , , , , , , , , , , , , , , , , , , , , , , , , , ,         > > , , > > > > > > , , , > > > > > > > > > > > > > > > > > > > > > > > > > > > > > >                                                                                                                                                     & & & & & & & & & & & & & & % & & & & % % % & & % % % % & & & % % % % % % % % % % % % %                                                                                                     $ $ $ $ $ $ $ $ $ $ $ $ $ $ $ @ @ $ $ @ @ $ $ $ @ @ @ @ @ @ @ @ @ @ @ $ $ @ @ @ @     ",
"    n n D D D D n n n n n n n n n n n n a n n n n n n n n a a a a a a a a a a a a a h                                                                                                     w w w w w w 2 2 2 2 2 e e 2 2 2 2 2 2 2 2 2 2 2 2 2 2 2 2 2 2 2 2 2 2 2 2 2 2 2 2 1 1 2 2                                                                                                                                                     < , , , , , , , , , , , , , , , , , , , , , , , , , , , , , , , , , , , , , , , , ,         > > , , > > > > > > , , > > > > > > > > > > > > > > > > > > > > > > > > > > > > ; ;                                                                                                                                                     & & & & & & & & & & & & & & % & & & & & % % % % % % % % % % & & % % % % % % % % % % % % %                                                                                                     $ $ $ $ $ $ $ $ $ $ $ $ $ $ $ @ @ @ $ @ @ $ $ $ @ @ @ @ @ @ @ @ @ @ @ # @ @ @ @ @     ",
"    n n D D D D n n n n n n n n n n a n a n n n n n n n a a a a a a a a a a a a a u h                                                                                                     w w w e e 2 2 2 2 2 2 2 2 2 2 2 2 2 2 2 2 2 2 2 2 2 2 2 2 2 2 2 2 2 2 2 2 2 2 2 2 1 2 2 2 2                                                                                                                                                     , , , , , , , , , , , , , , , , , , , , , , , , , , , , , , , , , , , , , , , , ,         > , , , , , > , > > , > > > > > > > > > > > > > > > > > > > > > > > > > > > > ; ;                                                                                                                                                     & & & & & & & & & & & & & & % % % & & % % % % & % % % % % % % & % % % % % % % % % % % % % %                                                                                                     $ $ $ $ $ $ $ $ $ $ $ $ $ $ $ @ @ $ $ $ $ $ $ $ @ @ @ @ @ # # # # # @ @ @ @ @ @ @     ",
"    n n n D D n n n n n n n n n n n n n a n n n n n n a a a a a a a a a a a a a u u h                                                                                                     w w e e 2 w e 2 2 2 2 2 2 2 2 2 2 2 2 2 2 2 2 2 2 2 2 2 2 2 2 2 2 2 2 2 2 2 2 2 2 2 2 2 2 2 1                                                                                                                                                     , , , , , , , , , , , , , , , , , , , , , , , , , , , , , , , , , , , , , , , >         > , , , , , > , , , > > > > > > > > > > > > > > > > > > > > > > > > > > > > > >                                                                                                                                                     & & & & & & & & & & & & & & % % % % & & % % % % % % % % % % % % % % % % % % % % % % % % % % %                                                                                                     $ $ $ $ $ $ $ $ $ $ $ $ $ @ @ @ @ $ $ $ $ $ $ @ @ @ @ @ # # $ # # # @ @ @ @ @ @ @     ",
"    D D D D n n n n n n n n n n n n n n n n n n n h u u a a a a a a a a a a a w u u h                                                                                                     w e e 2 2 2 2 2 2 2 e 2 2 2 2 2 2 2 2 2 2 2 2 2 2 2 2 2 2 2 2 2 2 2 2 2 2 2 2 2 2 2 2 2 2 1 1 1                                                                                                                                                     , , , , , , , , , , , , , , , , , , , , , , , , , , , , , , , , , , , , , > >         > , , , , , > , , > > > > > > > > > > > > > > > > > > > > > > > > > > > > > >                                                                                                                                                     & & & & & & & & & & & & & & % % % % % % & & & % % % % % & % % % % % % % % % % % % % % % % % % %                                                                                                     $ $ $ $ $ $ $ $ $ $ $ $ @ @ @ $ $ $ $ $ $ $ $ @ $ @ @ @ @ $ $ # # @ @ @ @ @ @ @ @     ",
"    D D D n n n n n n n n n n n n n n n n n n n h u u u a a a a a a a a a a u u u u h                                                                                                     w e 2 2 2 2 2 2 2 2 e 2 2 2 2 2 2 2 2 2 2 2 2 2 2 2 2 2 2 2 2 2 2 2 2 2 2 2 2 2 2 2 2 2 1 1 1 1 1                                                                                                                                                     , , , , , , , , , , , , , , , , , , , , , , , , , , , , , , , , , , , , , >         > , , , , , > , > > > > > > > > > > > > > > > > > > > > > > > > > > > > > >                                                                                                                                                     & & & & & & & & & & & & & & % % % % % % % % & % % % % % & & % % % % % % % % % % % % % % % % % % %                                                                                                     $ $ $ $ $ $ $ $ $ $ $ @ @ @ @ $ @ $ $ $ $ $ $ @ $ @ @ @ @ $ $ $ @ @ @ @ @ @ @ @ @     ",
"    D D n n n a n n n n a n n n n n n n n n n n a u u u a a a a a a a a a u u u u u u                                                                                                     e 2 2 2 2 2 2 2 2 2 2 2 2 2 2 2 2 2 2 2 2 2 2 2 2 2 2 2 2 2 2 2 2 1 1 2 2 2 2 1 1 2 1 1 1 1 1 1 1 1                                                                                                                                                     , , , , , , , , , , , , , , , , , , , , , , , , , , , , , , , , , , , , >         > > , , > > > > > > > > > > > > > > > > > > > > > > > > > > > > > > > > >                                                                                                                                                     & & & & & & & & & & & & & & & % % % % % % % % & & % % % % & % % % % % % % % % % % % % % % % % % % %                                                                                                     $ $ $ $ $ $ $ $ $ $ $ $ $ @ @ @ @ $ $ $ @ @ @ @ @ @ @ @ @ @ @ @ @ @ @ @ @ @ @ @ @     ",
"    D n n n n a n n n n a n n n n n n n n n n a a u u u a a a a a a a a u u u u u u u                                                                                                     2 2 2 2 2 2 2 2 2 2 2 2 2 2 2 2 2 2 2 2 2 2 2 2 2 2 2 2 2 2 2 2 2 2 1 1 2 2 2 2 1 1 1 1 1 1 1 1 1 1 1                                                                                                                                                     , , , , , , , , , , , , , , , , , , , , , , , , , , , , , , , > , , , >         > > > > > > > > > > > > > > > > > > > > > > > > > > > > > > > > > > > >                                                                                                                                                     & & & & & & & & & & & & & & & % % % % % % % % % & & % % % % % % % % % % % % % % % % % % % % % % % % %                                                                                                     $ $ $ $ $ $ $ $ @ $ $ $ $ $ $ @ @ @ $ @ @ @ @ @ @ @ @ @ @ @ @ @ @ @ @ @ @ @ @ @ @     ",
"    n n n n n n n n n n n n n n n n n n n n a a a a a a a a a a a a a u u u u u u u u                                                                                                     2 2 2 2 2 2 2 2 2 2 2 2 2 2 2 2 2 2 2 2 2 2 2 2 2 2 2 2 2 2 2 2 2 1 1 2 2 2 2 2 2 1 1 1 1 1 1 1 1 1 1 1                                                                                                                                                     , , , , , , , , , , , , , , , , , , , , , , , , , , , , , , , , , , >         > , , , , > > > > > > > > > > > > > > > > > > > > > > > > > > > > > >                                                                                                                                                     & & & & & & & & & & & & & & % % % & & % % & % & % % % % % % % % % % % % % % % % % % % % % % % % % % % %                                                                                                     $ $ $ $ $ $ $ @ $ $ $ @ @ $ @ @ @ $ $ $ @ @ $ @ @ @ @ @ @ @ @ @ @ @ @ @ @ @ @ @ @     ",
"    n n n n n n n n n n n n n n n n a n n a a a a a a a a a a a a a u u w w u u u u u                                                                                                     2 2 2 2 2 2 2 2 2 2 2 2 2 2 2 2 2 2 2 2 2 2 2 2 2 2 2 2 2 2 2 2 2 1 1 2 2 2 2 2 1 1 1 1 1 1 1 1 1 1 1 1 1                                                                                                                                                     , , , , , , , , , , , , , , , , , , , , , , , , , , , > , , , , > >         > , , , > > > > > > > > > > > > > > > > > > > > > > > > > > > > > >                                                                                                                                                     & & & & & & & & & & & & & & % % % % & & % % % % % & & % % % % % % % % % % % % % % % % % % % % % % % % % %                                                                                                     $ $ $ $ $ $ @ @ @ $ $ $ @ $ $ @ @ @ @ $ @ @ @ # # @ @ @ @ @ @ @ @ @ @ @ @ @ @ @ @     ",
"    n n n n n n n n n n a n n n n n n h a a a a a a a a a a a a a u u w w u u u u u u                                                                                                     2 2 2 2 2 2 e e e 2 2 2 2 2 2 2 2 2 2 2 2 2 2 2 2 2 2 2 2 2 2 2 2 1 2 2 2 2 2 1 1 1 1 1 1 1 1 1 1 1 1 1 1 1                                                                                                                                                     , , , , , , , , , , , , , , , , , , , , , , , , , > > , , > > > >         > , > > > > > > > > > > > > > > > > > > > > > > > > > > > > > > >                                                                                                                                                     & & & & & & & & & & & & & & % % % % % & & % % % % % % % % % % % % % % % % % % % % % % % % % % % % % % % % %                                                                                                     $ $ $ $ $ @ @ @ @ $ $ @ $ $ $ $ @ @ @ @ @ @ @ @ # # # @ @ @ @ @ @ @ @ @ @ @ @ @ @     ",
"    n n n n n n n n a n a a n n n n h u a a a a a a a a a a a a u u u u u u u u u u u                                                                                                     2 2 2 2 2 2 2 2 e 2 2 2 2 2 2 2 2 2 2 2 2 2 2 2 2 2 2 2 2 2 2 2 2 2 2 2 2 2 1 1 1 1 1 1 1 1 1 1 1 1 1 1 1 1 1                                                                                                                                                     , , , , , , , , , , , , , , , , , , , , , , , > > > , > > > > >         > , > > > > > > > > > > > > > > > > > > > > > > > > > > > > > >                                                                                                                                                     & & & & & & & & & & & & & & % % % % % % % % % % % % % % & % % % % % % % % % % % % % % % % % % % % % % % % % %                                                                                                     $ $ $ $ @ @ @ $ $ $ $ $ $ $ $ @ @ @ @ @ @ @ @ @ @ # @ @ @ @ @ @ @ @ @ @ @ @ @ @ @     ",
"    n n n n n n n n n n n n n n n h a a a a a a a a a a a a a w u u u u u u u u u u w                                                                                                     2 2 2 2 2 2 2 2 2 2 2 2 2 2 2 2 2 2 2 2 2 2 2 2 2 2 2 2 2 2 2 2 2 2 2 2 2 1 1 1 1 1 1 1 1 1 1 1 1 1 1 1 1 1 1 1                                                                                                                                                     , , , , , , , , , , , , , , , , , , , , , > > > , > > > > , >         > > > > > > > > > > > > > > > > > > > > > > > > > > > > > ; >                                                                                                                                                     & & & & & & & & & & & & & & % % % % & & & % % % % % % % % % % % % % % % % % % % % % % % % % % % % % % % % % % %                                                                                                     $ $ $ @ @ $ $ $ @ @ @ $ $ $ @ $ $ @ @ @ @ @ @ @ @ @ @ @ @ @ @ @ @ @ @ @ @ @ @ @ @     ",
"    h n n n n n n n n n n n n n h u u u a a a a a a a a a a w w u u u u u u u u u w w                                                                                                     2 2 2 2 2 2 2 2 2 2 2 2 2 2 2 2 2 2 2 2 2 2 2 2 2 2 2 2 2 2 2 2 2 2 2 2 1 1 1 1 1 1 1 1 1 1 1 1 1 1 1 1 1 1 1 1 1                                                                                                                                                     , , , , , , , , , , , , , , , , , , , > > > , , > > > > , >         > > > > > > > > > > > > > > > > > > > > > > > > > > > > ; ;                                                                                                                                                     & & & & & & & & & & & & & & & % % % & & & & % % % % % % % % & & % % % % % % % % % % % % % % % % % % % % % % % % %                                                                                                     $ $ $ @ @ $ $ $ @ @ @ @ $ @ @ $ @ @ @ # # @ @ @ @ @ @ @ @ @ @ @ @ @ @ @ @ @ @ @ @     ",
"    h n n n n n n n n n n n n n u a u u a a a a a a a a a u u u u u u u u u u u w w w                                                                                                     2 2 2 2 2 2 2 2 2 2 2 2 2 2 2 2 2 2 2 2 2 2 2 2 2 2 2 2 2 2 2 2 1 2 1 1 1 1 1 2 1 1 1 1 1 1 1 1 1 1 1 1 1 1 1 1 1 1                                                                                                                                                     , , , , , , , , , , , , , , , , , > > > > , , , > , , , >         > > > > > > > > > > > > > > > > > > > > > > > > > > > > ;                                                                                                                                                     & & & & & & & & & & & & & & % & & % % % % & & % % & & % % % % & % % % % % % % % % % % % % % % % % % % % % % % % % %                                                                                                     $ $ $ @ @ $ $ $ $ @ @ $ @ @ @ # # @ @ @ $ # # @ @ @ @ @ @ @ @ @ @ @ @ @ @ @ @ @ @     ",
"    h a n n n n n n n n n n n a u u a u a a a a a a a a u u u u u u u u u u u w w w w                                                                                                     2 2 2 2 2 2 2 2 2 2 2 2 2 2 2 2 2 2 2 2 2 2 2 2 2 2 2 1 1 2 2 2 1 1 1 1 1 1 1 1 1 1 1 1 1 1 1 1 1 1 1 1 1 1 1 1 1 1 1                                                                                                                                                     , , , , , , , , , , , , , , , > , , , > , , , , , , , >         > > > > > > > > > > > > > > > > > > > > > > > > > > > >                                                                                                                                                     & & & & & & & & & & & & & & % % & & % % % % % & & & & & % % % % % % % % % % % % % % % % % % % % % % % % % % $ $ % % %                                                                                                     $ $ $ @ @ $ $ $ $ $ $ @ @ @ # # # @ @ @ $ # @ @ @ @ @ @ @ @ @ @ @ @ @ @ @ @ @ @ @     ",
"    n n n n n n n n n n n n a a a a a a a a a a a a a u u u u u u u u u u u w w w w w                                                                                                     2 2 2 2 2 2 2 2 2 2 2 2 2 2 2 2 2 2 2 2 2 2 2 2 1 2 2 1 1 2 2 2 1 1 1 1 1 1 1 1 1 1 1 1 1 1 1 1 1 1 1 1 1 1 1 1 1 1 1 1                                                                                                                                                     , , , , , , , , , , , , , > > > > > > > , , , , , , >         > > > > > > > > > > > > > > > > > > > > > > > > > > >                                                                                                                                                     & & & & & & & & & & & & & & % & & & & % % % & & % % % % & & & % % % % % % % % % % % % % % % % % % % % % % % % % % % % %                                                                                                     @ $ $ @ @ $ $ $ @ @ @ @ @ @ @ @ @ @ @ $ $ @ @ @ @ @ @ @ @ @ @ @ @ @ @ @ @ @ @ @ @     ",
"    n n n n n n n n n n n a a a a a a a a a a a a a u u u u u u u u u u u w w w w w w                                                                                                     2 2 2 2 2 2 2 2 2 2 2 2 2 2 2 2 2 2 2 2 2 2 2 1 2 2 2 2 1 2 2 2 1 1 1 1 1 1 1 1 1 1 1 1 1 1 1 1 1 1 1 1 1 1 1 1 1 1 1 1 1                                                                                                                                                     , , , , , , , , , , , , > , > > > > , > , , , , , >         > > > > > > > > > > > > > > > > > > > > > > > > ; ;                                                                                                                                                     & & & & & & & & & & & & & & % & & & & & % % % % % % % % % % & & % % % % % % % % % % % % % % % % % % % % % % % % % % % % %                                                                                                     @ @ $ $ @ $ $ @ @ @ @ @ @ @ @ # @ @ @ $ @ @ @ @ @ @ @ @ @ @ @ @ @ @ @ @ @ @ @ @ @     ",
"    n n n n n n n n n u a a a a a a a a a a a a a w w u u u u w u u u u w w w w w w w                                                                                                     2 2 2 2 2 2 2 2 2 2 2 2 2 2 2 2 2 2 2 2 2 2 2 1 1 2 2 2 2 2 2 1 1 1 1 1 1 1 1 1 1 1 1 1 1 1 1 1 1 1 1 1 1 1 1 1 1 1 1 1 1 1                                                                                                                                                     , , , , , , , , , , , , , > > > > > > > > , > , >         > > > > > > > > > > > > > > > > > > > > > > > ; ;                                                                                                                                                     & & & & & & & & & & & & & & % % % & & % % % % & % % % % % % % & % % % % % % % % % % % % % % % % % % % % % % % % % % % % % %                                                                                                     @ $ $ $ $ $ $ $ @ @ @ @ @ # # $ # # @ @ @ @ @ @ @ @ @ @ @ @ @ @ @ @ @ @ @ @ @ @ @     ",
"    n n n n n n n n u u a a a a a a a a a a a a u w u u u u u u u u u w w w w w w w w                                                                                                     2 2 2 2 2 2 2 2 2 2 2 2 2 2 2 2 2 2 2 2 2 2 2 1 1 2 2 2 2 2 1 1 1 1 1 1 1 1 1 1 1 1 1 1 1 1 1 1 1 1 1 1 1 1 1 1 1 1 1 1 1 1 <                                                                                                                                                     , , , , , , , > , , , , > > > > > > > > > > > >         > > > > > > > > > > > > > > > > > > > > > > > >                                                                                                                                                     & & & & & & & & & & & & & & % % % % & & % % % % % % % % % % % % % % % % % % % % % % % % % % % % % % % % % % % % % % % % % % %                                                                                                     @ $ $ $ $ $ $ @ @ @ @ @ @ # # # # # @ @ @ @ @ @ @ @ @ @ @ @ @ @ @ @ @ @ @ @ @ @ @     ",
"    n n n n n n n h u a a a a a a a a a a a a w u u u u u u u u u u w w w w w w w w w                                                                                                     2 2 2 2 2 2 2 2 2 2 2 2 2 2 2 2 2 2 2 1 2 2 2 2 2 2 2 2 2 1 1 1 1 1 1 1 1 1 1 1 1 1 1 1 1 1 1 1 1 1 1 1 1 1 1 1 1 1 1 1 1 < < <                                                                                                                                                     , > , , , > , , , , , > > > > , , > > , > > >         > > > > > > > > > > > > > > > > > > > > > > >                                                                                                                                                     & & & & & & & & & & & & & & % % % % % % & & & % % % % % & % % % % % % % % % % % % % % % % % % % % % % % % % % % % % % % $ % % %                                                                                                     $ $ $ $ $ $ $ @ @ @ @ @ # $ $ # # @ @ @ @ @ @ @ @ @ @ @ @ @ @ @ @ @ @ @ @ @ @ @ @     ",
"    n n n n n n h u u u a a a a a a a a a a u w u u u u u u u u u w w w w w w w w w w                                                                                                     2 2 2 2 2 2 2 2 2 2 2 2 2 2 2 2 2 2 2 2 2 2 2 2 2 2 2 2 1 1 1 1 1 1 1 1 1 1 1 1 1 1 1 1 1 1 1 1 1 1 1 1 1 1 1 1 1 1 1 1 < < < < <                                                                                                                                                     , , , > > > , , , , > > > > , , > > > > > >         > > > > > > > > > > > > > > > > > > > > > >                                                                                                                                                     & & & & & & & & & & & & & & % % % % % % % % & % % % % % & & % % % % % % % % % % % % % % % % % % % % % % % % % % % % % % % % % % %                                                                                                     $ $ $ $ $ $ $ $ $ @ @ @ @ $ $ # @ @ @ @ @ @ @ @ @ @ @ @ @ @ @ @ @ @ @ @ @ @ @ @ @     ",
"    h n n n n h u u u u a a a a a a a a a u u u u w u u u u u u w w w w w w w w w w w                                                                                                     2 2 2 2 2 2 2 2 2 2 2 2 2 2 2 2 2 2 2 2 2 2 2 2 2 2 2 1 1 1 1 1 1 1 1 1 1 1 1 1 1 1 1 1 1 1 1 1 1 1 1 1 1 1 1 1 1 1 1 < < < < < < <                                                                                                                                                     , > > > > > > , , > > > , , , > > > > > >         > > > > > > > > > > > > > > > > > > > > >                                                                                                                                                     & & & & & & & & & & & & & & % % % % % % % % % & & % % % % & % % % % % % % % % % % % % % % % % % % % % % % % % % % % % % % % % % % %                                                                                                     @ @ @ $ @ $ $ @ @ @ @ @ @ @ @ @ @ @ @ @ @ @ @ @ @ @ @ @ @ @ @ @ @ @ @ @ @ @ @ @ @     ",
"    n n n n h u u u a a a a a a a a a a u u u u u u u u u w w w w w w w w w w w w w w                                                                                                     2 2 2 2 2 2 2 2 2 2 2 2 2 2 2 2 2 2 2 2 2 2 2 2 2 2 1 1 1 1 1 1 1 1 1 1 1 1 1 1 1 1 1 1 1 1 1 1 1 1 1 1 1 1 1 1 1 1 < < < < < < < < <                                                                                                                                                     > > > , > > , , > > > > , , > > > > > >         > > > > > > > > > > > > > > > > > > > >                                                                                                                                                     & & & & & & & & & & & & & & % % % % % % % % % % & & % % % % % % % % % % % % % % % % % % % % % % % % % % % % % % % % % % % % $ % % % $                                                                                                     @ @ $ @ @ @ @ @ @ @ @ @ @ @ @ @ @ @ @ @ @ @ @ @ @ @ @ @ @ @ @ @ @ @ @ @ @ @ @ @ @     ",
"    n n n n a a a a a a a a a a a a a w u u w u u u w u u u w w w w w w w w w w w w w                                                                                                     2 2 2 2 2 2 2 2 2 2 2 2 2 2 2 1 1 2 2 2 1 1 1 2 2 1 1 1 1 1 1 1 1 1 1 1 1 1 1 1 1 1 1 1 1 1 1 1 1 1 1 1 1 1 1 1 1 < < < < < < < < < < <                                                                                                                                                     , , , , > > > > > , , , > > > > > > >         > > > > > > > > > > > > > > > > > ; >                                                                                                                                                     & & & & & & & & & & & & & & & & & % & & & % % % % % % % % % % % % % % % % % % % % % % % % % % % % % % % % % % % % % % % % % % % % % $ $                                                                                                     $ $ @ @ @ $ $ $ # @ @ $ $ @ @ @ @ @ @ @ @ @ @ @ @ @ @ @ @ @ @ @ @ @ @ @ @ @ @ @ @     ",
"    n n n a a a a a a a a a a a a a w w u u w u u u u u u w w w w w w w w w w w w w w                                                                                                     2 2 2 2 2 2 2 2 2 2 2 2 2 2 2 1 1 2 2 1 1 2 1 2 1 1 1 1 1 1 1 1 1 1 1 1 1 1 1 1 1 1 1 1 1 1 1 1 1 1 1 1 1 1 1 1 < < < < < < < < < < < < <                                                                                                                                                     , , > > > > > > , , > > > > > > > >         > > > > > > > > > > > > > > > > ; ;                                                                                                                                                     & & & & & & & & & & & & & & & & & & & & & & % % % % % % % % % % % % % % % % % % % % % % % % % % % % % % % % $ % % % % % % % % % % % $ $ $                                                                                                     $ @ @ @ @ $ @ $ # @ @ $ @ @ @ @ @ @ @ @ @ @ @ @ @ @ @ @ @ @ @ @ @ @ @ @ @ @ @ @ @     ",
"    n n a a a a a a a a a a a a a u w u u u u u u u u u w w w w w w w w w w w w w w w                                                                                                     2 2 2 2 2 2 2 2 2 2 2 2 1 2 2 1 2 2 2 2 2 2 2 1 1 1 1 1 1 1 1 1 1 1 1 1 1 1 1 1 1 1 1 1 1 1 1 1 1 1 1 1 1 1 1 < < < < < < < < < < < < < < <                                                                                                                                                     , , , > , > > , > > > > > > > > >         > > > > > > > > > > > > > > > > ;                                                                                                                                                     & & & & & & & & & & & & & & % & & % & % % & & % % & & % & & % & % % % % % % % % % % % % % % % % % % % % % % % $ $ % % % % % % % % % $ $ $ $                                                                                                     $ @ $ @ @ @ @ @ @ @ @ @ @ @ @ @ @ @ @ @ @ @ @ @ @ @ @ @ @ @ @ @ @ @ @ @ @ @ @ @ @     ",
"    n a a a a a a a a a a a a a u u u u u u u u u u u w w w w w w w w w w w w w w w w                                                                                                     2 2 2 2 2 2 2 2 2 2 2 1 1 2 2 2 2 2 2 2 2 2 1 1 1 1 1 1 1 1 1 1 1 1 1 1 1 1 1 1 1 1 1 1 1 1 1 1 1 1 1 1 1 1 < < < < < < < < < < < < < < < < <                                                                                                                                                     , , > , , , > > > > > > > > > >         > > > > > > > > > > > > > > > >                                                                                                                                                     & & & & & & & & & & & & & & % % % % % % % % % & % & & & & & % % % % % % % % % % % % % % % % % % % % % % % % % % % % % % % % % % % % $ $ $ $ $                                                                                                     $ @ @ @ @ @ @ @ @ @ @ @ @ @ @ @ @ @ @ @ @ @ @ @ @ @ @ @ @ @ @ @ @ @ @ @ @ @ @ @ @     ",
"    h a a a a a a a a a a a a u u u u u u u u u u u w w w w w w w w w w w w w w w w w                                                                                                     2 2 2 2 2 2 2 2 2 2 2 2 2 2 2 2 2 2 2 2 2 1 1 1 1 1 1 1 1 1 1 1 1 1 1 1 1 1 1 1 1 1 1 1 1 1 1 1 1 1 1 1 1 < < < < < < < < < < < < < < < < < < <                                                                                                                                                     , > , , > > > > > > > > > > >         > > > > > > > > > > > > > > >                                                                                                                                                     & & & & & & & & & & & & & & % % % % % % % % % & % % % % & % % % % % % % % % % % % % % % % % % % % % % % % % % % % % % % % % % % % % $ $ $ $ $ $                                                                                                     @ @ @ @ @ $ $ @ # @ @ @ @ @ @ @ @ @ @ @ @ @ @ @ @ @ @ @ @ @ @ @ @ @ @ @ @ @ @ @ @     ",
"    n a a a a a a a a a a a u u u u u u u u u u u w w w w w w w w w w w w w w w w w w                                                                                                     2 2 2 2 2 2 2 2 2 2 2 2 2 2 2 2 2 2 2 2 1 1 1 1 1 1 1 1 1 1 1 1 1 1 1 1 1 1 1 1 1 1 1 1 1 1 1 1 1 1 1 1 < < < < < < < < < < < < < < < < < < < < <                                                                                                                                                     > , > > > > > > > > > > > >         > > > > > > > > > > > > > >                                                                                                                                                     & & & & & & & & & & & & & & % % % % % % % % % % % % % % % & % % % % % % % % % % % % % % % % % % % % % % % % % % % % % % % % % % % $ $ $ $ $ $ $ $                                                                                                     @ @ @ @ # $ $ @ @ @ @ @ @ @ @ @ @ @ @ @ @ @ @ @ @ @ @ @ @ @ @ @ @ @ @ @ @ @ @ @ @     ",
"    n a a a a a a a a a a u u u u u u u u u u w w w w w w w w w w w w w w w w w w w w                                                                                                     2 2 2 2 2 2 2 2 2 1 1 2 2 2 2 2 2 2 2 1 1 1 1 1 1 1 1 1 1 1 1 1 1 1 1 1 1 1 1 1 1 1 1 1 1 1 1 1 1 1 1 < < < < < < < < < < < < < < < < < < < < < < <                                                                                                                                                     > > > > > > > > > > > > >         > > > > > > > > > > > > >                                                                                                                                                     & & & & & & & & & & & & & & & % % % % % % & & % % % & % % % % % % % % % % % % % % % % % % % % % % % % % % % % % % % % % % % % % % $ $ $ $ $ $ $ $ $                                                                                                     @ @ @ @ @ @ @ @ @ @ @ @ @ @ @ @ @ @ @ @ @ @ @ @ @ @ @ @ @ @ @ @ @ @ @ @ @ @ @ @ @     ",
"    n a a a a a a a a a w u u u u u w u u u u w w w w w w w w w w w w w w w w w w w w                                                                                                     2 2 2 2 2 2 2 2 2 1 1 2 2 2 2 2 2 2 1 1 1 1 1 1 1 1 1 1 1 1 1 1 1 1 1 1 1 1 1 1 1 1 1 1 1 1 1 1 1 1 < < < < < < < < < < < < < < < < < < < < < < < < <                                                                                                                                                     > > > > > > > > > > > >         > > > > > > > > > > > >                                                                                                                                                     & & & & & & & & & & & & & & & % % % % % % % & % % % % % % % % % % % % % % % % % % % % % % % % % % % % % % % % % % % % % % % % % % $ $ $ $ $ $ $ $ $ $                                                                                                     @ @ @ @ @ # @ @ @ @ @ @ @ @ @ @ @ @ @ @ @ @ @ @ @ @ @ @ @ @ @ @ @ @ @ @ @ @ @ @ @     ",
"    n a a a a a a a a u u u u u u u u u u u w w w w w w w w w w w w w w w w w w w w w                                                                                                     2 2 2 2 2 2 2 2 2 2 1 2 2 2 2 2 2 1 1 1 1 1 1 1 1 1 1 1 1 1 1 1 1 1 1 1 1 1 1 1 1 1 1 1 1 1 1 1 1 < < < < < < < < < < < < < < < < < < < < < < < < < < <                                                                                                                                                     > > > > > > > > > > >         > > > > > > > > > > >                                                                                                                                                     & & & & & & & & & & & & & & % % % & & % % & % & % % % % % % % % % % % % % % % % % % % % % % % % % % % % % % % $ % % % % % % % % % % $ $ $ $ $ $ $ $ $ $                                                                                                     @ @ @ @ @ @ @ @ @ @ @ @ @ @ @ @ @ @ @ @ @ @ @ @ @ @ @ @ @ @ @ @ @ @ @ @ @ @ @ @ +     ",
"    n a a a a a a a u u w w u u u u u u u w w w w w w w w w w w w w w w w w w w w w w                                                                                                     2 2 2 2 2 2 2 2 2 1 1 2 2 2 2 2 1 1 1 1 1 1 1 1 1 1 1 1 1 1 1 1 1 1 1 1 1 1 1 1 1 1 1 1 1 1 1 1 < < < < < < < < < < < < < < < < < < < < < < < < < < < < <                                                                                                                                                     > > > > > > > > > >         > > > > > > > > > >                                                                                                                                                     & & & & & & & & & & & & & & % % % % & & % % % % % & % % % % % % % % % % % % % % % % % % % % % % % % % % $ % % % % % % % % $ % % % % $ $ $ $ $ $ $ $ $ $ $                                                                                                     @ @ @ @ @ @ @ @ @ @ @ @ @ @ @ @ @ @ @ @ @ @ @ @ @ @ @ @ @ @ @ @ @ @ @ @ @ @ @ @ +     ",
"    n a a a u a a u u w w u u u u u u u w w w w w w w w w w w w w w w w w w w w w w w                                                                                                     2 2 2 2 2 2 2 2 2 1 2 2 2 2 2 1 1 1 1 1 1 1 1 1 1 1 1 1 1 1 1 1 1 1 1 1 1 1 1 1 1 1 1 1 1 1 1 < < < < < < < < < < < < < < < < < < < < < < < < < < < < < < <                                                                                                                                                     > > > > > > > > >         > > > > > > > > >                                                                                                                                                     & & & & & & & & & & & & & & % % % % % & & % % % % % % % % % % % % % % % % % % % % % % % % % % % % % % % % % % % % % % % % % $ % % % $ $ $ $ $ $ $ $ $ $ $ $                                                                                                     $ @ @ @ @ @ @ @ @ @ @ @ @ @ @ @ @ @ @ @ @ @ @ @ @ @ @ @ @ @ @ @ @ @ @ @ @ @ + @ +     ",
"    n a a a a a u u u u u u u u u u u w w w w w w w w w w w w w w w w w w w w w w w w                                                                                                     2 2 2 2 2 2 2 2 2 2 2 2 2 2 1 1 1 1 1 1 1 1 1 1 1 1 1 1 1 1 1 1 1 1 1 1 1 1 1 1 1 1 1 1 1 1 < < < < < < < < < < < < < < < < < < < < < < < < < < < < < < < < <                                                                                                                                                     > > > > > > > >         > > > > > > > >                                                                                                                                                     & & & & & & & & & & & & & & % % % % % % % % % % % % % % & % % % % % % % % % % % % % % % % % % % % % % % % % % % % % % % % % % $ % % $ $ $ $ $ $ $ $ $ $ $ $ $                                                                                                     $ @ @ @ @ @ @ @ @ @ @ @ @ @ @ @ @ @ @ @ @ @ @ @ @ @ @ @ @ @ @ @ @ @ @ @ @ + + @ +     ",
"    n a a a a u u u u u u u u u u u w w w w w w w w w w w w w w w w w w w w w w w w w                                                                                                     2 2 2 2 2 2 2 2 2 2 2 2 2 1 1 1 1 1 1 1 1 1 1 1 1 1 1 1 1 1 1 1 1 1 1 1 1 1 1 1 1 1 1 1 1 < < < < < < < < < < < < < < < < < < < < < < < < < < < < < < < < < < <                                                                                                                                                     > > > > > > >         > > > > > > >                                                                                                                                                     & & & & & & & & & & & & & & % % % % & & & % % % % % % % % & & & % % % % % % % % % % % % % % % % % % % % % % % % % % % % % % % % % $ $ $ $ $ $ $ $ $ $ $ $ $ $ $                                                                                                     $ @ @ @ @ @ @ @ @ @ @ @ @ @ @ @ @ @ @ @ @ @ @ @ @ @ @ @ @ @ @ @ @ @ @ @ @ @ + @ +     ",
"    n a a a u u u u u u u u u u u w w w w w w w w w w w w w w w w w w w w w w w w w w                                                                                                     2 2 2 2 2 2 2 2 2 2 2 2 1 1 1 1 1 1 1 1 1 1 1 1 1 1 1 1 1 1 1 1 1 1 1 1 1 1 1 1   1 1 1 < < < < < < < < < < < < < < < < < < < < < < < < < < < < < < < < < < < < <                                                                                                                                                     > > > > > >         > > > > ; ;                                                                                                                                                     & & & & & & & & & & & & & & & % % % & & & & % % % % % % % % & & % % % % % % % %   % % % % % % % % % % % % % % % % % % % % % % % % % $ $ $ $ $ $ $ $ $ $ $ $ $ $ $                                                                                                     @ @ @ @ @ @ @ @ @ @ @ @ @ @ @ @ @ @ @ @ @ @ @ @ @ @ @ @ @ @ @ @ @ @ @ @ @ @ @ @ +     ",
"    n a a u u w u u u u u u u u w w w w w w w w w w w w w w w w w w w w w w w w w w w                                                                                                     2 2 2 2 2 2 2 1 1 2 1 1 1 1 1 2 1 1 1 1 1 1 1 1 1 1 1 1 1 1 1 1 1 1 1 1 1 1 1 1     1 < < < < < < < < < < < < < < < < < < < < < < < < < < < < < < < < < < < < < < <                                                                                                                                                     > > > > >         > > > > ;                                                                                                                                                     & & & & & & & & & & & & & & % & & % % % % & & % % & & % % % % % % % % % % % % %     % % % % % % % % % % % % % % % % % % % % % % % % $ $ $ $ $ $ $ $ $ $ $ $ $ $ $ $                                                                                                     @ @ @ @ @ @ @ @ @ @ @ @ @ @ @ @ @ @ @ @ @ @ @ @ @ @ @ @ @ @ @ @ @ @ @ @ @ @ @ @ +     ",
"    n a u u u w u u u u u u u w w w w w w w w w w w w w w w w w w w w w w w w w w w w                                                                                                     2 2 2 1 2 2 2 2 1 1 1 1 1 1 1 1 1 1 1 1 1 1 1 1 1 1 1 1 1 1 1 1 1 1 1 1 1 1 1 1       < < < < < < < < < < < < < < < < < < < < < < < < < < < < < < < < < < < < < < < ,                                                                                                                                                     > > > >         > > > >                                                                                                                                                     & & & & & & & & & & & & & & % % & & % % % % % & & & & & % % % % % % % % % % % %       % % % % % % % % % % % % % % % % % % % % % % % $ $ $ $ $ $ $ $ $ $ $ $ $ $ $ $ $                                                                                                     @ @ @ @ @ @ @ @ @ @ @ @ @ @ @ @ @ @ @ @ @ @ @ @ @ @ @ @ @ @ @ @ @ @ @ @ @ @ @ @ +     ",
"    n u u u u u u u u u u w w w w w w w w w w w w w w w w w w w w w w w w w w w w w w                                                                                                     2 2 2 1 1 2 2 2 1 1 1 1 1 1 1 1 1 1 1 1 1 1 1 1 1 1 1 1 1 1 1 1 1 1 1 1 1 1 1 1         < < < < < < < < < < < < < < < < < < < < < < < < < < < < < < < < < < < < < , , ,                                                                                                                                                     > > >         > > >                                                                                                                                                     & & & & & & & & & & & & & & & & & & & % % % & & % % % % & & & % % % % % % % % %         % % % % % % % % % % % % % % % % % % % % % % $ $ $ $ $ $ $ $ $ $ $ $ $ $ $ $ $ $                                                                                                     @ @ @ @ @ @ @ @ @ @ @ @ @ @ @ @ @ @ @ @ @ @ @ @ @ @ @ @ @ @ @ @ @ + + + + @ @ @ +     ",
"    h u u u u u u w u u u w w w w w w w w w w w w w w w w w w w w w w w w w w w w w w                                                                                                     2 2 2 2 1 2 2 2 1 1 1 1 1 1 1 1 1 1 1 1 1 1 1 1 1 1 1 1 1 1 1 1 1 1 1 1 1 1 1 1           < < < < < < < < < < < < < < < < < < < < < < < < < < < < < < < < < < < , , , , ,                                                                                                                                                     > >         > >                                                                                                                                                     & & & & & & & & & & & & & & & & & & & & % % % % % % % % % % & & % % % % % % % %           % % % % % % % % % % % % % % % % % % % % % $ $ $ $ $ $ $ $ $ $ $ $ $ $ $ $ $ $ $                                                                                                     @ @ @ @ @ @ @ @ @ @ @ @ @ @ @ @ @ @ @ @ @ @ @ @ @ @ @ @ @ @ @ @ @ + + + + @ @ @ +     ",
"    h u u u u u u u u u w w w w w w w w w w w w w w w w w w w w w w w w w w w w w w w                                                                                                     1 2 2 2 2 2 2 1 1 1 1 1 1 1 1 1 1 1 1 1 1 1 1 1 1 1 1 1 1 1 1 1 1 1 1 1 1 1 1 <             < < < < < < < < < < < < < < < < < < < < < < < < < < < < < < < < < , , , , , , ,                                                                                                                                                     >         >                                                                                                                                                     & & & & & & & & & & & & & & % % % % % % % % % & % % % % % % % & % % % % % % % %             % % % % % % % % % % % % % % % % % % % % $ $ $ $ $ $ $ $ $ $ $ $ $ $ $ $ $ $ $ $                                                                                                     @ @ @ @ @ @ @ @ @ @ @ @ @ @ @ @ @ @ @ @ @ @ @ @ @ @ @ @ @ @ @ @ @ @ + @ @ @ @ @ +     ",
"    h u u u u u u u u w w w w w w w w w w w w w w w w w w w w w w w w w w w w w w w e                                                                                                     1 2 2 2 2 2 1 1 1 1 1 1 1 1 1 1 1 1 1 1 1 1 1 1 1 1 1 1 1 1 1 1 1 1 1 1 1 1 < <               < < < < < < < < < < < < < < < < < < < < < < < < < < < < < < < , , , , , , , , ,                                                                                                                                                                                                                                                                                                                 & & & & & & & & & & & & & & % % % % % & % % % % % % % % % % % % % % % % % % % %               % % % % % % % % % % % % % % $ $ $ % % $ $ $ $ $ $ $ $ $ $ $ $ $ $ $ $ $ $ $ $ $                                                                                                     @ @ @ @ @ @ @ @ @ @ @ @ @ @ @ @ @ @ @ @ @ @ @ @ @ @ @ @ @ @ @ @ @ @ @ @ @ @ @ @ +     ",
"    h u u u u u u u w w w w w w w w w w w w w w w w w w w w w w w w w w w w w w w w 2                                                                                                     2 2 2 2 2 1 1 1 1 1 1 1 1 1 1 1 1 1 1 1 1 1 1 1 1 1 1 1 1 1 1 1 1 1 1 1 1 < < <                 < < < < < < < < < < < < < < < < < < < < < < < < < < < < < , , , , , , , , , , ,                                                                                                                                                                                                                                                                                                             & & & & & & & & & & & & & & % % % % % % & & & % % % % % & % % % % % % % % % % %                 % % % % % % $ $ % % % % % % % % % $ $ $ $ $ $ $ $ $ $ $ $ $ $ $ $ $ $ $ $ $ $ $                                                                                                     @ @ @ @ @ @ @ @ @ @ @ @ @ @ @ @ @ @ @ @ @ @ @ @ @ @ @ @ @ @ @ @ @ @ @ @ @ @ @ @ +     ",
"    h u u u u u u w w w w w w w w w w w w w w w w w w w w w w w w w w w w w w e w w 2                                                                                                     2 2 2 2 1 1 1 1 1 1 1 1 1 1 1 1 1 1 1 1 1 1 1 1 1 1 1 1 1 1 1 1 1 1 1 1 < < < <                   < < < < < < < < < < < < < < , < < < < < < < < < < < < , , , , , , , , , , , , ,                                                                                                                                                                                                                                                                                                         & & & & & & & & & & & & & & % % % % % % % % & % % % % % & & % % % % % % % % % %                   % % % % % % % $ % % % % % % % % % $ $ $ $ $ $ $ $ $ $ $ $ $ $ $ $ $ $ $ $ $ $ $                                                                                                     @ @ @ @ @ @ @ @ @ @ @ @ @ @ @ @ @ @ @ @ @ @ @ @ @ @ @ @ @ @ @ @ @ @ @ @ @ @ @ @ +     ",
"    u u u u u u w w w w w w w w w w w w w w w w w w w w w w w w w w w w w w e e w w 2                                                                                                     2 2 2 1 1 1 1 1 1 1 1 1 1 1 1 1 1 1 1 1 1 1 1 1 1 1 1 1 1 1 1 1 1 1 1 < < < < <                     < < < < < < < < < < < < < < < < < < < < < < < < < , , , , , , , , , , , , , , ,                                                                                                                                                                                                                                                                                                     & & & & & & & & & & & & & & & % % % % % % & % & & % % % % & % % % % % % % % % %                     % % % % % % % % % % % % % % % % $ $ $ $ $ $ $ $ $ $ $ $ $ $ $ $ $ $ $ $ $ $ $ $                                                                                                     @ @ @ @ @ @ @ @ @ @ @ @ @ @ @ @ @ @ @ @ @ @ @ @ @ @ @ @ @ + + @ @ @ @ + + + @ @ +     ",
"    u u u u u w w w w w w w w w w w w w w w w w w w w w w w w w w w w w w e e 2 w w 2                                                                                                     2 2 1 1 1 1 1 1 1 1 1 1 1 1 1 1 1 1 1 1 1 1 1 1 1 1 1 1 1 1 1 1 1 1 < < < < < <                       < < < < < < < < < < < < < < < < < < , < < < < , , , , , , , , , , , , , , , , ,                                                                                                                                                                                                                                                                                                 & & & & & & & & & & & & & & & % % % % % % & & % & & % % % % % % % % % % % % % %                       % % % % % % % % % % % % % % % $ $ $ $ $ $ $ $ $ $ $ $ $ $ $ $ $ $ $ $ $ $ $ $ $                                                                                                     @ @ @ @ @ @ @ @ @ @ @ @ @ @ @ @ @ @ @ @ @ @ @ @ @ @ @ + + + + + + @ @ + + + @ + +     ",
"    u u u u w w w w w w w w w w w w w w w w w w w w w w w w w w w w w w w w w w w w 2                                                                                                     2 1 1 1 1 1 1 1 1 1 1 1 1 1 1 1 1 1 1 1 1 1 1 1 1 1 1 1 1 1 1 1 1 < < < < < < <                         < < < < < < < < < < < < < < < < < < < < < , , , , , , , , , , , , , , , , , , ,                                                                                                                                                                                                                                                                                             & & & & & & & & & & & & & & % % % & & % % & & & % % % % % % % % % % % % % % % %                         % % % % % % % % % % % % % % $ $ $ $ $ $ $ $ $ $ $ $ $ $ $ $ $ $ $ $ $ $ $ $ $ $                                                                                                     @ @ @ @ @ @ @ @ @ @ @ @ @ @ @ @ @ @ @ @ @ @ @ @ @ @ @ @ @ @ @ @ @ + @ @ @ @ + + +     ",
"    u u u w w w w w w w w w w w w w w w w w w w w w w w w w w w w w w e w w w w w w 2                                                                                                     1 1 1 1 1 1 1 1 1 1 1 1 1 1 1 1 1 1 1 1 1 1 1 1 1 1 1 1 1 1 1 1 < < < < < < < <                           < < < < < < < < < < < < < < < < < < < , , , , , , , , , , , , , , , , , , , , ,                                                                                                                                                                                                                                                                                         & & & & & & & & & & & & & & % % % % & & % % % % % % % % % % % % % % % % % % % %                           % % % % % % % % % % % % $ $ $ $ $ $ $ $ $ $ $ $ $ $ $ $ $ $ $ $ $ $ $ $ $ $ $ $                                                                                                     @ @ @ @ @ @ @ @ @ @ @ @ @ @ @ @ @ @ @ @ @ @ @ @ @ + @ @ + @ @ @ @ + + @ @ + + + +     ",
"    u u w w w w w w w w w w w w w w w w w w w w w w w w w w w w w w e e w w w w w 2 2                                                                                                     1 1 1 1 1 1 1 1 1 1 1 1 1 1 1 1 1 1 1 1 1 1 1 1 1 1 1 1 1 1 1 < < < < < < < < <                             < < < < < < < < < < < < < < < < < , , , , , , , , , , , , , , , , , , , , , , ,                                                                                                                                                                                                                                                                                     & & & & & & & & & & & & & & % % % % % % & % % % % % % % % % % % % % % % % % % %                             % % % % % % % % % % % $ $ $ $ $ $ $ $ $ $ $ $ $ $ $ $ $ $ $ $ $ $ $ $ $ $ $ $ $                                                                                                     @ @ @ @ @ @ @ @ @ @ @ @ @ @ @ @ @ @ @ @ @ @ @ @ @ + + + + + + @ @ @ + @ + + + + +     ",
"    u w w w w w w w w w w w w w w w w w w w w w w w w w w w w w w w w 2 w w 2 2 w 2 2                                                                                                     1 1 1 1 1 1 1 1 1 1 1 1 1 1 1 1 1 1 1 1 1 1 1 1 1 1 1 1 1 1 < < < < < < < < < <                               < < < < < < < < < < < < < < < , , , , , , , , , , , , , , , , , , , , , , , , ,                                                                                                                                                                                                                                                                                 & & & & & & & & & & & & & & % % % % % % % % % % % % % % % % % % % % % % % % % %                               % % % % % % % % % % $ $ $ $ $ $ $ $ $ $ $ $ $ $ $ $ $ $ $ $ $ $ $ $ $ $ $ $ $ $                                                                                                     @ @ @ @ @ @ @ @ @ @ @ @ @ @ @ @ @ @ @ @ @ @ @ @ @ @ + + + + + @ @ + + + + + + + +     ",
"    w w w w w w w w w w w w w w w w w w w w w w w w w w w w w w w w 2 2 2 2 2 2 w w 2                                                                                                     1 1 1 1 1 1 1 1 1 1 1 1 1 1 1 1 1 1 1 1 1 1 1 1 1 1 1 1 1 < < < < < < < < < < <                                 < < < < < < < < < < < < < , , , , , , , , , , , , , , , , , , , , , , , , , , ,                                                                                                                                                                                                                                                                             & & & & & & & & & & & & & & % % % % & & & % % % % % % % % & & % % % % % % % % %                                 % % % % % % % % % % $ $ $ $ $ $ $ $ $ $ $ $ $ $ $ $ $ $ $ $ $ $ $ $ $ $ $ $ $ $                                                                                                     @ @ @ @ @ @ @ @ @ @ @ @ @ @ @ @ @ @ @ @ @ @ + + @ @ @ @ @ @ @ @ @ @ + + + + + + +     ",
"    w w w w w w w w w w w w w w w w w w w w w w w w w w w w w e e 2 2 2 2 2 2 2 w w 2                                                                                                     1 1 1 1 1 1 1 1 1 1 1 1 1 1 1 1 1 1 1 1 1 1 1 1 1 1 1 1 < < < < < < < < < < < <                                 < < < < < < < < < < < < , , , , , , , , , , , , , , , , , , , , , , , , , , , , ,                                                                                                                                                                                                                                                                         & & & & & & & & & & & & & & & % % % & & & & % % % % % % % % & & % % % % % % % %                                   % % % % % % % % % $ $ $ $ $ $ $ $ $ $ $ $ $ $ $ $ $ $ $ $ $ $ $ $ $ $ $ $ $ $ $                                                                                                     @ @ @ @ @ @ @ @ @ @ @ @ @ @ @ @ @ @ @ @ @ @ + + @ @ @ @ @ @ @ @ @ + + + + + + + +     ",
"    w w w w w w w w w w w w w w w w w w w w w w w w w w w w w w w w 2 2 2 2 w w w w 2                                                                                                     1 1 1 1 1 1 1 1 1 1 1 1 1 1 1 1 1 1 1 1 1 1 1 1 1 1 1 < < < < < < < < < < < < <                                   < < < < < < < < < < , , , , , , , , , , , , , , , , , , , , , , , , , , , , , , ,                                                                                                                                                                                                                                                                     & & & & & & & & & & & & & & & & & % % % % & & & % & & % % % % % % % % % % % % % %                                   % % % % % % % % $ $ $ $ $ $ $ $ $ $ $ $ $ $ $ $ $ $ $ $ $ $ $ $ $ $ $ $ $ $ $ $                                                                                                     @ @ @ @ @ @ @ @ @ @ @ @ @ @ @ @ @ @ @ @ @ + + @ @ @ @ @ @ @ @ @ + + + + + + + + +     ",
"    w w w w w w w w w w w w w w w w w w w w w w w w w w w w w w w 2 2 2 w w w w w w 2                                                                                                     1 1 1 1 1 1 1 1 1 1 1 1 1 1 1 1 1 1 1 1 1 1 1 1 1 1 < < < < < < < < < < < < < <                                     < < < < < < < < , , , , , , , , , , , , , , , , , , , , , , , , , , , , , , , , ,                                                                                                                                                                                                                                                                 & & & & & & & & & & & & & & & & & & % % % % % & & & & & & % % % % % % % % % % % %                                     % $ % % % % % $ $ $ $ $ $ $ $ $ $ $ $ $ $ $ $ $ $ $ $ $ $ $ $ $ $ $ $ $ $ $ $ $                                                                                                     @ @ @ @ @ @ @ @ @ @ @ @ @ @ @ @ @ @ @ @ @ @ @ @ + + @ @ @ @ @ + + + + + + + + + +     ",
"    w w w w w w w w w w w w w w w w w w w w w w w w w w w e w w w w 2 2 2 2 2 2 w w 2                                                                                                     1 1 1 1 1 1 1 1 1 1 1 1 1 1 1 1 1 1 1 1 1 1 1 1 1 < < < < < < < < < < < < < < <                                       , < < < < < , , , , , , , , , , , , , , , , , , , , , , , , , , , , , , , , , , ,                                                                                                                                                                                                                                                             & & & & & & & & & & & & & & % % % & & % % & % & % % % % % % % % % % % % % % % % %                                       % % % % % % $ $ $ $ $ $ $ $ $ $ $ $ $ $ $ $ $ $ $ $ $ $ $ $ $ $ $ $ $ $ $ $ $ $                                                                                                     @ @ @ @ @ @ @ @ @ @ @ @ @ @ @ @ @ @ @ @ @ @ @ @ @ + @ @ @ @ + + + + + + + + + + +     ",
"    w w w w w w w w w w w w w w w w w w w w w w w w w w e 2 w w w w 2 2 2 2 w 2 w e 2                                                                                                     1 1 1 1 1 1 1 1 1 1 1 1 1 1 1 1 1 1 1 1 1 1 1 1 < < < < < < < < < < < < < < < <                                         < < < < , , , , , , , , , , , , , , , , , , , , , , , , , , , , , , , , , , , , ,                                                                                                                                                                                                                                                         & & & & & & & & & & & & & & % % % % & & % % % % % & & % % % % % % % % % % % % % %                                         % % % % % $ $ $ $ $ $ $ $ $ $ $ $ $ $ $ $ $ $ $ $ $ $ $ $ $ $ $ $ $ $ $ $ $ $ $                                                                                                     @ @ @ @ @ @ @ @ @ @ @ @ @ @ @ @ @ + @ @ + @ @ @ @ + + @ @ + + + + + + + + + + + +     ",
"    w w w w w w w w w w w w w w w w w w w w w w w w w w 2 2 2 w w w w 2 w w w w w e 2                                                                                                     1 1 1 1 1 1 1 1 1 1 1 1 1 1 1 1 1 1 1 1 1 1 1 < < < < < < < < < < < < < < < < <                                           < < , , , , , , , , , , , , , , , , , , , , , , , , , , , , , , , , , , , , , , ,                                                                                                                                                                                                                                                     & & & & & & & & & & & & & & % % % % % & & % % % % % % % % % % % % % % % % % % % %                                           % % % % $ $ $ $ $ $ $ $ $ $ $ $ $ $ $ $ $ $ $ $ $ $ $ $ $ $ $ $ $ $ $ $ $ $ $ $                                                                                                     @ @ @ @ @ @ @ @ @ @ @ @ @ @ @ @ @ + + + + + + @ @ @ + @ + + + + + + + + + + + + +     ",
"    w w w w w w w w w w w w w w w w w w w w w w w w w 2 2 2 2 2 w w w w w w w e w 2 2                                                                                                     1 1 1 1 1 1 1 1 1 1 1 1 1 1 1 1 1 1 1 1 1 1 < < < < < < < < < < < < < < < < < <                                             , , , , , , , , , , , , , , , , , , , , , , , , , , , , , , , , , , , , , , , , ,                                                                                                                                                                                                                                                 & & & & & & & & & & & & & & % % % % % % % % % % % % % % & % % % % % % % % % % % %                                             % % % $ $ $ $ $ $ $ $ $ $ $ $ $ $ $ $ $ $ $ $ $ $ $ $ $ $ $ $ $ $ $ $ $ $ $ $ $                                                                                                     @ @ @ @ @ @ @ @ @ @ @ @ @ @ @ @ @ @ + + + + + @ @ + + + + + + + + + + + + + + + +     ",
"    w w w w w w w w w w w w w w w w w w w w w w e e 2 2 w w 2 2 w w w w w w e e 2 2 2                                                                                                     1 1 1 1 1 1 1 1 1 1 1 1 1 1 1 1 1 1 1 1 1 < < < < < < < < < < < < < < < < < < <                                               , , , , , , , , , , , , , , , , , , , , , , , , , , , , , , , , , , , , , , , , ,                                                                                                                                                                                                                                             & & & & & & & & & & & & & & % % % % & & & % % % % % % % % % % % % % % % % % % % %                                               % % $ $ $ $ $ $ $ $ $ $ $ $ $ $ $ $ $ $ $ $ $ $ $ $ $ $ $ $ $ $ $ $ $ $ $ $ $ $                                                                                                     @ @ @ @ @ @ @ @ @ @ @ @ @ @ @ @ @ @ @ @ @ @ @ @ @ @ + + + + + + + + + + + + + + +     ",
"    w w w w w w w w w w w w w w w w w w w w w e e 2 2 2 w w 2 2 w w w w w e 2 2 2 2 2                                                                                                     1 1 1 1 1 1 1 1 1 1 1 1 1 1 1 1 1 1 1 1 < < < < < < < < < < < < < < < < < < < <                                                 , , , , , , , , , , , , , , , , , , , , , , , , , , , , , , , , , , , , , , , , ,                                                                                                                                                                                                                                         & & & & & & & & & & & & & & & % % % & & & & % % % % % % % % & & % % % % % % % % %                                                 % $ $ $ $ $ $ $ $ $ $ $ $ $ $ $ $ $ $ $ $ $ $ $ $ $ $ $ $ $ $ $ $ $ $ $ $ $ $ $                                                                                                     @ @ @ @ @ @ @ @ @ @ @ @ @ @ @ + @ @ @ @ @ @ @ @ @ + + + + + + + + + + + + + + + +     ",
"    w w w w w w w w w w w w w w w w w w w w e e 2 2 w w w w 2 2 w w w w 2 2 2 2 2 2 2                                                                                                     1 1 1 1 1 1 1 1 1 1 1 1 1 1 1 1 1 1 1 < < < < < < < < < < < < < < < < < < < < <                                                   , , , , , , , , , , , , , , , , , , , , , , , , , , , , , , , , , , , , , , , , ,                                                                                                                                                                                                                                     & & & & & & & & & & & & & & % & & % % % % & & % % & & % % % % & % % % % % % % % %                                                   $ $ $ $ $ $ $ $ $ $ $ $ $ $ $ $ $ $ $ $ $ $ $ $ $ $ $ $ $ $ $ $ $ $ $ $ $ $ $ $                                                                                                     @ @ @ @ @ @ @ @ @ @ @ @ @ + + + + @ @ @ @ @ @ @ + + + + + + + + + + + + + + + + +     ",
"    w w w w w w w w w w w w w w w w w w w e e 2 w w w w w w 2 2 2 e w e 2 2 2 2 2 2 2                                                                                                     1 1 1 1 1 1 1 1 1 1 1 1 1 1 1 1 1 1 < < < < < < < < < < < < < < < < < < < < < <                                                     , , , , , , , , , , , , , , , , , , , , , , , , , , , , , , , , , , > > > > , , ,                                                                                                                                                                                                                                 & & & & & & & & & & & & & & % % & & % % % % % & & & & & % % % % % % % % % % % % %                                                     $ $ $ $ $ $ $ $ $ $ $ $ $ $ $ $ $ $ $ $ $ $ $ $ $ $ $ $ $ $ $ $ $ $ $ $ $ $ $ $                                                                                                     @ @ @ @ @ @ @ @ @ @ @ @ @ @ @ + + + @ @ @ @ @ + + + + + + + + + + + + + + + + + +     ",
"    w w w w w w w w w w w w w w w w w w w w w w 2 2 2 2 w w e 2 2 2 2 2 2 2 2 2 2 2 2                                                                                                     1 1 1 1 1 1 1 1 1 1 1 1 1 1 1 1 1 < < < < < < < < < < < < < < < < < < < < < < <                                                       , , , , , , , , , , , , , , , , , , , , , , , , , , , , , , , , > > > > > > > , ,                                                                                                                                                                                                                             & & & & & & & & & & & & & & % & & & & % % % & & % % % % & & & % % % % % % % % % %                                                       $ $ $ $ $ $ $ $ $ $ $ $ $ $ $ $ $ $ $ $ $ $ $ $ $ $ $ $ $ $ $ $ $ $ $ $ $ $ $ $                                                                                                     @ @ @ @ @ @ @ @ @ @ @ @ @ + + @ @ @ @ + + + + + + + + + + + + + + + + + + + + + +     ",
"    w w w w w w w w w w w w w w w w w w w w w w 2 2 2 2 w w 2 2 2 2 2 2 2 2 2 2 e e 2                                                                                                     1 1 1 1 1 1 1 1 1 1 1 1 1 1 1 1 < < < < < < < < < < < < < < < < < < < < < < < <                                                         , , , , , , , , , , , , , , , , , , , , , , , , , , , , , , , > > > > > > , > , ,                                                                                                                                                                                                                         & & & & & & & & & & & & & & % & & & & & % % % % % % % % % % & & % % % % % % % % %                                                         $ $ $ $ $ $ $ $ $ $ $ $ $ $ $ $ $ $ $ $ $ $ $ $ $ $ $ $ $ $ $ $ $ $ $ $ $ $ $ $                                                                                                     @ @ @ @ @ @ @ + + @ @ @ @ + + @ @ @ + + + + + + + + + + + + + + + + + + + + + + +     ",
"    w w w w w w w w w w w w w w w w w e w w w 2 w w 2 2 w w w w e e 2 2 2 2 2 2 2 2 2                                                                                                     1 1 1 1 1 1 1 1 1 1 1 1 1 1 1 < < < < < < < < < < < < < < < < < < < < < < < < <                                                           , , , , , , , , , , , , , , , , , , , , , , , , , , , , , , , , > > > > > > > > ,                                                                                                                                                                                                                     & & & & & & & & & & & & & & % % % & & % % % % & % % % % % % % & % % % % % % % % %                                                           $ $ $ $ $ $ $ $ $ $ $ $ $ $ $ $ $ $ $ $ $ $ $ $ $ $ $ $ $ $ $ $ $ $ $ $ $ $ $ $                                                                                                     @ @ @ @ @ @ @ + + + @ @ @ + + @ @ @ @ @ + + + + + + + + + + + + + + + + + + + + +     ",
"    w w w w w w w w w w w w w w w e e 2 w w w 2 w w w 2 w w w e e 2 2 2 2 2 2 e 2 2 2                                                                                                     1 1 1 1 1 1 1 1 1 1 1 1 1 1 < < < < < < < < < < < < < < < < < < < < < < < < < <                                                             , , , , , , , , , , , , , , , , , , , , , , , , , , > , , , , > > > > > > > > > ,                                                                                                                                                                                                                 & & & & & & & & & & & & & & % % % % & & % % % % % % % % % % % % % % % % % % % % %                                                             $ $ $ $ $ $ $ $ $ $ $ $ $ $ $ $ $ $ $ $ $ $ $ $ $ $ $ $ $ $ $ $ $ $ $ $ $ $ $ $                                                                                                     @ @ @ @ @ @ @ + + + @ @ @ + @ @ @ @ @ + + + + + + + + + + + + + + + + + + + + + +     ",
"    w w w w w w w w w w w w w w e e w w w w 2 2 w w 2 2 2 2 e e 2 2 2 2 2 2 e e 2 2 2                                                                                                     1 1 1 1 1 1 1 1 1 1 1 1 1 < < < < < < < < < < < < < < < < < < < < < < < < < < <                                                               , , , , , , , , , , , , , , , , , , , , , , , , > > > > , , > > > > , , > > , > >                                                                                                                                                                                                             & & & & & & & & & & & & & & % % % % % % & & & % % % % % & % % % % % % % % % % % %                                                               $ $ $ $ $ $ $ $ $ $ $ $ $ $ $ $ $ $ $ $ $ $ $ $ $ $ $ $ $ $ $ $ $ $ $ $ $ @ $ @                                                                                                     @ @ @ @ @ @ + + + @ @ @ @ + + + @ @ + + + + + + + + + + + + + + + + + + + + + + +     ",
"    w w w w w w w w w w w w w e w 2 2 2 w w 2 w w w 2 2 2 2 w 2 2 2 2 2 2 2 2 2 2 2 2                                                                                                     1 1 1 1 1 1 1 1 1 1 1 1 < < < < < < < < < < < < < < < < < < < < < < < < < < < <                                                                 , , , , , , , , , , , , , , , , , , , , , , > > > > > , , > > > > , , , , > > > >                                                                                                                                                                                                         & & & & & & & & & & & & & & % % % % % % % % & % % % % % & & % % % % % % % % % % %                                                                 $ $ $ $ $ $ $ $ $ $ $ $ $ $ $ $ $ $ $ $ $ $ $ $ $ $ $ $ $ $ $ $ $ $ $ $ $ @ @ @                                                                                                     @ @ @ @ @ @ @ @ + @ @ @ @ + + @ @ + + + + + + + + + + + + + + + + + + + + + + + +     ",
"    w w w w w w w w w w w w e e 2 w w w w 2 2 2 w w w 2 2 e 2 2 2 2 2 2 2 2 2 2 2 2 2                                                                                                     1 1 1 1 1 1 1 1 1 1 1 < < < < < < < < < < < < < < < < < < < < < < < < < < < < <                                                                   , , , , , , , , , , , , , , , , , , , , > > > > > , , , > > > , , , , > > > > > >                                                                                                                                                                                                     & & & & & & & & & & & & & & % % % % % % % % % & & % % % % & % % % % % % % % % % %                                                                   $ $ $ $ $ $ $ $ $ $ $ $ $ $ $ $ $ $ $ $ $ $ $ $ $ $ $ $ $ $ $ $ $ $ $ $ $ $ $ @                                                                                                     @ @ @ @ @ + @ @ @ @ @ @ @ @ + @ + + + + + + + + + + + + + + + + + + + + + + + + +     ",
"    w w w w w w w w w w w e e 2 2 2 w w w 2 2 2 w w 2 2 e 2 2 2 2 2 2 2 2 2 2 2 2 2 2                                                                                                     1 1 1 1 1 1 1 1 1 1 < < < < < < < < < < < < < < < < < < < < < < < < < < < < < <                                                                     , , , , , , , , , , , , , , , , , , > > > > > > , , , > > > > , , > > > > > > > >                                                                                                                                                                                                 & & & & & & & & & & & & & & % % % % % % % % % % & & % % % % % % % % % % % % % % %                                                                     $ $ $ $ $ $ $ $ $ $ $ $ $ $ $ $ $ $ $ $ $ $ $ $ $ $ $ $ $ $ $ $ $ $ @ $ $ $ $ $                                                                                                     @ @ @ @ @ + + @ @ @ @ @ @ @ + + + + + + + + + + + + + + + + + + + + + + + + + + +     ",
"    e w w w w w w w w w w w w w 2 2 w w w 2 2 e w w w w 2 2 2 2 2 2 2 2 2 2 2 2 2 2 2                                                                                                     1 1 1 1 1 1 1 1 1 < < < < < < < < < < < < < < < < < < < < < < < < < < < < < < <                                                                       , , , , , , , , , , , , , , , , > > > , , , , , > > > > , , , > > > > > > > > > >                                                                                                                                                                                             & & & & & & & & & & & & & & & & & % & & & % % % % % % % % % % % % % % % % % % % %                                                                       $ $ $ $ $ $ $ $ $ $ $ $ $ $ $ $ $ $ $ $ $ $ $ $ $ $ $ $ $ $ $ $ $ $ @ $ $ $ $ $                                                                                                     + @ @ @ @ + + @ @ @ @ @ @ @ + + + + + + + + + + + + + + + + + + + + + + + + + + +     ",
"    e w w w w w w w w e w w w w 2 w w w w 2 2 w w w w 2 2 2 2 e 2 2 2 2 2 2 2 2 2 2 2                                                                                                     1 1 1 1 1 1 1 1 < < < < < < < < < < < < < < < < < < < < < < < < < < < < < < < <                                                                         , , , , , , , , , , , , , , > > > , , , , , , > > > > , , > > > > > > > > > > > >                                                                                                                                                                                         & & & & & & & & & & & & & & & & & & & & & & % % % % % % % % % % % % % % % % % % %                                                                         $ $ $ $ $ $ $ $ $ $ $ $ $ $ $ $ $ $ $ $ $ $ $ $ $ $ $ $ $ $ $ $ $ @ @ $ $ $ $ $                                                                                                     + @ @ @ + + + @ @ @ @ @ @ + + + + + + + + + + + + + + + + + + + + + + + + + + + +     ",
"    e w w w w w w w e e 2 2 w w 2 2 2 w w w w w e e 2 2 2 2 2 e 2 2 2 2 2 2 2 2 2 2 2                                                                                                     1 1 1 1 1 1 1 < < < < < < < < < < < < < < < < < < < < < < < < < < < < < < < < <                                                                           , , , , , , , , , , , , > > > > , , , , > > > , > > , > > > > > > > > > > > > > >                                                                                                                                                                                     & & & & & & & & & & & & & & % % % % % % % & & % % & & % & & % & % % % % % % % % %                                                                           $ $ $ $ $ $ $ $ $ $ $ $ $ $ $ $ $ $ $ $ $ $ $ $ $ $ $ $ $ $ $ $ @ @ @ @ $ @ @ @                                                                                                     + @ @ @ @ + + @ @ @ @ @ + + + + + + + + + + + + + + + + + + + + + + + + + + + + +     ",
"    e w w w w w w w e 2 2 2 w w w w 2 2 e w w e e 2 2 2 2 2 2 2 e 2 2 2 2 2 2 2 2 2 2                                                                                                     1 1 1 1 1 1 < < < < < < < < < < < < < < < < < < < < < < < < < < < < < < < < < <                                                                             , , , , , , , , , , > > > , > , , , > > > > , , , > > > > > > > > > > > > > > > >                                                                                                                                                                                 & & & & & & & & & & & & & & % % % % % & % % % & % & & & & & % % % % % % % % % % %                                                                             $ $ $ $ $ $ $ $ $ $ $ $ $ $ $ $ $ $ $ $ $ $ $ $ $ $ $ $ $ $ $ $ @ @ @ @ $ @ @ @                                                                                                     + @ @ @ @ + + @ @ @ @ + + + + + + + + + + + + + + + + + + + + + + + + + + + + O +     ",
"    w w w w w w w w 2 2 2 2 2 w w 2 2 2 w w e e 2 2 2 2 2 2 2 2 e 2 2 2 2 2 2 2 2 2 2                                                                                                     1 1 1 1 1 < < < < < < < < < < < < < < < < < < < < < < < < < < < < < < < < < < <                                                                               , , , , , , , , , , , , , , > > , , > > > , , > > > > > > > > > > > > > > > > > >                                                                                                                                                                             & & & & & & & & & & & & & & % % % % % % & % % & % % % % & % % % % % % % % % % % %                                                                               $ $ $ $ $ $ $ $ $ $ $ $ $ $ $ $ $ $ $ $ $ $ $ $ $ $ $ $ $ @ @ @ @ $ $ @ @ @ @ $                                                                                                     + @ @ @ @ @ @ @ @ @ + + + + + + + + + + + + + + + + + + + + + + + + + + + + O O +     ",
"    w w w w w e w 2 2 2 2 2 w w w 2 w w w w e 2 2 2 2 2 2 2 2 2 2 2 2 2 2 2 2 2 2 2 2                                                                                                     1 1 1 1 < < < < < < < < < < < < < < < < < < < < < < < < < < < < < < < < < < < <                                                                                 , , , , , , , , , , , > > , , , , > > > , > > > > > > > > > > > > > > > > > > > >                                                                                                                                                                         & & & & & & & & & & & & & & % % % % % % % % % % % % % % % & % % % % % % % % % % %                                                                                 $ $ $ $ $ $ $ $ $ $ $ $ $ $ $ $ $ $ $ $ $ $ $ $ $ $ $ $ @ @ @ @ @ $ @ @ @ $ $ @                                                                                                     + @ @ @ @ @ @ @ @ + + + + + + + + + + + + + + + + + + + + + + + + + + + + O O O +     ",
"    w w w w w w w w 2 2 2 2 2 2 2 w w w e w 2 2 2 2 2 2 2 2 e e 2 2 2 2 2 2 2 2 2 2 2                                                                                                     1 1 1 < < < < < < < < < < < < < < < < < < < < < < < < < < < < < < < < < < < < <                                                                                   , , , , > > , > > > > > > , , > > > > > > > > > > > > > > > > > > > > > > > > > >                                                                                                                                                                     & & & & & & & & & & & & & & & % % % % % % & % % % % & % % % % % % % % % % % % % %                                                                                   $ $ $ $ $ $ $ $ $ $ $ $ $ $ $ $ $ $ $ $ $ $ $ $ $ $ $ @ @ $ @ $ $ $ $ $ @ $ @ @                                                                                                     + @ @ + + @ + @ + + + + + + + + + + + + + + + + + + + + + + + + + + + + O O O O +     ",
"    w w w w w w w w w 2 2 2 2 w 2 w w e e 2 2 2 2 2 2 2 2 2 2 2 2 2 2 2 2 2 2 2 2 2 2                                                                                                     1 1 < < < < < < < < < < < < < < < < < < < < < < < < < < < < < < < < < < < < < <                                                                                     , , > > > > > > , > > > > , > > > > > > > > > > > > > > > > > > > > > > > > > > >                                                                                                                                                                 & & & & & & & & & & & & & & & % % % % % % & & % % % % % % % % % % % % % % % % % %                                                                                     $ $ $ $ $ $ $ $ $ $ $ $ $ $ $ $ $ $ $ $ $ $ $ $ $ $ @ @ @ $ $ $ $ $ $ $ $ @ @ @                                                                                                     + @ @ @ + + + + + + + + + + + + + + + + + + + + + + + + + + + + + + + O O O O O +     ",
"    w w w w w w 2 2 2 2 2 2 w w w w e e 2 2 2 2 2 2 2 e e 2 2 2 2 e 2 2 2 2 2 2 2 2 2                                                                                                     1 < < < < < < < < < < < < < < < < < < < < < < < < < < < < < < < < < < < < < < <                                                                                       , , , > > > > , > > > > , , , > > > > > > > > > > > > > > > > > > > > > > > > > >                                                                                                                                                             & & & & & & & & & & & & & & % % % & & % % & & & % % % % % % % % % % % % % % % % %                                                                                       $ $ $ $ $ $ $ $ $ $ $ $ $ $ $ $ $ $ $ $ $ $ $ $ $ @ @ @ @ @ @ $ $ $ $ $ @ @ @ @                                                                                                     + @ @ @ @ @ + + + + + + + + + + + + + + + + + + + + + + + + + + + + O O O O O O +     ",
"    w w w w 2 2 2 2 2 2 w 2 w w w e e 2 2 2 2 2 2 2 2 2 2 2 2 2 2 2 2 2 2 2 2 2 2 2 2                                                                                                     < < < < < < < < < < < < < < < < < < < < < < < < < < < < < < < < < < < < < < < <                                                                                         , , , , , > > > > > > , , > > > > > > > > > > > > > > > > > > > > > > > > > > > >                                                                                                                                                         & & & & & & & & & & & & & & % % % % & & % % % % % % % % % % % % % % % % % % % % %                                                                                         $ $ $ $ $ $ $ $ $ $ $ $ $ $ $ $ $ $ $ $ $ $ $ $ @ @ $ @ @ @ @ $ $ $ $ @ @ @ @ @                                                                                                     + @ @ @ @ + + + + + + + + + + + + + + + + + + + + + + + + + + + + O O O O O O O +     ",
"    w w 2 2 2 2 w 2 w w w w w w e 2 2 2 2 2 2 2 2 2 2 2 2 2 2 2 2 2 2 2 2 2 2 2 2 2 2                                                                                                     < < < < < < < < < < < < < < < < < < < < < < < < < < < < < < < < < < < < < < < ,                                                                                           , , , > > > > , > > , > > > > > > > > > > > > > > > > > > > > > > > > > > > > > ;                                                                                                                                                     & & & & & & & & & & & & & & % % % % % % & % % % % % % % % % % % % % % % % % % % %                                                                                           $ $ $ $ $ $ $ $ $ $ $ $ $ $ $ $ $ $ $ $ $ $ $ @ @ $ $ $ $ $ $ $ $ $ $ @ @ @ @ @                                                                                                     + @ @ @ + + + + + + + + + + + + + + + + + + + + + + + + + + + + O O O O O O O O +     ",
"    w w 2 2 2 2 w w w w w w w e 2 2 2 2 2 2 2 2 2 2 2 2 2 2 2 2 2 2 2 2 2 2 2 2 2 2 2                                                                                                     < < < < < < < < < < < < < < < < < < < < < < < < < < < < < < < < < < < < < < , ,                                                                                             , , > > > > , , , > > > > > > > > > > > > > > > > > > > > > > > > > > > > > > > ;                                                                                                                                                 & & & & & & & & & & & & & & % % % % % % % % % % % % % % & % % % % % % % % % % % %                                                                                             $ $ $ $ $ $ $ $ $ $ $ $ $ $ $ $ $ $ $ $ $ $ @ @ @ $ $ $ $ $ $ $ $ $ $ @ @ @ @ @                                                                                                     + @ @ + + + + + + + + + + + + + + + + + + + + + + + + + + + + O O O O O O O O O +     ",
"    2 2 2 w w w w w w w w w w w 2 2 2 2 2 2 2 2 2 2 2 2 2 2 2 2 2 2 2 2 2 2 2 2 2 2 2                                                                                                     < < < < < < < < < < < < < < < < < < < < < < < < , < < < < < < < < < < < < , , ,                                                                                               , , , , > , , > > > > > > > > > > > > > > > > > > > > > > > > > > > > ; ; ; ; ; >                                                                                                                                             & & & & & & & & & & & & & & % % % % & & & % % % % % % % % & & & % % % % % % % % %                                                                                               $ $ $ $ $ $ $ $ $ $ $ $ $ $ $ $ $ $ $ $ $ @ @ @ $ $ $ $ $ $ $ $ @ @ @ @ @ @ @ #                                                                                                     + @ + + + + + + + + + + + + + + + + + + + + + + + + + + + + O O O O O O O O O O +     ",
"    2 2 w w w w w 2 w w w w w 2 2 2 2 2 2 2 2 2 2 2 2 2 2 2 2 2 2 2 2 2 2 2 2 2 2 2 2                                                                                                     < < < < < < < < < < < < < < < < < < < < < < < < < < < < < < < < < < < < , , , ,                                                                                                 , , , > , > > > > > > > > > > > > > > > > > > > > > > > > > > > > ; ; ; ; ; ; > ;                                                                                                                                         & & & & & & & & & & & & & & & % % % & & & & % % % % % % % % & & % % % % % % % % %                                                                                                 $ $ $ $ $ $ $ $ $ $ $ $ $ $ $ $ $ $ $ $ $ $ @ @ $ @ @ $ $ @ @ @ @ $ $ @ @ # @ $                                                                                                     + + + + + + + + + + + + + + + + + + + + + + + + + + + + + O O O O O O O O O O O O     ",
"    2 2 w w w w 2 2 w 2 e e w 2 2 2 2 2 2 2 2 2 2 2 2 2 2 2 2 2 2 2 2 2 2 2 2 2 2 2 2                                                                                                     < < < < < < < < < < < < < < < < < < < < < < < < < < < < < < < < < < < , , , , ,                                                                                                   > > > > > > > > > > > > > > > > > > > > > > > > > > > > > > > > ; ; > > > > > > :                                                                                                                                     & & & & & & & & & & & & & & & & & % % % % & & & % & & % % % % % % % % % % % % % %                                                                                                   $ $ $ $ $ $ $ $ $ $ $ $ $ $ $ $ $ $ $ @ @ $ $ $ $ @ @ @ $ @ @ @ @ @ @ @ @ @ @ $                                                                                                     + + + + + + + + + + + + + + + + + + + + + + + + + + + + O O O O O O O O O O O O O     ",
"    2 2 2 w w w 2 2 w e e 2 w 2 2 2 2 e 2 2 2 2 2 2 2 2 2 2 2 2 2 2 2 2 2 2 2 2 2 2 2                                                                                                     < < < < < < < < < < < < < < < < < < < < < < < < < < < < < < < < < < , , , , , ,                                                                                                     > > > > > > > > > > > > > > > > > > > > > > > > > > > > > > > > ; > > > > > : > >                                                                                                                                 & & & & & & & & & & & & & & & & & & % % % % % & & & & & & % % % % % % % % % % % %                                                                                                     $ $ $ $ $ $ $ $ $ $ $ $ $ $ $ $ $ $ @ @ @ $ $ $ $ @ @ @ @ @ @ @ @ @ @ @ @ @ # #                                                                                                     + + + + + + + + + + + + + + + + + + + + + + + + + + + O O O O O O O O O O O O O O     ",
"    2 w w w e 2 2 2 w e 2 2 2 2 2 2 2 e e 2 2 2 2 2 2 2 2 2 2 2 2 2 2 2 2 2 2 2 2 2 2                                                                                                     < < < < < < < < < < < < < < < < < < < < < < < < < < < < < < < < < , , , , , , ,                                                                                                       > > > > > > > > > > > > > > > > > > > > > > > > > > > > > > ; ; ; > > > > > > > >                                                                                                                             & & & & & & & & & & & & & & % % % & & % % & % & % % % % % % % % % % % % % % % % %                                                                                                       $ $ $ $ $ $ $ $ $ $ $ $ $ $ $ $ $ $ $ @ @ @ $ @ $ $ @ $ @ @ @ @ @ @ @ @ @ @ @ @                                                                                                     + + + + + + + + + + + + + + + + + + + + + + + + + + O O O O O O O O O O O O O O O     ",
"    2 w w w 2 2 2 2 w 2 2 2 2 2 2 2 2 2 2 2 2 2 e 2 2 2 2 2 2 2 2 2 2 2 2 2 2 2 2 2 2                                                                                                     < < < < < < < < < < < < < < < < < < < < < < < < < < < < < < < < , , , , , , , ,                                                                                                         > > > > > > > > > > > > > > > > > > > > > > > > > > > > > ; ; > > > > > > > > > >                                                                                                                         & & & & & & & & & & & & & & % % % % & & % % % % % & & % % % % % % % % % % % % % %                                                                                                         $ $ $ $ $ $ $ $ $ $ $ $ $ $ $ $ @ $ $ @ @ @ @ $ $ $ $ @ @ @ @ @ @ # @ @ @ @ @ @                                                                                                     + + + + + + + + + + + + + + + + + + + + + + + + + O O O O O O O O O O O O O O O O     ",
"    2 w w w w w 2 2 2 2 2 2 2 2 2 2 2 2 2 2 2 2 2 2 2 2 2 2 2 2 2 2 2 2 2 2 2 2 2 2 2                                                                                                     < < < < < < < < < < < < < < < < < < < < < < < < < < < < < < < , , , , , , , , ,                                                                                                           > > > > > > > > > > > > > > > > > > > > > > > > ; ; > ; > ; > > > > > > : * > > > ;                                                                                                                   & & & & & & & & & & & & & & % % % % % & & % % % % % % % % % % % % % % % % % % % %                                                                                                           $ $ $ $ $ $ $ $ $ $ $ $ $ $ $ @ @ $ $ $ $ $ $ $ $ $ @ @ @ @ @ # # $ $ @ @ @ @ @                                                                                                     + + + + + + + + + + + + + + + + + + + + + + + + O O O O O O O O O O O O O O O O O     ",
"    2 w w w w e 2 2 2 2 2 2 2 2 2 2 2 2 2 2 2 2 2 2 2 2 2 2 2 2 2 2 2 2 2 2 2 2 2 2 2                                                                                                     < < < < < < < < < < < < < < < < < < < < < < < < < < < < < < , , , , , , , , , ,                                                                                                             > > > > > > > > > > > > > > > > > > > > > > ; ; ; ; ; ; ; > > > > > : * & : > ; ; -                                                                                                             & & & & & & & & & & & & & & & % % % % % % % % % % % % % % & % % % % % % % % % % % %                                                                                                             $ $ $ $ $ $ $ $ $ $ $ $ $ $ @ @ @ $ $ $ $ @ $ $ $ @ @ @ # @ @ # # $ $ @ @ @ @ @                                                                                                     + + + + + + + + + + + + + + + + + + + + + + + O O O O O O O O O O O O O O O O O O     ",
"    2 w w w e 2 2 2 2 2 2 2 2 2 2 2 2 2 2 2 2 2 2 2 2 2 2 2 2 2 2 2 2 2 2 2 2 2 2 2 2                                                                                                     < < < < < < < < < < < < < < < < < < < < < < < < < < < < < , , , , , , , , , , ,                                                                                                               > > > > > > > > > > > > > > > > > > > ; ; ; ; ; ; ; ; ; - - > > > > & & * & ; - - -                                                                                                         & & & & & & & & & & & & & & & % % % % & & & % % % % % % % % % % % % % % % % % % % %                                                                                                               $ $ $ $ $ $ $ $ $ $ $ $ $ @ @ $ $ $ $ @ $ @ @ $ @ $ $ # # @ # $ # # # @ @ @ @ @                                                                                                     + + + + + + + + + + + + + + + + + + + + + + O O O O O O O O O O O O O O O O O O O     ",
"    2 w w e e 2 2 2 2 2 2 2 2 2 2 2 2 2 2 2 2 2 2 2 2 2 2 2 2 2 2 2 2 2 2 2 2 2 2 2 2                                                                                                     < < < < < < < < < < < < < < < < < < < < < < < < < < < < , , , , , , , , , , , ,                                                                                                                 > > > > > > > > > > > > > > > > > ; ; > > ; ; > ; ; - - - : : > > & & ; ; - & - - -                                                                                                     & & & & & & & & & & & & & & & & % % % & & & & % % % % % % % % & & % % % % % % % % %                                                                                                                 $ $ $ $ $ $ $ $ $ $ $ $ $ @ @ @ $ @ $ $ @ @ @ @ @ $ @ # # @ @ # # # @ @ @ @ @ @                                                                                                     + + + + + + + + + + + + + + + + + + + + + O O O O O O O O O O O O O O O O O O O O     ",
"    2 w e e 2 2 2 2 2 2 2 2 2 2 2 2 2 2 2 2 2 2 2 2 2 2 2 2 2 2 2 2 2 2 2 2 2 2 2 2 2                                                                                                     < < < < < < < < < < < < < < < < < < < < < < < < < < < , , , , , , , , , , , , ,                                                                                                                   > > > > > > > > > > > > > > > > ; ; > > > > > > - - - - - * > > > & ; - & - - - - -                                                                                                 & & & & & & & & & & & & & & & % & & % % % % & & % % & & % % % % & % % % % % % % % %                                                                                                                   $ $ $ $ $ $ $ $ $ $ $ $ $ $ $ $ $ @ @ @ @ $ @ @ @ @ @ @ @ @ @ # # @ @ @ @ @ @ @                                                                                                     + + + + + + + + + + + + + + + + + + + + O O O O O O O O O O O O O O O O O O O O O     ",
"    2 e e 2 2 2 2 2 2 e e 2 2 2 2 2 2 2 2 2 2 2 2 2 2 2 2 2 2 2 2 2 2 2 2 2 2 2 2 2 2                                                                                                     < < < < < < < < < < < < < < < < < < < < < < < < < < , , , , , , , , , , , , , ,                                                                                                                     > > > > > > > > > > > > > > > > ; > > > > > : - - - - & & > > ; ; - - - - - - - - -                                                                                             & & & & & & & & & & & & & & & % % & & % % % % % & & & & & % % % % % % % % % % % % %                                                                                                                     $ $ $ $ $ $ $ $ $ $ @ $ $ $ $ $ $ @ @ @ @ $ @ @ @ @ @ @ @ @ @ @ @ @ @ @ @ @ @ @                                                                                                     + + + + + + + + + + + + + + + + + + + O O O O O O O O O O O O O O O O O O O O O O     ",
"    2 w 2 2 2 2 2 e 2 2 2 2 e 2 2 2 2 2 2 2 2 2 2 2 2 2 2 2 2 2 2 2 2 2 2 2 2 1 2 2 2                                                                                                     < < < < < < < < < < < < < < < < < < < < < < < < < , , , , , , , , , , , , , , ,                                                                                                                       > > > > > > > > > > > > > > > > ; ; ; ; : : > > > > > > > ; ; - ; ; - - - - > > & -                                                                                         & & & & & & & & & & & & & & & % & & & & % % % & & % % % % & & & % % % % % % % % % %                                                                                                                       $ $ $ $ $ $ $ $ $ @ @ $ $ @ $ $ $ $ @ $ @ $ $ @ @ @ # @ @ $ $ @ @ @ @ @ @ @ @ @                                                                                                     + + + + + + + + + + + + + + + + + + O O O O O O O O O O O O O O O O O O O O O O O     ",
"    2 2 2 2 2 2 e e 2 2 2 2 2 2 2 2 2 2 2 2 2 2 2 2 2 2 2 2 2 2 2 2 2 2 2 1 1 2 2 2 2                                                                                                     < < < < < < < < < < < < < < < < < < < < < < < < , , , , , , , , , , , , , , , ,                                                                                                                         > > > > > > > > > > > > > > > ; ; ; - : : > > > > > > ; ; - - ; - - - - ; > > & & ;                                                                                     & & & & & & & & & & & & & & & % & & & & & % % % % % % % % % % & & % % % % % % % % %                                                                                                                         $ $ $ $ $ $ $ $ @ @ @ $ $ @ @ $ $ $ $ @ @ @ @ @ @ @ # $ $ $ @ @ @ @ @ @ @ @ @ @                                                                                                     + + + + + + + + + + + + + + + + + O O O O O O O O O O O O O O O O O O O O O O o O     ",
"    2 2 2 2 2 2 2 2 2 2 2 2 2 2 2 2 2 2 2 2 2 2 2 2 2 2 2 2 2 2 2 1 2 2 2 2 2 2 2 1 1                                                                                                     < < < < < < < < < < < < < < < < < < , < < < < , , , , , , , , , , , , , , , , ,                                                                                                                           > > > > > > > ; ; ; ; ; > > ; ; > > > > > > > > > ; ; - - - > > & & - & > > & & & -                                                                                 & & & & & & & & & & & & & & & % % % & & % % % % & % % % % % % % & % % % % % % % % %                                                                                                                           $ $ $ $ $ $ $ $ $ @ @ @ $ $ $ $ $ $ @ @ @ @ @ @ @ @ @ # # @ @ @ @ @ @ @ @ @ @ @                                                                                                     + + + + + + + + + + + + + + + + O O O O O O O O O O O O O O O O O O O O O O o o O     ",
"    w e 2 2 2 2 2 2 2 2 2 2 2 2 2 2 2 2 2 2 2 2 2 2 2 2 2 2 2 2 1 1 2 2 2 2 2 2 2 1 2                                                                                                     < < < < < < < < < < < < < < < < < < < < < < , , , , , , , , , , , , , , , , , ,                                                                                                                           > > > > > > > ; ; ; ; ; ; ; > > > > > > > > * : ; ; - - - - ; > & & & & = : & & & & -                                                                             & & & & & & & & & & & & & & & % % % % & & % % % % % % % % % % % % % % % % % % % % % %                                                                                                                           $ $ $ $ $ $ $ $ $ @ @ @ $ @ $ $ $ @ @ @ @ $ @ @ @ @ @ # @ @ @ @ @ @ @ @ @ @ @ @                                                                                                     + + + + + + + + + + + + + + + O O O O O O O O O O O O O O O O O O O O O O o o o O     ",
"    2 2 2 2 2 e 2 2 2 2 2 2 2 2 2 2 2 2 2 2 2 2 2 2 2 2 2 2 2 2 1 2 2 2 2 2 2 2 2 2 1                                                                                                     < < < < < < < < < < < < < < < < < < < < < , , , , , , , , , , , , , , , , , , ,                                                                                                                             > > > > ; ; ; ; ; ; ; ; > > > > > > > > > * & & & ; - - - ; - - - & ; & : - - - & & -                                                                         & & & & & & & & & & & & & & & % % % % % % & & & % % % % % & % % % % % % % % % % % % %                                                                                                                             $ $ $ $ $ $ $ $ $ $ $ $ $ @ @ @ @ $ $ # # @ # @ @ @ @ @ @ @ @ @ @ @ @ @ @ @ @ @                                                                                                     + + + + + + + + + + + + + + O O O O O O O O O O O O O O O O O O O O O O o o o o O     ",
"    2 2 2 2 2 e 2 2 2 2 2 2 2 2 2 2 2 2 2 2 2 2 2 2 2 2 2 2 2 2 2 2 2 2 2 2 2 2 2 1 1                                                                                                     < < < < < < < < < < < < < < < < < < < < , , , , , , , , , , , , , , , , , , , ,                                                                                                                               > > > > ; ; ; ; ; ; > : > : > > > > > > & & & & ; > - - - - - & & & - : - - - & & & -                                                                     & & & & & & & & & & & & & & & % % % % % % % % & % % % % % & & % % % % % % % % % % % %                                                                                                                               $ $ $ $ @ $ $ $ $ $ $ $ $ @ @ @ @ $ @ # # @ # # @ @ @ @ @ @ @ @ @ @ @ @ @ @ @ @                                                                                                     + + + + + + + + + + + + + O O O O O O O O O O O O O O O O O O O O O O o o o o o O     ",
"    2 2 2 2 2 2 2 2 2 2 2 2 2 2 2 2 2 2 2 2 2 2 2 2 2 2 2 2 1 1 2 2 2 2 2 2 2 2 1 1 1                                                                                                     < < < < < < < < < < < < < < < < < < < , , , , , , , , , , , , , , , , , , , , ,                                                                                                                                 > > > ; ; > > > > > > : : - & > : > > ; - & & > ; - - - - & & & & - - - - & & & & & -                                                                 & & & & & & & & & & & & & & & & % % % % % % % % & & % % % % & % % % % % % % % % % % %                                                                                                                                 $ $ $ @ @ @ @ @ @ $ @ $ $ $ @ @ @ @ @ @ @ @ @ # # @ @ @ @ @ @ @ @ @ @ @ @ @ @ @                                                                                                     + + + + + + + + + + + + O O O O O O O O O O O O O O O O O O O O O O o o o o o o O     ",
"    2 2 2 2 2 2 2 2 2 2 2 2 2 2 2 2 2 2 2 2 2 2 2 2 2 2 2 1 1 2 2 2 2 2 2 2 2 1 1 1 1                                                                                                     < < < < < < < < < < < < < < < < < < , , , , , , , , , , , , , , , , , , , , , ,                                                                                                                                   > > > ; > > > > > > : : & & & * > > ; - - - ; ; - - - & & & & & - & & & - - - & & & &                                                             & & & & & & & & & & & & & & & & % % % % % % % % % & & % % % % % % % % % % % % % % % %                                                                                                                                   $ $ @ @ @ @ @ @ @ @ @ $ $ $ @ @ @ @ # @ @ @ @ # @ @ @ @ @ @ @ @ @ @ @ @ @ @ @ @                                                                                                     + + + + + + + + + + + O O O O O O O O O O O O O O O O O O O O O O o o o o o o o O     ",
"    2 2 2 2 2 2 2 2 2 2 2 2 2 2 2 2 2 2 2 2 2 2 2 2 2 2 2 2 1 1 2 2 2 2 2 2 1 1 1 1 1                                                                                                     < < < < < < < < < < < < < < < < < , , , , , , , , , , , , , , , , , , , , , , ,                                                                                                                                     ; > > > > - : > > > > > > > ; ; - - - - - - - - - & & & & & & : - - & & & - - & & & &                                                         & & & & & & & & & & & & & & & % % % & & % % & % & % % % % % % % % % % % % % % % % % %                                                                                                                                     $ $ $ $ $ @ @ $ @ @ @ $ $ $ @ @ $ @ @ @ @ @ @ @ @ @ @ @ @ @ @ @ @ @ @ @ @ @ @ @                                                                                                     + + + + + + + + + + O O O O O O O O O O O O O O O O O O O O O O o o o o o o o o O     ",
"    2 2 2 2 2 2 2 2 2 2 2 2 2 2 2 2 2 2 2 2 2 2 2 2 2 2 2 2 1 1 2 2 2 2 2 1 1 1 1 1 1                                                                                                     < < < < < < < < < < < < < < < < , , , , , , , , , , , , , , , , , , , , , , , ,                                                                                                                                       > > > : > : > > > > > > ; ; - - - - - - - - - & & & & & & & - - - - & & - & & & & & &                                                     & & & & & & & & & & & & & & & % % % % & & % % % % % & & % % % % % % % % % % % % % % %                                                                                                                                       $ $ $ @ $ $ @ $ $ @ @ @ @ $ @ @ @ # # @ @ @ @ @ @ @ @ @ @ @ @ @ @ @ @ @ @ @ @ @                                                                                                     + + + + + + + + + O O O O O O O O O O O O O O O O O O O O O O o o o o o O o o o O     ",
"    2 2 2 2 2 2 2 2 2 2 2 2 2 2 2 2 2 2 2 2 2 2 2 2 2 2 2 2 1 2 2 2 2 2 1 1 1 1 1 1 1                                                                                                     < < < < < < < < < < < < < < < , , , , , , , , , , , , , , , , , , , , , , , , ,                                                                                                                                         > > > > - - & & & > ; ; ; - - - - - - - - & & : - : : & - - - & & & & & & & & & & & &                                                 & & & & & & & & & & & & & & & % % % % % & & % % % % % % % % % % % % % % % % % % % % %                                                                                                                                         $ @ @ @ @ @ $ $ $ $ @ @ @ @ @ @ @ @ # # # @ @ @ @ @ @ @ @ @ @ @ @ @ @ @ @ @ @ @                                                                                                     + + + + + + + + O O O O O O O O O O O O O O O O O O O O O O o o o o o O O o o o O     ",
"    2 2 2 2 2 2 2 2 2 2 2 2 2 2 2 2 2 2 2 2 2 2 2 2 2 2 2 2 2 2 2 2 2 1 1 1 1 1 1 1 1                                                                                                     < < < < < < < < < < < < < < , , , , , , , , , , , , , , , , , , , , , , , , , ,                                                                                                                                           : > : - & & & & & ; - - - - - - - - - & & & : : : : & - - - & & & & & & & & & & & & &                                             & & & & & & & & & & & & & & & % % % % % % % % % % % % % % & % % % % % % % % % % % % %                                                                                                                                           $ @ @ @ @ $ $ $ $ @ @ @ @ @ @ @ @ @ @ # @ @ @ @ @ @ @ @ @ @ @ @ @ @ @ @ @ @ @ @                                                                                                     + + + + + + + O O O O O O O O O O O O O O O O O O O O O O o o o o o o O o o o o O     ",
"    2 2 2 2 2 2 2 2 2 2 2 2 2 2 2 2 2 2 2 2 2 2 2 2 2 2 2 2 2 2 2 2 1 1 1 1 1 1 1 1 1                                                                                                     < < < < < < < < < < < < < , , , , , , , , , , , , , , , , , , , , , , , , , , ,                                                                                                                                             ; > > > > & & > > ; - - - ; ; - - & ; & : & - - - - - - - - - & & & & & & & & & & & &                                         & & & & & & & & & & & & & & & % % % % & & & % % % % % % % % % % % % % % % % % % % % %                                                                                                                                             @ @ $ $ $ $ $ $ @ $ $ @ @ @ @ @ @ @ @ @ @ @ @ @ @ @ @ @ @ @ @ @ @ @ @ @ @ @ @ @                                                                                                     + + + + + + O O O O O O O O O O O O O O O O O O O O O O o o o o o o o o o o o o O     ",
"    2 2 2 2 2 2 2 2 2 2 2 2 2 2 2 2 2 2 2 2 2 2 2 2 2 2 2 2 2 2 2 1 1 1 1 1 1 1 1 1 1                                                                                                     < < < < < < < < < < < < , , , , , , , , , , , , , , , , , , , , , , , , , , , ,                                                                                                                                               = > > > & & > > - - - - > - - & & & : : & & - - - - - - - & & & & & & & & & & & & & &                                     & & & & & & & & & & & & & & & & % % % & & & & % % % % % % % % & & % % % % % % % % % %                                                                                                                                               @ @ @ $ $ @ $ @ @ $ @ @ @ # # @ @ @ @ @ @ @ @ @ @ @ @ @ @ @ @ @ @ @ @ @ @ @ @ @                                                                                                     + + + + + O O O O O O O O O O O O O O O O O O O O O O o o o o o o o o o o o o o O     ",
"    2 2 2 2 2 2 2 2 2 2 2 2 2 2 2 2 2 2 2 2 2 2 2 2 2 2 2 1 2 1 1 1 1 1 2 1 1 1 1 1 1                                                                                                     < < < < < < < < < < < , , , , , , , , , , , , , , , , , , , , , , , , , , , , ,                                                                                                                                                 : > ; ; - ; > - - & & > > ; & & & : : & & & & - - - - & & & & & & & & & & & & & & & &                                 & & & & & & & & & & & & & & & % & & % % % % & & % % & & % % % % & % % % % % % % % % %                                                                                                                                                 @ $ $ $ $ $ @ @ @ # # @ @ @ $ # # @ @ @ @ @ @ @ @ @ @ @ @ @ @ @ @ @ @ @ @ @ @ @                                                                                                     + + + + O O O O O O O O O O O O O O O O O O O O O O o o o o o O O o O o o o o o O     ",
"    2 2 2 2 2 2 2 2 2 2 2 2 2 2 2 2 2 2 2 2 2 2 1 1 2 2 2 1 1 1 1 1 1 1 1 1 1 1 1 1 1                                                                                                     < < < < < < < < < < , , , , , , , , , , , , , , , , , , , , , , , , , , , , , ,                                                                                                                                                   ; ; - - > > - - & & - ; ; : & & : : & & & & & & - & & & & & & & & & & & & & & & & & &                             & & & & & & & & & & & & & & & % % & & % % % % % & & & & & % % % % % % % % % % % % % %                                                                                                                                                   $ $ $ $ $ @ @ @ # # # @ @ @ $ # @ @ @ @ @ @ @ @ @ @ @ @ @ @ @ @ @ @ @ @ @ @ @ @                                                                                                     + + + O O O O O O O O O O O O O O O O O O O O O O o o o o o o O O o o o o o o o O     ",
"    2 2 2 2 2 2 2 2 2 2 2 2 2 2 2 2 2 2 2 1 2 2 1 1 2 2 2 1 1 1 1 1 1 1 1 1 1 1 1 1 1                                                                                                     < < < < < < < < < , , , , , , , , , , , , , , , , , , , , , , , , , , , , , , ,                                                                                                                                                     - - - - - - - - - & & : : : : : - & - - & & & & & & & & & & & & & & & & & & & & & & &                         & & & & & & & & & & & & & & & % & & & & % % % & & % % % % & & & % % % % % % % % % % %                                                                                                                                                     $ $ $ $ @ @ @ @ @ @ @ @ @ $ $ @ @ @ @ @ @ @ @ @ @ @ @ @ @ @ @ @ @ @ @ @ @ @ @ @                                                                                                     + + O O O O O O O O O O O O O O O O O O O O O O o o o O o o o o O O o o o o o o O     ",
"    2 2 2 2 2 2 2 2 2 2 2 2 2 2 2 2 2 2 1 2 2 2 2 1 2 2 2 1 1 1 1 1 1 1 1 1 1 1 1 1 1                                                                                                     < < < < < < < < , , , , , , , , , , , , , , , , , , , , , , , , , , , , , , , ,                                                                                                                                                       - - - - - - - & ; & & & : : - - & & - & & & & & & & & & & & & & & & & & & & & & & & &                     & & & & & & & & & & & & & & & % & & & & & % % % % % % % % % % & & % % % % % % % % % %                                                                                                                                                       $ $ $ @ @ @ @ @ @ # @ @ @ $ @ @ @ @ @ @ @ @ @ @ @ @ @ @ @ @ @ @ @ @ @ @ @ @ @ @                                                                                                     + O O O O O O O O O O O O O O O O O O O O O O O o o o O O o o o o O O o o o o o O     ",
"    2 2 2 2 2 2 2 2 2 2 2 2 2 2 2 2 2 2 1 1 2 2 2 2 2 2 1 1 1 1 1 1 1 1 1 1 1 1 1 1 1                                                                                                     < < < < < < < , , , , , , , , , , , , , , , , , , , , , , , , , , , , , , , , ,                                                                                                                                                         & ; - ; > & & & & & & & & - - - - - - & & & & & & & & & & & & & & & & & & & & & & & &                 & & & & & & & & & & & & & & & % % % & & % % % % & % % % % % % % & % % % % % % % % % %                                                                                                                                                         $ @ @ @ @ @ @ # # $ # # @ @ @ @ @ @ @ @ @ @ @ @ @ @ @ @ @ @ @ @ @ @ @ @ @ @ @ @                                                                                                     O O O O O O O O O O O O O O O O O O O O O O o O O o o o o o o o o o o o o o o o o     ",
"    2 2 2 2 2 2 2 2 2 2 2 2 2 2 2 2 2 2 1 1 2 2 2 2 2 1 1 1 1 1 1 1 1 1 1 1 1 1 1 1 1                                                                                                     < < < < < < , , , , , , , , , , , , , , , , , , , , , , , , , , , , , , , , , ,                                                                                                                                                           = > > > & & & & & & & & & & - - - & & & & & & & & & & & & & & & & & & & & & & & & & &             & & & & & & & & & & & & & & & % % % % & & % % % % % % % % % % % % % % % % % % % % % %                                                                                                                                                           $ @ @ @ @ @ @ # # # # # @ @ @ @ @ @ @ @ @ @ @ @ @ @ @ @ @ @ @ @ @ @ @ @ @ @ @ @                                                                                                     O O O O O O O O O O O O O O O O O O O O O o o o o o o o o o o o o o o O o o o o o     ",
"    2 2 2 2 2 2 2 2 2 2 2 2 2 2 1 2 2 2 2 2 2 2 2 2 1 1 1 1 1 1 1 1 1 1 1 1 1 1 1 1 1                                                                                                     < < < < < , , , , , , , , , , , , , , , , , , , , , , , , , , , , , , , , , , ,                                                                                                                                                             - > > : & & & & & & & & & - - & & & & & & & & & & & & & & & & & & & & & & & & & & &             & & & & & & & & & & & & & & % % % % % % & & & % % % % % & % % % % % % % % % % % % %                                                                                                                                                             @ @ @ @ $ @ # $ $ # # @ @ @ @ @ @ @ @ @ @ @ @ @ @ @ @ @ @ @ @ @ @ @ @ @ @ @ @ @                                                                                                     O O O O O O O O O O O O O O O O O O O O o o o o o o o o o o o o o o o O O o o o o     ",
"    2 2 2 2 2 2 2 2 2 2 2 2 2 2 2 2 2 2 2 2 2 2 2 1 1 1 1 1 1 1 1 1 1 1 1 1 1 1 1 1 1                                                                                                     < < < < , , , , , , , , , , , , , , , , , , , , , , , , , , , , , , , , , , , ,                                                                                                                                                               > : - - & & & - & & - & - & & & & & & & & & & & & & & & & & & & & & & & & & & & & &         & & & & & & & & & & & & & & % % % % % % % % & % % % % % & & % % % % % % % % % % % %                                                                                                                                                               @ @ @ $ $ @ @ $ $ # @ @ @ @ @ @ @ @ @ @ @ @ @ @ @ @ @ @ @ @ @ @ @ @ @ @ @ @ @ @                                                                                                     O O O O O O O O O O O O O O O O O O O o o o o O O o o O o o o o o o o o O o o o o     ",
"    2 2 2 2 2 2 2 2 2 2 2 2 2 2 2 2 2 2 2 2 2 2 1 1 1 1 1 1 1 1 1 1 1 1 1 1 1 1 1 1 1                                                                                                     < < < , , , , , , , , , , , , , , , , , , , , , , , , , , , , , , , , , , , , ,                                                                                                                                                                 : - & & & - - - - - - & & & & & & & & & & & & & & & & & & & & & & & & & & & & & &         & & & & & & & & & & & & & % % % % % % % % % & & % % % % & % % % % % % % % % % % %                                                                                                                                                                 @ @ @ $ @ @ @ @ @ @ @ @ @ @ @ @ @ @ @ @ @ @ @ @ @ @ @ @ @ @ @ @ @ @ @ @ @ @ @ @                                                                                                     O O O O O O O O O O O O O O O O O O o o o o o O O o o O o o o o O O o o o o o o o     ",
"    2 2 2 2 2 2 2 2 2 2 2 2 2 2 2 2 2 2 2 2 2 1 1 1 1 1 1 1 1 1 1 1 1 1 1 1 1 1 1 1 1                                                                                                     < < , , , , , , , , , , , , , , , , , , , , , , , , , , , , , , , , , , , , , ,                                                                                                                                                                   - & & & - - - - - & & & & & & & & & & & & & & & & & & & & & & & & & & & & & & &         & & & & & & & & & & & & % % % % % % % % % % & & % % % % % % % % % % % % % % % %                                                                                                                                                                   @ @ @ @ @ @ @ @ @ @ @ @ @ @ @ @ @ @ @ @ @ @ @ @ @ @ @ @ @ @ @ @ @ @ @ @ @ @ @ @                                                                                                     O O O O O O O O O O O O O O O O O o o o o o o o o o o O O o o o o O O o o o o o o     ",
"    2 2 2 2 2 2 2 2 2 2 1 1 2 2 2 1 1 1 2 2 1 1 1 1 1 1 1 1 1 1 1 1 1 1 1 1 1 1 1 1 1                                                                                                     < , , , , , , , , , , , , , , , , , , , , , , , , , , , , , , , , , , , , , , >                                                                                                                                                                     & & & - - - - & & & & & & & & & & & & & & & & & & & & & & & & & & & & & & & &         & & & & & & & & & & & & & & % & & & % % % % % % % % % % % % % % % % % % % % %                                                                                                                                                                     @ @ @ @ @ $ $ @ @ @ @ @ @ @ @ @ @ @ @ @ @ @ @ @ @ @ @ @ @ @ @ @ @ @ @ @ @ @ @ @                                                                                                     O O O O O O O O O O O O O O O O o o o o o o o o o o o o o o o o o o o o o o o o o     ",
"    2 2 2 2 2 2 2 2 2 2 1 1 2 2 1 1 2 1 2 1 1 1 1 1 1 1 1 1 1 1 1 1 1 1 1 1 1 1 1 1 1                                                                                                     , , , , , , , , , , , , , , , , , , , , , , , , , , , , , , , , , , , , , , , ,                                                                                                                                                                       & & - & - & & & & & & & & & & & & & & & & & & & & & & & & & & & & & & & & &         & & & & & & & & & & & & & & & & & & % % % % % % % % % % % % % % % % % % % %                                                                                                                                                                       @ @ @ @ @ $ @ @ @ @ @ @ @ @ @ @ @ @ @ @ @ @ @ @ @ @ @ @ @ @ @ @ @ @ @ @ @ @ @ @                                                                                                     O O O O O O O O O O O O O O O o o o o o o o o o o o o o o o o o o o o o o o o o o     ",
"    2 2 2 2 2 2 2 1 2 2 1 2 2 2 2 2 2 2 1 1 1 1 1 1 1 1 1 1 1 1 1 1 1 1 1 1 1 1 1 1 1                                                                                                     , , , , , , , , , , , , , , , , , , , , , , , , , , , , , , , , , , , , , , , ,                                                                                                                                                                         & & & & & & & & & & & & & & & & & & & & & & & & & & & & & & & & & & & & &         & & & & & & & & & % & & % & % % & & % % & & % & & % & % % % % % % % % % %                                                                                                                                                                         @ # # @ # @ @ @ @ @ @ @ @ @ @ @ @ @ @ @ @ @ @ @ @ @ @ @ @ @ @ @ @ @ @ @ @ @ @ @                                                                                                     O O O O O O O O O O O O O O o o o o o o O o O o o O o o o o o o o o o o o o o o o     ",
"    2 2 2 2 2 2 1 1 2 2 2 2 2 2 2 2 2 1 1 1 1 1 1 1 1 1 1 1 1 1 1 1 1 1 1 1 1 1 1 1 1                                                                                                     , , , , , , , , , , , , , , , , , , , , , , , , , , , , , , , , , , , , , , , ,                                                                                                                                                                           & & & & & & & & & & & & & & & & & & & & & & & & & & & & & & & & & & & &         & & & & & & & & % % % % % % % % % & % & & & & & % % % % % % % % % % % %                                                                                                                                                                           @ # # # @ @ @ @ @ @ @ @ @ @ @ @ @ @ @ @ @ @ @ @ @ @ @ @ @ @ @ @ @ @ @ @ @ @ @ @                                                                                                     O O O O O O O O O O O O O O o o o o o o o O O O O O o o o o o o o o o o o o o o o     ",
"    2 2 2 2 2 2 2 2 2 2 2 2 2 2 2 2 1 1 1 1 1 1 1 1 1 1 1 1 1 1 1 1 1 1 1 1 1 1 1 1 1                                                                                                     , , , , , , , , , , , , , , , , , , , , , , , , , , , , , , , , , , , , , , , ,                                                                                                                                                                             & & & & & & & & & & & & & & & & & & & & & & & & & & & & & & & & & & &         & & & & & & & % % % % % % % % % & % % % % & % % % % % % % % % % % % %                                                                                                                                                                             @ # # @ @ @ @ @ @ @ @ @ @ @ @ @ @ @ @ @ @ @ @ @ @ @ @ @ @ @ @ @ @ @ @ @ @ @ @ @                                                                                                     O O O O O O O O O O O O o o o o o o o o o O O O O o o O O o o o o o o o o o o o o     ",
"    2 2 2 2 2 2 2 2 2 2 2 2 2 2 2 1 1 1 1 1 1 1 1 1 1 1 1 1 1 1 1 1 1 1 1 1 1 1 1 1 1                                                                                                     , , , , , , , , , , , , , , , , , , , , , , , , , , , , , , , , , , , , , , > ,                                                                                                                                                                               & & & & & & & & & & & & & & & & & & & & & & & & & & & & & & & & & &         & & & & & & % % % % % % % % % % % % % % % & % % % % % % % % % % % %                                                                                                                                                                               @ # @ @ @ @ @ @ @ @ @ @ @ @ @ @ @ @ @ @ @ @ @ @ @ @ @ @ @ @ @ @ @ @ @ @ @ @ @ @                                                                                                     O O O O O O O O O O O o o o o o o o o o o o o o o o o O O o o o o o o o o o o o o     ",
"    2 2 2 2 1 1 2 2 2 2 2 2 2 2 1 1 1 1 1 1 1 1 1 1 1 1 1 1 1 1 1 1 1 1 1 1 1 1 1 1 1                                                                                                     , , , , , , , , , , , , , , , , , , , , , , , , , , , , , , , , , , , , , , , ,                                                                                                                                                                                 & & & & & & & & & & & & & & & & & & & & & & & & & & & & & & & & &         & & & & & & % % % % % % & & % % % & % % % % % % % % % % % % % % %                                                                                                                                                                                 @ @ @ @ @ @ @ @ @ @ @ @ @ @ @ @ @ @ @ @ @ @ @ @ @ @ @ @ @ @ @ @ @ @ @ @ + @ @ @                                                                                                     O O O O O O O O O O o o o o O o O o o o o o o o o o o o o o o o o o o o o o o o o     ",
"    2 2 2 2 1 1 2 2 2 2 2 2 2 1 1 1 1 1 1 1 1 1 1 1 1 1 1 1 1 1 1 1 1 1 1 1 1 1 1 1 1                                                                                                     , , , , , , , , , , , , , , , , , , , , , , , , , , , , , , , , , , , , , , , ,                                                                                                                                                                                   & & & & & & & & & & & & & & & & & & & & & & & & & & & & & & & &         & & & & & % % % % % % % & % % % % % % % % % % % % % % % % % % %                                                                                                                                                                                   @ @ @ @ @ @ @ @ @ @ @ @ @ @ @ @ @ @ @ @ @ @ @ @ @ @ @ @ @ @ @ @ @ @ @ + + @ @ @                                                                                                     O O O O O O O O O o o o o o O O O o o o o o o o o o o o o o o o o o o o o o o o o     ",
"    2 2 2 2 2 2 2 2 2 2 2 2 1 1 1 1 1 1 1 1 1 1 1 1 1 1 1 1 1 1 1 1 1 1 1 1 1 1 1 1 1                                                                                                     , , , , , , , , , , , , , , , , , , , , , , , , , , , , , , , , , , , , , , , ,                                                                                                                                                                                     & & & & & & & & & & & & & & & & & & & & & & & & & & & & & & &         & & & % % % & & % % & % & % % % % % % % % % % % % % % % % % %                                                                                                                                                                                     @ @ @ @ @ @ @ @ @ @ @ @ @ @ @ @ @ @ @ @ @ @ @ @ @ @ @ @ @ @ @ @ @ @ + @ @ @ @ @                                                                                                     O O O O O O O O o o o o o o o o o o o o o o o o o o o o o o o o o o o o o o o o o     ",
"    2 2 2 2 2 2 2 2 2 2 2 1 1 1 1 1 1 1 1 1 1 1 1 1 1 1 1 1 1 1 1 1 1 1 1 1 1 1 1 1 1                                                                                                     , , , , , , , , , , , , , , , , , , , , , , , , , , , , , , , , , , > , , , , >                                                                                                                                                                                       & & & & & & & & & & & & & & & & & & & & & & & & & & & & & &         & & % % % % & & % % % % % & % % % % % % % % % % % % % % % %                                                                                                                                                                                       @ @ @ @ @ @ @ @ @ @ @ @ @ @ @ @ @ @ @ @ @ @ @ @ @ @ @ @ @ @ @ @ @ @ @ @ @ @ @ @                                                                                                     O O O O O O O o o o o O O o o o o o O o o o o o o o o o o o o o o o o o o o o o o     ",
"    2 2 2 2 1 1 2 2 2 2 1 1 1 1 1 1 1 1 1 1 1 1 1 1 1 1 1 1 1 1 1 1 1 1 1 1 1 1 1 1 1                                                                                                     , , , , , , , , , , , , , , , , , , , , , , , , , , , , , , , , , > > , , > > >                                                                                                                                                                                         & & & & & & & & & & & & & & & & & & & & & & & & & & & & &         & % % % % % & & % % % % % % % % % % % % % % % % % % % % %                                                                                                                                                                                         @ @ @ @ @ @ @ @ @ @ @ @ @ @ @ @ @ @ @ @ @ @ @ @ @ @ @ @ @ @ @ @ @ @ @ @ @ @ @ @                                                                                                     O O O O O O o o o o o O O o o o o o O o o o o o o o o o o o o o o o o o o o o o o     ",
"    2 2 2 2 2 2 2 2 2 1 1 1 1 1 1 1 1 1 1 1 1 1 1 1 1 1 1 1 1 1 1 1 1 1 1 1 1 1 1 1 1                                                                                                     , , , , , , , , , , , , , , , , , , , , , , , , , , , , , , , , > > > > > > > >                                                                                                                                                                                           & & & & & & & & & & & & & & & & & & & & & & & & & & & &         & % % % % % % % % % % % % % & % % % % % % % % % % % % %                                                                                                                                                                                           @ @ @ @ @ @ @ @ @ @ @ @ @ @ @ @ @ @ @ @ @ @ @ @ @ @ @ @ @ @ @ @ @ @ @ @ @ @ @ @                                                                                                     O O O O O o o o o o o O O o o o o o O o o o o o o o o o o o o o o o o o o o o o o     ",
"    2 2 2 2 2 2 2 2 1 1 1 1 1 1 1 1 1 1 1 1 1 1 1 1 1 1 1 1 1 1 1 1 1 1 1 1 1 1 1 1 <                                                                                                     , , , , , , , , , , , , , , , , , , , , , , , , , , , , , , , > > > , > > > > ,                                                                                                                                                                                             & & & & & & & & & & & & & & & & & & & & & & & & & & &         & % % & & & % % % % % % % % & & & % % % % % % % % % %                                                                                                                                                                                             @ @ @ @ @ @ @ @ @ @ @ @ @ @ @ @ @ @ @ @ @ @ @ @ @ @ @ @ @ @ @ @ @ @ @ @ @ @ @ @                                                                                                     O O O O o o o o o o o o o o o o o o o O O o o o o o o o o o o o o o o o o o o o o     ",
"    2 2 2 2 2 2 2 1 1 1 1 1 1 1 1 1 1 1 1 1 1 1 1 1 1 1 1 1 1 1 1 1 1 1 1 1 1 1 1 < <                                                                                                     , , , , , , , , , , , , , , , , , , , , , , , , , , , , , , > > > , , > > > > ,                                                                                                                                                                                               & & & & & & & & & & & & & & & & & & & & & & & & & &         & % & & & & % % % % % % % % & & % % % % % % % % % %                                                                                                                                                                                               @ @ @ @ @ @ @ @ @ @ @ @ @ @ @ @ @ @ @ @ @ @ @ @ @ @ @ @ @ @ @ @ @ @ @ @ @ @ @ +                                                                                                     O O O o o o o o o o o o o o o o o o o O O o o o o o o o o o o o o o o o o o o o o     ",
"    2 2 1 1 2 2 1 1 1 1 2 1 1 1 1 1 1 1 1 1 1 1 1 1 1 1 1 1 1 1 1 1 1 1 1 1 1 1 < < <                                                                                                     , , , , , , , , , , , , , , , , , , , , , , , , , , , , , > > > > , , , , , , ,                                                                                                                                                                                                 & & & & & & & & & & & & & & & & & & & & & & & & &         & % % % & & % % & & % % % % % % % % % % % % % % %                                                                                                                                                                                                 @ @ @ @ @ @ @ @ @ @ @ @ @ @ @ @ @ @ @ @ @ @ @ @ @ @ @ @ @ @ @ + + @ + @ @ @ + +                                                                                                     O O O o o o o O O o O o o O o o o o o o o o o o o o o o o o o o o o o o o o o o o     ",
"    2 1 1 1 1 1 1 1 1 1 1 1 1 1 1 1 1 1 1 1 1 1 1 1 1 1 1 1 1 1 1 1 1 1 1 1 1 < < < <                                                                                                     , , , , , , , , , , , , , , , , , , , , , , , , , , , , > , , , > , , , , , , ,                                                                                                                                                                                                   & & & & & & & & & & & & & & & & & & & & & & & &         & % % % % & & & & & % % % % % % % % % % % % % %                                                                                                                                                                                                   @ @ @ @ @ @ @ @ @ @ @ @ @ @ @ @ @ @ @ @ @ @ @ @ @ @ @ @ @ @ @ + + + + @ @ @ + +                                                                                                     O o O o o o o O O o o o o O o o o o o o o o o o o o o o o o o o o o o o o o o o o     ",
"    2 2 2 2 1 1 1 1 1 1 1 1 1 1 1 1 1 1 1 1 1 1 1 1 1 1 1 1 1 1 1 1 1 1 1 1 < < < < <                                                                                                     , , , , , , , , , , , , , , , , , , , , , , , , , , , > > > , , , , , > > > > ,                                                                                                                                                                                                     & & & & & & & & & & & & & & & & & & & & & & &         & % % % % % % % % % % % % % % % % % % % % % %                                                                                                                                                                                                     @ @ @ @ @ @ @ @ @ @ @ @ @ @ @ @ @ @ @ @ @ @ @ @ @ @ @ + + + + @ @ @ @ @ + + + @                                                                                                     O o o o o o o o o o o o o o o o o o o o o o o o o o o o o o o o o o o o o o o o o     ",
"    2 2 2 1 1 1 1 1 1 1 1 1 1 1 1 1 1 1 1 1 1 1 1 1 1 1 1 1 1 1 1 1 1 1 1 < < < < < <                                                                                                     , , , , , , , , , , , , , , , , , , , , , , , , , , > > > , , , , , , > > > > ,                                                                                                                                                                                                       & & & & & & & & & & & & & & & & & & & & % &         & % % % % % & % % % % % % % % % % % % % % %                                                                                                                                                                                                       @ @ @ @ @ @ @ @ @ @ @ @ @ @ @ @ @ @ @ @ @ @ @ @ @ @ @ + + + + @ @ @ @ @ @ + + +                                                                                                     O o o o o o o o o o o o o o o o o o o o o o o o o o o o o o o o o o o o o o o o o     ",
"    2 2 1 1 1 1 1 1 1 1 1 1 1 1 1 1 1 1 1 1 1 1 1 1 1 1 1 1 1 1 1 1 1 1 < < < < < < <                                                                                                     , , , , , , , , , , , , , , , , , , , , , , , , , > > > > , , , , > > > > > > ,                                                                                                                                                                                                         & & & & & & & & & & & & & & & & & & % % &         & % % % & & & & & % % % % % % % % % % % %                                                                                                                                                                                                         @ @ @ @ @ @ @ @ @ @ @ @ @ @ @ @ @ @ @ @ @ @ @ @ @ @ @ @ + @ @ @ @ @ @ @ @ + + +                                                                                                     O o o O O o o o o O O O O o o o o o o o o o o o o o o o o o o o o o o o o o o o o     ",
"    2 1 1 1 1 1 1 1 1 1 1 1 1 1 1 1 1 1 1 1 1 1 1 1 1 1 1 1 1 1 1 1 1 < < < < < < < <                                                                                                     , , , , , , , , , , , , , , , , , , , , , , , , > > > , > , , , > > > , > > > >                                                                                                                                                                                                           & & & & & & & & & & & & & & & & % % % &         & % % % % & & & & % % % % % % % % % % %                                                                                                                                                                                                           @ @ @ @ @ @ @ @ @ @ @ @ @ @ @ @ @ @ @ @ @ @ @ @ @ @ @ @ @ @ @ @ @ @ @ @ @ + + +                                                                                                     O o o O O o o o o O O O O o o o o o o o o o o o o o o o o o o o o o o o o o o o o     ",
"    1 1 1 1 1 1 1 1 1 1 1 1 1 1 1 1 1 1 1 1 1 1 1 1 1 1 1 1 1 1 1 1 < < < < < < < < <                                                                                                     , , , , , , , , , , , , , , , , , , , , , , , > > > > , , > > , , > > , , > > >                                                                                                                                                                                                             & & & & & & & & & & & & & & % % % % &         & % % % % & % % % % % % % % % % % % %                                                                                                                                                                                                             @ @ @ @ @ @ @ @ @ @ @ @ @ @ @ @ @ @ @ @ @ @ @ @ @ @ @ @ @ @ @ @ @ @ @ + + + + +                                                                                                     O o o o o o o o o o o o o o o o o o o o o o o o o o o o o o o o o o o o o o o o o     ",
"    1 1 1 1 1 1 1 1 1 1 1 1 1 1 1 1 1 1 1 1 1 1 1 1 1 1 1 1 1 1 1 < < < < < < < < < <                                                                                                     , , , , , , , , , , , , , , , , , , , , , , > > > > > > > , , , , > > , , > > >                                                                                                                                                                                                               & & & & & & & & & & & & % % % % & &         & % % % % % % % % % % % % % % % % %                                                                                                                                                                                                               @ @ @ @ @ @ @ @ @ @ @ @ @ @ @ @ @ @ @ @ @ @ @ @ @ @ @ @ @ @ @ @ @ @ @ + + + + +                                                                                                     O o o o o o o o o o o o o o o o o o o o o o o o o o o o o o o o o o o o o o o o o     ",
"    1 1 1 1 1 1 1 1 1 1 1 1 1 1 1 1 1 1 1 1 1 1 1 1 1 1 1 1 1 1 < < < < < < < < < < <                                                                                                     , , , , , , , , , , , , , , , , , , , , , , , > > > > > > > , , > > > , > > > >                                                                                                                                                                                                                 & & & & & & & & & & & % % % % & &         & % % % % % % % % % % % % % % % %                                                                                                                                                                                                                 @ @ @ @ @ @ @ @ @ @ @ @ @ @ @ @ @ @ @ @ @ @ @ + + @ @ @ @ + + + @ @ + + + + + +                                                                                                     o o o o o O O o o o o o o o o o o o o o o o o o o o o o o o o o o o o o o o o o o     ",
"    1 1 1 1 1 1 1 1 1 1 1 1 1 1 1 1 1 1 1 1 1 1 1 1 1 1 1 1 1 < < < < < < < < < < < < <                                                                                                   , , , , , , , , , , , , , , , , , , , , , , , > > , , > > > > , > > > > > > > >                                                                                                                                                                                                                   & & & & & & & & & & % % % % & &         & % % % % % % % % % % % % % % %                                                                                                                                                                                                                   @ @ @ @ @ @ @ @ @ @ @ @ @ @ @ @ @ @ @ @ @ + + + + + + @ @ + + + @ + + + + + + +                                                                                                   o o o o o o O O o o o o o o o o o o o o o o o o o o o o o o o o o o o o o o o o o o     ",
"    1 1 1 1 1 1 1 1 1 1 1 1 1 1 1 1 1 1 1 1 1 1 1 1 1 1 1 1 < < < < < < < < < < < < < < <                                                                                                 , , , , , , , , , , , , , , , , , , , > > > > > > , , > > > > , , , > > > > > >                                                                                                                                                                                                                   & & & & & & & % % % % % % % % &         & % % % % % % % % % % % % % % %                                                                                                                                                                                                                   @ @ @ @ @ @ @ @ @ @ @ @ @ @ @ @ @ @ @ @ @ @ @ @ @ @ @ + @ @ @ @ + + + + + + + +                                                                                                 o o o o o o o o o o o o o o o o o o o o o o o o o o o o o o o o o o o o o o o o o o o     ",
"    1 1 1 1 1 1 1 1 1 1 1 1 1 1 1 1 1 1 1 1 1 1 1 1 1 1 1 < < < < < < < < < < < < < < < < <                                                                                               , , , , , , , , , , , , , , , , , , > > > > > > > , , > > > > , , > > > > > > >                                                                                                                                                                                                                     & & & & & % % % % % % % % % &         & % % % % % % % % % % % % % %                                                                                                                                                                                                                     @ @ @ @ @ @ @ @ @ @ @ @ @ @ @ @ @ @ @ + @ @ + @ @ @ @ + + @ @ + + + + + + + + +                                                                                               o o o o o o o o o o o o o o o o o o o o o o o o o o o o o o o o o o o o o o o o o o o o     ",
"    1 1 1 1 1 1 1 1 1 1 1 1 1 1 1 1 1 1 1 1 1 1 1 1 1 1 < < < < < < < < < < < < < < < < < < <                                                                                             , , , , , , , , , , , , , , , , , > > , , , , > , , , > , > > , > > > > > > > >                                                                                                                                                                                                                       & & & % % % % % % % % % % &         & % % % % % % % % % % % % %                                                                                                                                                                                                                       @ @ @ @ @ @ @ @ @ @ @ @ @ @ @ @ @ @ @ + + + + + + @ @ @ + @ + + + + + + + + + +                                                                                             O o o O O o o o o O O o o o o o o o o o o o o o o o o o o o o o o o o o o o o o o o o o o     ",
"    1 1 1 1 1 1 1 1 1 1 1 1 1 1 1 1 1 1 1 1 1 1 1 1 1 < < < < < < < < < < < < < < < < < < < < <                                                                                           , , , , , , , , , , , , , , , , > > > , , , , > , , , > , , , > > > > > > > > >                                                                                                                                                                                                                         & % % % % % % & % % % % &         & % % % % % % % % % % % %                                                                                                                                                                                                                         @ @ @ @ @ @ @ @ @ @ @ @ @ @ @ @ @ @ @ @ + + + + + @ @ + + + + + + + + + + + + +                                                                                           o o o o O O o o o o O O o o o o o o o o o o o o o o o o o o o o o o o o o o o o o o o o o o     ",
"    1 1 1 1 1 1 1 1 1 1 1 1 1 1 1 1 1 1 1 1 1 1 1 1 < < < < < < < < < < < < < < < < < < < < < < <                                                                                         , , , , , , , , , , , , , , , > > > , > > , , , , , , > , , > > > > > > > > > >                                                                                                                                                                                                                           % % & & & & & & & % % &         & % % % % % % % % % % %                                                                                                                                                                                                                           @ @ @ @ @ @ @ @ @ @ @ @ @ @ @ @ + + @ @ @ @ @ @ @ @ @ @ + + + + + + + + + + + +                                                                                         o o o o O O O o o o o o o o o o o o o o o o o o o o o o o o o o o o o o o o o o o o o o o o o     ",
"    1 1 1 1 1 1 1 1 1 1 1 1 1 1 1 1 1 1 1 1 1 1 1 < < < < < < < < < < < < < < < < < < < < < < < < <                                                                                       , , , , , , , , , , , , , , > > > , , > > , , , , , , > , > > > > > > > > > > >                                                                                                                                                                                                                             % % & & % & & % % % &         % % % % % % % % % % %                                                                                                                                                                                                                             @ @ @ @ @ @ @ @ @ @ @ @ @ @ @ @ + + @ @ @ @ @ @ @ @ @ + + + + + + + + + + + + +                                                                                       o o o o o o O O o o o o o o o o o o o o o o o o o o o o o o o o o o o o o o o o o o o o o o o o     ",
"    1 1 1 1 1 1 1 1 1 1 1 1 1 1 1 1 1 1 1 1 1 1 < < < < < < < < < < < < < < < < < < < < < < < < < < <                                                                                     , , , , , , , , , , , , , > > > > , , > > > > , , > > > > > > > > > > > > > > >                                                                                                                                                                                                                               % & % % % % % % % &         % % % % % % % % % %                                                                                                                                                                                                                               @ @ @ @ @ @ @ @ @ @ @ @ @ @ @ + + @ @ @ @ @ @ @ @ @ + + + + + + + + + + + + + +                                                                                     o o o o o o o o o o o o o o o o o o o o o o o o o o o o o o o o o o o o o o o o o o o o o o o o o     ",
"    1 1 1 1 1 1 1 1 1 1 1 1 1 1 1 1 1 1 1 1 1 < < < < < < < < < < < < < < < < < < < < < < < < < < < < <                                                                                   , , , , , , , , , , , , > , , , > , , > > > > > > > > > > > > > > > > > > > > >                                                                                                                                                                                                                                 % % % % % % % % &         % % % % % % % % %                                                                                                                                                                                                                                 @ @ @ @ @ @ @ @ @ @ @ @ @ @ @ @ @ @ + + @ @ @ @ @ + + + + + + + + + + + + + + +                                                                                   o o o o o o o o o o o o o o o o o o o o o o o o o o o o o o o o o o o o o o o o o o o o X X X X o .     ",
"    1 1 1 1 1 1 1 1 1 1 1 1 1 1 1 1 1 1 1 1 < < < < < < < < < < < < < < < < < < < < < < < < < < < < < < ,                                                                                 , , , , , , , , , , , , , , , , , > > > > > > > > > > > > > > > > > > > > > > >                                                                                                                                                                                                                                   % % % % % % % &         % % % % % % % %                                                                                                                                                                                                                                   @ @ @ @ @ @ @ @ @ @ @ @ @ @ @ @ @ @ @ + @ @ @ @ + + + + + + + + + + + + + + + +                                                                                 o o o o o o o o o o o o o o o o o o o o o o o o o o o o o o o o o o o o o o o o o o o o o o o o o o .     ",
"    1 1 1 1 1 1 1 1 1 1 1 1 1 1 1 1 1 1 1 < < < < < < < < < < < < < < < < < < < < < < < < < < < < < < < < <                                                                               , , , , , , , , , , > > > , , , , > > > > , , > > > > > > > > > > > > > > > > >                                                                                                                                                                                                                                     % % % % % % &         % % % % % % %                                                                                                                                                                                                                                     @ @ @ @ @ @ @ @ @ @ @ + @ @ + @ @ @ @ + + @ @ + + + + + + + + + + + + + + + + +                                                                               o o o o o o o o o o o o o o o o o o o o o o o o o o o o o o o o o o o o o o o o o o o o o o o o o o X .     ",
"    1 1 1 1 1 1 1 1 1 1 1 1 1 1 1 1 1 1 < < < < < < < < < < < < < < < < < < < < < < < < < < < < < < < < < < ,                                                                             , , , , , , , , , > > > > > > , > > > , , , , , > > > > > > > > > > > > > > > >                                                                                                                                                                                                                                       % % % % % %         % % % % % %                                                                                                                                                                                                                                       @ @ @ @ @ @ @ @ @ @ @ + + + + + + @ @ @ + @ + + + + + + + + + + + + + + + + + +                                                                             o o o O O o o o o o o o o o o o o o o o o o o o o o o o o o o o o o o o o o o o o o o o X o o o o . . . .     ",
"    < 1 1 1 1 1 1 1 1 1 1 1 1 1 1 1 1 < < < < < < < < < < < < < < < < < < < < < < < < < < < < < < < < < < < < <                                                                           , , , , , , , , > > > > > > > , > > > , , , , > > > > > > > > > > > > > > > > >                                                                                                                                                                                                                                         % % % % %         % % % % %                                                                                                                                                                                                                                         @ @ @ @ @ @ @ @ @ @ @ @ + + + + + @ @ + + + + + + + + + + + + + + + + + + + + +                                                                           o o o o O O o o o o o o o o o o o o o o o o o o o o o o o o o o o o o o o o o o o o o o X X X X o . . . . .     ",
"    < 1 1 1 1 1 1 1 1 1 1 1 1 1 1 1 < < < < < < < < < < < < < < < < < < < < < < < < < < < < < < < < < < < < < < <                                                                         , , , , , , , > > > , , , > > > > > > , , , > > > > > > > > > > > > > > > > > >                                                                                                                                                                                                                                           % % % %         % % % %                                                                                                                                                                                                                                           @ @ @ @ @ @ @ @ @ @ @ @ @ @ @ @ @ @ @ @ + + + + + + + + + + + + + + + + + + + +                                                                         o o o o O O O o o O O o o o o o o o o o o o o o o o o o o o o o o o o o o o o o o o o o o X X X X . . . . o .     ",
"    < 1 1 1 1 1 1 1 1 1 1 1 1 1 1 < < < < < < < < < < < < < < < < < < < < < < < < < < < < < < < < < < < < < < < < ,                                                                       , , , , , , > > > , , , , > > > > > > , , > > > > > > > > > > > > > > > > > > >                                                                                                                                                                                                                                             % % %         % % %                                                                                                                                                                                                                                             @ @ @ @ @ @ @ @ @ + @ @ @ @ @ @ @ @ @ + + + + + + + + + + + + + + + + + + + + +                                                                       o o o o o o O O o o O O o o o o o o o o o o o o o o o o o o o o o o o o o o o o o o o o X o o X o . . o . . o .     ",
"      1 1 1 1 1 1 1 1 1 1 1 1 1 < < < < < < < < < < < < < < < < < < < < < < < < < < < < < < < < < < < < < < < < , , ,                                                                     , , , , , > > > > , , , , , > > , > > , > > > > > > > > > > > > > > > > > > > >                                                                                                                                                                                                                                               % %         % %                                                                                                                                                                                                                                               @ @ @ @ @ @ @ + + + + @ @ @ @ @ @ @ + + + + + + + + + + + + + + + + + + + + + +                                                                     O o o o o o o o o o o o o o o o o o o o o o o o o o o o o o o o o o o o o o o o o o o o X o o o o o o o o o o o       ",
"        1 1 1 1 1 1 1 1 1 1 1 < < < < < < < < < < < < < < < < < < < < < < < < < < < < < < < < < < < < < < < < , , , , ,                                                                   , , , , > , , , > , , , , , > > , , , > > > > > > > > > > > > > > > > > > > > >                                                                                                                                                                                                                                                                                                                                                                                                                                                                                                             @ @ @ @ @ @ @ @ @ + + + @ @ @ @ @ + + + + + + + + + + + + + + + + + + + + + + +                                                                   o o O O o o o o o o o o o o o o o o o o o o o o o o o o o o o o o o o o o o o o o o o o X X o o o o o o o o o o         ",
"          1 1 1 1 1 1 1 1 1 < < < < < < < < < < < < < < < < < < < < < < < < < < < < < < < < < < < < < < < < , , , , , , <                                                                 , , , > > > > > > > , , , , , , , , > > > > > > > > > > > > > > > > > > > > > >                                                                                                                                                                                                                                                                                                                                                                                                                                                                                                             @ @ @ @ @ @ @ + + @ @ @ @ + + + + + + + + + + + + + + + + + + + + + + + + + + +                                                                 O o o o o o o o o o o o o o o o o o o o o o o o o o o o o o o o o o o o o o o o o o o o X X X o o o o . . . . .           ",
"            1 1 1 1 1 1 1 < < < < < < < < < < < < < < < < < < < < < < < < < < < < < < < < < < < < < < < < , , , , , , , ,                                                                 , , , > , > > > > , > , , , , , , > > > > > > > > > > > > > > > > > > > > > > >                                                                                                                                                                                                                                                                                                                                                                                                                                                                                                             @ @ @ @ @ @ @ + + @ @ @ + + + + + + + + + + + + + + + + + + + + + + + + + + + +                                                                 o o o o o o o o o o o o o o o o o o o o o o o o o o o o o o o o o o o o o o o o o o o X X X X o . o o . . . .             ",
"              1 1 1 1 1 < < < < < < < < < < < < < < < < < < < < < < < < < < < < < < < < < < < , < < < < , , , , , , , , , ,                                                               , , , , , > > > > > > > > , > , > > > > > > > > > > > > > > > > > > > > > > > >                                                                                                                                                                                                                                                                                                                                                                                                                                                                                                             @ + @ + + @ @ + + @ @ @ @ @ + + + + + + + + + + + + + + + + + + + + + + + + + +                                                               o o o o o o o o o o o o o o o o o o o o o o o o o o o o o o o o o o o o o o o o o o o X o o o o . . o o . o o               ",
"                1 1 1 < < < < < < < < < < < < < < < < < < < < < < < < < < < < < < < < < < < < < < < < , , , , , , , , , , , ,                                                             , , , , , > > > > > > > > > > > > > > > > > > > > > > > > > > > > > > > > > > >                                                                                                                                                                                                                                                                                                                                                                                                                                                                                                             @ + + + + @ @ + @ @ @ @ @ + + + + + + + + + + + + + + + + + + + + + + + + + + +                                                             O o o o o o o o o o o o o o o o o o o o o o o o o o o o o o o o o o o o o o o o o o o o o o o o o o o o o o o                 ",
"                  1 < < < < < < < < < < < < < < < < < < < < < < < < < < < < < < < < < < < < < < < < , , , , , , , , , , , , , ,                                                           > > > , , > > > > , , > > , > > > > > > > > > > > > > > > > > > > > > > > > > >                                                                                                                                                                                                                                                                                                                                                                                                                                                                                                             @ @ @ + + @ @ + + + @ @ + + + + + + + + + + + + + + + + + + + + + + + + + + + +                                                           o o o o o o o o O O o o o o o o o o o o o o o o o o o o o o o o o o o o o o o o o o o X X o o o o o . . . . o                   ",
"                    < < < < < < < < < < < < < < < < < < < < < < < < < < < < < < < < < < < < < < < , , , , , , , , , , , , , , , ,                                                         > > > , , > > > > , , > > > > > > > > > > > > > > > > > > > > > > > > > > > > >                                                                                                                                                                                                                                                                                                                                                                                                                                                                                                             @ @ @ @ @ @ @ + + @ @ + + + + + + + + + + + + + + + + + + + + + + + + + + + + O                                                         o o o o o o o o o O O o o o o o o o o o o o o o o o o o o o o o o o o o o o o o o o o X X X X o o o o . . o o                     ",
"                      < < < < < < < < < < < < < < < < < < < < < < < < < < < < < < < < < < < < < , , , , , , , , , , , , , , , , , ,                                                       > > > , , > > > , , , > > > > > > > > > > > > > > > > > > > > > > > > > > > > >                                                                                                                                                                                                                                                                                                                                                                                                                                                                                                             @ @ @ @ @ @ @ @ + @ + + + + + + + + + + + + + + + + + + + + + + + + + + + + O O                                                       o o o o O o o o o o o o o o o o o o o o o o o o o o o o o o o o o o o o o o o o o o o o o X X o o o . . . . o                       ",
"                        < < < < < < < < < < < < < < < < < < < < < < < < < < < < < < < < < < < , , , , , , , , , , , , , , , , , , , ,                                                     , > > , , > > > > , , > > > > > > > > > > > > > > > > > > > > > > > > > > > > ;                                                                                                                                                                                                                                                                                                                                                                                                                                                                                                             @ @ @ @ @ @ @ @ + + + + + + + + + + + + + + + + + + + + + + + + + + + + + O O O                                                     o o o o o O o o o o o o o o o o o o o o o o o o o o o o o o o o o o o o o o o o o o o o o o X X . o o . o . .                         ",
"                          < < < < < < < < < < < < < < < < < < < < < < < < < < < < < < < < < , , , , , , , , , , , , , , , , , , , , , ,                                                   , , , > > > > , , , > > > > > > > > > > > > > > > > > > > > > > > > > > > > > >                                                                                                                                                                                                                                                                                                                                                                                                                                                                                                             + @ @ @ @ @ @ @ + + + + + + + + + + + + + + + + + + + + + + + + + + + + O O O O                                                   O o o o o o o o O O o o o o o o o o o o o o o o o o o o o o o o o o o o o o o o o o o X o o o o . . . o o o o                           ",
"                            < < < < < < < < < < < < < < < < < < < < < < < < < < < < < < < , , , , , , , , , , , , , , , , , , , , , , , ,                                                 , , , > > > > , , > > > > > > > > > > > > > > > > > > > > > > > > > > > > > > >                                                                                                                                                                                                                                                                                                                                                                                                                                                                                                             + @ @ @ @ @ @ + + + + + + + + + + + + + + + + + + + + + + + + + + + + O O O O O                                                 o o o o o o o o o O O o o o o o o o o o o o o o o o o o o o o o o o o o o o o o o o o o X o o o o . . . o o X                             ",
"                              < < < < < < < < < < < < < < < < < < < < < < < < < < < < < , , , , , , , , , , , , , , , , , , , , , , , , , ,                                               , , , > , > > , > > > > > > > > > > > > > > > > > > > > > > > > > > > > > > > >                                                                                                                                                                                                                                                                                                                                                                                                                                                                                                             + @ @ @ @ @ + + + + + + + + + + + + + + + + + + + + + + + + + + + + O O O O O O                                               o o o o o o o o o o o o o o o o o o o o o o o o o o o o o o o o o o o o o o o o o o o o X X o o . o . o o o o                               ",
"                                < < < < < < < < < < < < < < < < < < < < < < < < < < < , , , , , , , , , , , , , , , , , , , , , , , , , , , ,                                             , , , > , , , > > > > > > > > > > > > > > > > > > > > > > > > > > > > ; ; > > >                                                                                                                                                                                                                                                                                                                                                                                                                                                                                                             + @ @ @ @ + + + + + + + + + + + + + + + + + + + + + + + + + + + + O O O O O O O                                             o o o o o o o o o o o o o o o o o o o o o o o o o o o o o o o o o o o o o o o o o o o o o X X o o . . . . o o                                 ",
"                                  < < < < < < < < < < < < < < < < < < < < < < < < < , , , , , , , , , , , , , , , , , , , , , , , , , , , , , ,                                           > > , > , , > > > > > > > > > > > > > > > > > > > > > > > > > > > > ; ; ; ; ; >                                                                                                                                                                                                                                                                                                                                                                                                                                                                                                             @ @ @ @ + + + + + + + + + + + + + + + + + + + + + + + + + + + + O O O O O O O O                                           O O O o o O o O o o o o o o o o o o o o o o o o o o o o o o o o o o o o o o o o o o o o o o X X X . . . o o o                                   ",
"                                    < < < < < < < < < < < < < < < < < < < < < < < , , , , , , , , , , , , , , , , , , , , , , , , , , , , , , , ,                                         > > , > , > > > > > > > > > > > > > > > > > > > > > > > > > > > > ; ; ; ; > > >                                                                                                                                                                                                                                                                                                                                                                                                                                                                                                             @ @ @ + + + + + + + + + + + + + + + + + + + + + + + + + + + + O O O O O O O O O                                         O o O O o o O o o o o o o o o o o o o o o o o o o o o o o o o o o o o o o o o o o o o o o o o X . . . . . o o                                     ",
"                                      < < < < < < < < < < < < < < < < < < < < < , , , , , , , , , , , , , , , , , , , , , , , , , , , , , , , , , ,                                       > , , > > > > > > > > > > > > > > > > > > > > > > > > > > > > > ; > > > > > > >                                                                                                                                                                                                                                                                                                                                                                                                                                                                                                             @ @ + + + + + + + + + + + + + + + + + + + + + + + + + + + + O O O O O O O O O O                                       o o o o o o o o o o o o o o o o o o o o o o o o o o o o o o o o o o o o o o o o o o o o o o o o o o o o . . .                                       ",
"                                        < < < < < < < < < < < < < < < < < < < , , , , , , , , , , , , , , , , , , , , , , , , , , , , , , , , , , , ,                                     > , , > > > > > > > > > > > > > > > > > > > > > > > > > > > > ; > > > > > > > >                                                                                                                                                                                                                                                                                                                                                                                                                                                                                                             @ + + + + + + + + + + + + + + + + + + + + + + + + + + + + O O O O O O O O O O O                                     o o o o o o o o o o o o o o o o o o o o o o o o o o o o o o o o o o o o o o o o o o o X X X X o o o o o X X .                                         ",
"                                          < < < < < < < < < < < < < < < < < , , , , , , , , , , , , , , , , , , , , , , , , , , , , , , , , , , , , , ,                                   , , > > > > > > > > > > > > > > > > > > > > > > > > > > > > > > ; > > > > ; > :                                                                                                                                                                                                                                                                                                                                                                                                                                                                                                             + + + + + + + + + + + + + + + + + + + + + + + + + + + + O O O O O O O O O O O O                                   o o o o o o O o o o o o o o o o o o o o o o o o o o o o o o o o o o o o o o o o o o o X X X o o o o . . o o o                                           ",
"                                            < < < < < < < < < < < < < < < , , , , , , , , , , , , , , , , , , , , , , , , , , , , , , , , , , , , , , , ,                                 , > > > > > > > > > > > > > > > > > > > > > > > > > > > > > > ; ; ; ; > > ; - :                                                                                                                                                                                                                                                                                                                                                                                                                                                                                                             + + + + + + + + + + + + + + + + + + + + + + + + + + + O O O O O O O O O O O O O                                 O o o o o o o O O o o o o o o o o o o o o o o o o o o o o o o o o o o o o o o o o o o X X X X o o o o . . o o                                             ",
"                                              < < < < < < < < < < < < < , , , , , , , , , , , , , , , , , , , , , , , , , , , , , , , , , , , , , , , , , ,                               > > > > > > > > > > > > > > > > > > > > > > > > > > > > > > ; ; > > > ; ; - - >                                                                                                                                                                                                                                                                                                                                                                                                                                                                                                             + + + + + + + + + + + + + + + + + + + + + + + + + + O O O O O O O O O O O O O O                               o o o o O O o o o O o o o o o o o o o o o o o o o o o o o o o o o o o o o o o o o o o X o o X o o o . . . . o                                               ",
"                                                < < < < < < < < < < < , , , , , , , , , , , , , , , , , , , , , , , , , , , , , , , , , , , , , , , , , , , ,                             > > > > > > > > > > > > > > > > > > > > > > > > > > > > > > ; ; > > > ; - - - >                                                                                                                                                                                                                                                                                                                                                                                                                                                                                                             + + + + + + + + + + + + + + + + + + + + + + + + + O O O O O O O O O O O O O O O                             o o o o o O O o o o o o o o o o o o o o o o o o o o o o o o o o o o o o o o o o o o o o o o o X . o o . . . .                                                 ",
"                                                  < < < < < < < < < , , , , , , , , , , , , , , , , , , , , , , , , , , , , , , , , , , , , , , , , , , > > > >                           > > > > > > > > > > > > > > > > > > > > > > > > > > ; ; ; ; ; > > ; ; > > > > >                                                                                                                                                                                                                                                                                                                                                                                                                                                                                                             + + + + + + + + + + + + + + + + + + + + + + + + O O O O O O O O O O O O O O O O                           o o o o o o o o o o o o o o o o o o o o o o o o o o o o o o o o o o o o o o o o o o o X X o o o o o o o . o o                                                   ",
"                                                    < < < < < < < , , , , , , , , , , , , , , , , , , , , , , , , , , , , , , , , , , , , , , , , , , > > > > > ,                         > > > > > > > > > > > > > > > > > > > > > > > > > ; ; ; ; ; ; > ; ; - > > > > >                                                                                                                                                                                                                                                                                                                                                                                                                                                                                                             + + + + + + + + + + + + + + + + + + + + + + + O O O O O O O O O O O O O O O O O                         o o o o o o o o o o o o o o o o o o o o o o o o o o o o o o o o o o o o o o o o o o o X X X X o o o o o o o .                                                     ",
"                                                      < < < < < , , , , , , , , , , , , , , , , , , , , , , , , , , , , , , , , , , , , , , , , , , > > > > > , , ,                       > > > > > > > > > > > > > > > > > > > > > > > > > ; ; > ; > > > > : - : : > > *                                                                                                                                                                                                                                                                                                                                                                                                                                                                                                             + + + + + + + + + + + + + + + + + + + + + + O O O O O O O O O O O O O O O O O O                       o o o o o o o o o o o o o o o o o o o o o o o o o o o o o o o o o o o o o o o o o o o o o X X o o o . . o o o                                                       ",
"                                                        < < < , , , , , , , , , , , , , , , , , , , , , , , , , , , , , , , , , , , , , , , , , , > > > > > > , , , >                     > > > > > > > > > > > > > > > > > > > > > > > > > > ; > > > > > : > > - - > > :                                                                                                                                                                                                                                                                                                                                                                                                                                                                                                             + + + + + + + + + + + + + + + + + + + + + O O O O O O O O O O O O O O O O O O O                     o o o o o o o o o o o o o o o o o o o o o o o o o o o o o o o o o o o o o o o o o o o o o o X X . o o . . o X                                                         ",
"                                                          < , , , , , , , , , , , , , , , , , , , , , , , , , , , , , , , , , , , , , , , , , , > > > , , , , , > > , ,                   > > > > > > > > > > > > > > > > > > > > > > > > > ; ; ; > > > > > > > - & & & >                                                                                                                                                                                                                                                                                                                                                                                                                                                                                                             + + + + + + + + + + + + + + + + + + + + O O O O O O O O O O O O O O O O O O O O                   o o o o O o o o o o o o o o o o o o o o o o o o o o o o o o o o o o o o o o o o o o o X o o o o . . . o . . .                                                           ",
"                                                            , , , , , , , , , , , , , , , , , , , , , , , , , , , , , , , , , , , , , , , , , > > > , , , , , , > > , , ,                 > > > > > > > > > > > > > > > > > > > > > > > > > ; ; > > > > > > > > & & * * ;                                                                                                                                                                                                                                                                                                                                                                                                                                                                                                             + + + + + + + + + + + + + + + + + + + O O O O O O O O O O O O O O O O O O O O O                 o o o o o O o o o o o o o o o o o o o o o o o o o o o o o o o o o o o o o o o o o o o X X o o o . . . o o . .                                                             ",
"                                                              , , , , , , , , , , , , , , , , , , , , , , , , , , , , , , , , , , , , , , , > > > > , , , , > > > > , , , >               > > > > > > > > > > > > > > > > > > > > > ; ; > ; > ; > > > > > > : * > > : ; ;                                                                                                                                                                                                                                                                                                                                                                                                                                                                                                             + + + + + + + + + + + + + + + + + + O O O O O O O O O O O O O O O O O O O O O O               o o o o O O o o o o o o o o o o o o o o o o o o o o o o o o o o o o o o o o o o o o o o X X X o . . o o o o X                                                               ",
"                                                                , , , , , , , , , , , , , , , , , , , , , , , , , , , , , , , , , , , , , > > > , > , , , > > > > > , , > > >             > > > > > > > > > > > > > > > > > > > > ; ; ; ; ; ; ; > > > > > : * & > > ; ; -                                                                                                                                                                                                                                                                                                                                                                                                                                                                                                             + + + + + + + + + + + + + + + + + O O O O O O O O O O O O O O O O O O O O O O o             o o o o o o o o o o o o o o o o o o o o o o o o o o o o o o o o o o o o o o o o o o o o o X X o o . . . o o .                                                                 ",
"                                                                  , , , , , , , , , , , , , , , , , , , , , , , , , , , , , , , , , , , > > > > , , > > , , > > > > > > > > > >           > > > > > > > > > > > > > > > > > > ; ; ; ; ; ; ; ; ; - - > > > > & & > > ; - -                                                                                                                                                                                                                                                                                                                                                                                                                                                                                                             + + + + + + + + + + + + + + + + O O O O O O O O O O O O O O O O O O O O O O o o           o o o o o o o o o o o o o o o o o o o o o o o o o o o o o o o o o o o o o o o o o o o o o o o X o X . . o o o                                                                   ",
"                                                                    , , , , , , , , , , , , , , , , , , , , , , , , , , , , , , , , , > > > > > > > , , , , > > > > > > > > > > >         > > > > > > > > > > > > > > > > > ; ; > > ; ; > ; ; - - - : : > > & & ; ; & & -                                                                                                                                                                                                                                                                                                                                                                                                                                                                                                             + + + + + + + + + + + + + + + O O O O O O O O O O O O O O O O O O O O O O o o o         o o o o o o o o o O O o o o o o o o o o o o o o o o o o o o o o o o o o o o o o o o o o o o o o . o o . . o X                                                                     ",
"                                                                      , , , , , , , , , , , , , , , , , , , , , , , , , , , , , , , , , > > > > > > > , , > > > , > > > > > > > > >       > > > > > > > > > > > > > > > > > ; ; > > > > > > - - - - - * > > > & ; - - & -                                                                                                                                                                                                                                                                                                                                                                                                                                                                                                             + + + + + + + + + + + + + + O O O O O O O O O O O O O O O O O O O O O O o o o o       o O o o o o o o o o O o o o o o o o o o o o o o o o o o o o o o o o o o o o o o o o o X o o o o o o . . . . o                                                                       ",
"                                                                        , , , , , , , , , , , , , , , , , , , , , , , , , , , , , , , , > > , , > > > > , > > > > > > > > > > > > >       > > > > > > > > > > > > > > > > > > ; > > > > > : - - - - & & > > ; ; - - - & -                                                                                                                                                                                                                                                                                                                                                                                                                                                                                                             + + + + + + + + + + + + + O O O O O O O O O O O O O O O O O O O O O O o o o o o     o o O o o o o o o o o o o o o o o o o o o o o o o o o o o o o o o o o o o o o o o o o X o X X o o o o X . . .                                                                         ",
"                                                                          , , , , , , , , , , , , , , , , , , , , , , , , , , , > > > > > > , , > > > > , , , > > > > > > > > > > > >     > > > > > > > > > > > > > > > > > > > ; ; ; ; : : > > > > > > > ; ; - - - - - -                                                                                                                                                                                                                                                                                                                                                                                                                                                                                                             + + + + + + + + + + + + O O O O O O O O O O O O O O O O O O O O O O o o o o o O     o o o o o o o O O o o o o o o o o o o o o o o o o o o o o o o o o o o o o o o o o o o X X o o o o . . o o o                                                                           ",
"                                                                            , , , , , , , , , , , , , , , , , , , , , , , , , > > > > > > > , , > > > > , , > > > > > > > > > > > > > > > > > > > > > > > > > > > > > > > > > > ; ; ; - : : > > > > > > ; ; - - - - - - -                                                                                                                                                                                                                                                                                                                                                                                                                                                                                                             + + + + + + + + + + + O O O O O O O O O O O O O O O O O O O O O O o o o o o o O o o o o o o o o o O O o o o o o o o o o o o o o o o o o o o o o o o o o o o o o o o o o o X X o o o o . . o X                                                                             ",
"                                                                              , , , , , , , , , , , , , , , , , , , , , , , > > , , , , > , , , > , > > , > > > > > > > > > > > > > > > > > > > > > > > > > > > > ; ; ; ; ; > > ; ; > > > > > > > > > ; ; - - - - - - - -                                                                                                                                                                                                                                                                                                                                                                                                                                                                                                             + + + + + + + + + + O O O O O O O O O O O O O O O O O O O O O O o o O o o o o o o o o o o o o o o o o o o o o o o o o o o o o o o o o o o o o o o o o o o o o o o o X o o X o o o . . . . X                                                                               ",
"                                                                                , , , , , , , , , , , , , , , , , , , , , > > > , , , , > , , , > , , , > > > > > > > > > > > > > > > > > > > > > > > > > > > > > ; ; ; ; ; ; ; > > > > > > > > * : ; ; - - - - - - - - -                                                                                                                                                                                                                                                                                                                                                                                                                                                                                                             + + + + + + + + + O O O O O O O O O O O O O O O O O O O O O O o o O O o o o o o o o o o o o o o o o o o o o o o o o o o o o o o o o o o o o o o o o o o o o o o o X X o o X . o o . . . .                                                                                 ",
"                                                                                  , , , , , , , , , , , , , , , , , , , > > > , > > , , , , , , > , , > > > > > > > > > > > > > > > > > > > > > > > > > > > > ; ; ; ; ; ; ; ; > > > > > > > > > * & & & - - - - - - - - &                                                                                                                                                                                                                                                                                                                                                                                                                                                                                                             + + + + + + + + O O O O O O O O O O O O O O O O O O O O O O o o o O O O o o o O O O O O o o o o o o o o o o o o o o o o o o o o o o o o o o o o o o o o o o o o o o o o o o o o o . o .                                                                                   ",
"                                                                                    , , , , , , , , , , , , , , , , , > > > , , > > , , , , , , > , > > > > > > > > > > > > > > > > > > > > > > > > > > > > > ; ; ; ; ; ; ; > : > : > > > > > > & & & & - > - - - - - & &                                                                                                                                                                                                                                                                                                                                                                                                                                                                                                             + + + + + + + O O O O O O O O O O O O O O O O O O O O O O o o o o O O o o o o O o O O o o o o o o o o o o o o o o o o o o o o o o o o o o o o o o o o o o o o o o o X o o o o o o o o                                                                                     ",
"                                                                                      , , , , , , , , , , , , , , , > > > > , , > > > > , , > > > > > > > > > > > > > > > > > > > > > > > > > > > > > > > > > > ; ; > > > > > > : : - & > : > > ; - & & > ; - - - - & & &                                                                                                                                                                                                                                                                                                                                                                                                                                                                                                             + + + + + + O O O O O O O O O O O O O O O O O O O O O O o o o o o o o o o o o o o o o o o o o o o o o o o o o o o o o o o o o o o o o o o o o o o o o o o o X o o X X . . o . o o o                                                                                       ",
"                                                                                        > , , , , , , , , , , , , > , , , > , , > > > > > > > > > > > > > > > > > > > > > > > > > > > > > > > > > > > > > > > > > ; > > > > > > : : & & & * > > ; - - - ; ; - - - & & & &                                                                                                                                                                                                                                                                                                                                                                                                                                                                                                             + + + + + O O O O O O O O O O O O O O O O O O O O O O o o o o o o o o o o o o o o o o o o o o o o o o o o o o o o o o o o o o o o o o o o o o o o o o o o X o o o X . . . . . . .                                                                                         ",
"                                                                                          , , , , , , , , , , , > > > , , , > > > > , , > > > > > > > > > > > > > > > > > > > > > > > > > > > > > > > > > > ; ; ; > > > > > > > > > > > > > > ; - & & - - - - - & & & & :                                                                                                                                                                                                                                                                                                                                                                                                                                                                                                             + + + + O O O O O O O O O O O O O O O O O O O O O O o o o O O o o o O O O o o o o O O o o o o o o o o o o o o o o o o o o o o o o o o o o o o o o o o o o o o o o o o . . . o o                                                                                           ",
"                                                                                            , , , , , , , , , > > > , , , , > > > > , , > > > > > > > > > > > > > > > > > > > > > > > > > > > > > > > > > > ; ; > > > > > > > > & : > : ; ; - ; - - & - - - - ; ; & & & &                                                                                                                                                                                                                                                                                                                                                                                                                                                                                                             + + + O O O O O O O O O O O O O O O O O O O O O O o o o o o O o o o o o O o o o o O O o o o o o o o o o o o o o o o o o o o o o o o o o o o o o o o o o o o o o o o o . . X o                                                                                             ",
"                                                                                              , , , , , , , > > > > > > , , , > > > , , > > > > > > > > > > > > > > > > > > > > > > > > > > > > > > ; ; > ; > ; > > > > > > : * & & * - & & - - - - ; ; - - & ; & : : : &                                                                                                                                                                                                                                                                                                                                                                                                                                                                                                             + + O O O O O O O O O O O O O O O O O O O O O O o o o o o o o o o o o o o o o o o o o o o o o o o o o o o o o o o o o o o o o o o o o o o o o o o o X o o o o . . . . . . X                                                                                               ",
"                                                                                                , , , , , > > > > > > > , , > > > > , , > > > > > > > > > > > > > > > > > > > > > > > > > > > > > ; ; ; ; ; ; ; > > > > > : * & & & & - - & & & - - - > - & & & : : : : &                                                                                                                                                                                                                                                                                                                                                                                                                                                                                                             + O O O O O O O O O O O O O O O O O O O O O O o o o o o o o o o o o o o o o o o o o o o o o o o o o o o o o o o o o o o o o o o o o o o o o o o o X X X X X . . . . . . .                                                                                                 ",
"                                                                                                    , , > > > , , , , , > > > > , , , > > > > > > > > > > > > > > > > > > > > > > > > > > > > ; ; ; ; ; ; ; ; ; - - > > > > & & > ; ; - - - - - - - > > > > : : & & & & &                                                                                                                                                                                                                                                                                                                                                                                                                                                                                                             O O O O O O O O O O O O O O O O O O O O O O o o o o o O O o o o o o o o o o o o o o o o o o o o o o o o o o o o o o o o o o o o o o o o o o o o o X X X X . o o . o o o                                                                                                   ",
"                                                                                                      > > > , , , , , > > > > > , , > > > > > > > > > > > > > > > > > > > > > > > > > > > > ; ; > > ; ; > ; ; - - - : : > > & & ; ; - - - - ; - - - > > > : : : & & & & &                                                                                                                                                                                                                                                                                                                                                                                                                                                                                                             O O O O O O O O O O O O O O O O O O O O O o o o o o o O O O o o o o o O o o o o o o o o o o o o o o o o o o o o o o o o o o o o o o o o o o o X o o X o . . . o . o                                                                                                       ",
"                                                                                                        > > , , , , > > > , , > , > > > > > > > > > > > > > > > > > > > > > > > > > > > > > ; ; > > > > > > - - - - - * > > > & ; - - - - - ; ; - - & & - - - - - - & & -                                                                                                                                                                                                                                                                                                                                                                                                                                                                                                             O O O O O O O O O O O O O O O O O O O O o o o o o o o o o O O o o o o O O o o o o o o o o o o o o o o o o o o o o o o o o o o o o o o o o o X o o o o o o o o o o                                                                                                         ",
"                                                                                                          > , , , , , > > > , , > > > > > > > > > > > > > > > > > > > > > > > > > > > > > > > ; > > > > > : - - - - & & > > ; ; - - - - - ; ; > - & & & & & & & - - & & -                                                                                                                                                                                                                                                                                                                                                                                                                                                                                                             O O O O O O O O O O O O O O O O O O O O O o o o o o o o O o O o o o o o O o o o o o o o o o o o o o o o o o o o o o o o o o o o o o o o o X X o o o o o o o o o                                                                                                           ",
"                                                                                                            , , , , , , , , , > > > > > > > > > > > > > > > > > > > > > > > > > > > > > > > > > ; ; ; ; : : > > > > > > > ; ; - - - - - ; > > - & ; & & & & & & - - - - &                                                                                                                                                                                                                                                                                                                                                                                                                                                                                                             O O O O O O O O O O O O O O O O O O o o o o o O O o o o o o o o O O o o o o o o o o o o o o o o o o o o o o o o o o o o o o o o o o o o X X X o o o o o . . .                                                                                                             ",
"                                                                                                              , , , , , , , > > > > > > > > > > > > > > > > > > > > > > > > > > > > > > > > > > ; ; ; - : : > > > > > > ; ; - - - - - - ; - > ; & & & & & & & & - - - - &                                                                                                                                                                                                                                                                                                                                                                                                                                                                                                             O O O O O O O O O O O O O O O O O o o o o o o O O o o o o o o o o O O o o o o o o o o o o o o o o o o o o o o o o o o o o o o o o o o X X X X o . o o o . .                                                                                                               ",
"                                                                                                                > > > > , > > > > > > > > > > > > > > > > > > > > > > > > > > > > ; ; ; ; ; > > ; ; > > > > > > > > > ; ; - - - - - - - - - ; ; : & & & & & - - & & - & &                                                                                                                                                                                                                                                                                                                                                                                                                                                                                                             O O O O O O O O O O O O O O O O o o o o o o o o o o o O O o o o o o o o o o o o o o o o o o o o o o o o o o o o o o o o o o o o o o X o o o o . . o o o o                                                                                                                 ",
"                                                                                                                  > > > > > > > > > > > > > > > > > > > > > > > > > > > > > > > > ; ; ; ; ; ; ; > > > > > > > > * : ; ; - - - - - - - - - & & : : & & & & - - - & & & & &                                                                                                                                                                                                                                                                                                                                                                                                                                                                                                             O O O O O O O O O O O O O O O o o o o o o o o o o o o O O o o o o o o o o o o o o o o o o o o o o o o o o o o o o o o o o o o o o o o o o o o o o o o o                                                                                                                   ",
"                                                                                                                    , > > > > > > > > > > > > > > > > > > > > > > > > > > > > ; ; ; ; ; ; ; ; > > > > > > > > > * & & & - - - - - - - - & & & & : : & & & & - - & & & & &                                                                                                                                                                                                                                                                                                                                                                                                                                                                                                             O O O O O O O O O O O O O O o o o o o O O o o o o o o o o o o o o o o o o o o o o o o o o o o o o o o o o o o o o o o o o o o o X X o o o o o . . . .                                                                                                                     ",
"                                                                                                                      > > > > > > > > > > > > > > > > > > > > > > > > > > > > ; ; ; ; ; ; ; > : > : > > > > > > & & & & - - - - - - - & ; & & & : : & & & & - - & & & & &                                                                                                                                                                                                                                                                                                                                                                                                                                                                                                             O O O O O O O O O O O O O o o o o o o O O o o o o o o o o o o o o o o o o o o o o o o o o o o o o o o o o o o o o o o o o o o X X X X o o o o . . o                                                                                                                       ",
"                                                                                                                        > > > > > > > > > > > > > > > > > > > > > > > > > > > > ; ; > > > > > > : : - & > : > > ; - & & - - - - - - & & & : : : : - - & & - - - & & & & &                                                                                                                                                                                                                                                                                                                                                                                                                                                                                                             O O O O O O O O O O O O o o o o o o o o o o o O O o o o o o o o o o o o o o o o o o o o o o o o o o o o o o o o o o o o o o o o X X o o o . . . .                                                                                                                         ",
"                                                                                                                          > > > > > > > > > > > > > > > > > > > > > > > > > > > > ; > > > > > > : : & & & * > > ; - - - - - - - - & & & : : : : - - - & & & - & & & & & &                                                                                                                                                                                                                                                                                                                                                                                                                                                                                                             O O O O O O O O O O O o o o o o o o o O o o o O O o o o o o o o o o o o o o o o o o o o o o o o o o o o o o o o o o o o o o o o X X . o o . o .                                                                                                                           ",
"                                                                                                                            > > > > > > > > > > > > > > > > > > > > > ; ; ; ; > > > ; ; - - - - > > > * * & ; ; > > ; ; ; > > - & & : : & & & & & & - - - - & & & & & & &                                                                                                                                                                                                                                                                                                                                                                                                                                                                                                             O O O O O O O O O O o o o o O O O o o o o o o o o o o o o o o o o o o o o o o o o o o o o o o o o o o o o o o o o o o o X o o o X . . o o o o                                                                                                                             ",
"                                                                                                                              > > > > > > > > > > > > > > > > > > > ; ; ; ; ; > > > ; : - - : : > > > * & & - - > > - ; ; - > ; & & - : - & & & - & - - - & & & & & & & &                                                                                                                                                                                                                                                                                                                                                                                                                                                                                                             O O O O O O O O O o o o o o O O O o o o o o o o o o o o o o o o o o o o o o o o o o o o o o o o o o o o o o o o o o o X X X o o . o . o o o                                                                                                                               ",
"                                                                                                                                > > > > > > > > > > > > > > > > > > ; ; ; ; > > > > > : > > > > > > > ; & & & - - - - - - - ; ; & & : : - - & & - - - - & & & & & & & & &                                                                                                                                                                                                                                                                                                                                                                                                                                                                                                             O O O O O O O O O o o o o o o o o o o O O O O o o o o o o o o o o o o o o o o o o o o o o o o o o o o o o o o o o o o X X o o . . o o o o                                                                                                                                 ",
"                                                                                                                                  > > > > > > > > > > > > > > > > > > ; ; ; ; > > > > : > > > > > > ; ; & & & - - - - - - & & : & & : : - - & & & & - & & & & & & & & & &                                                                                                                                                                                                                                                                                                                                                                                                                                                                                                             O O O O O O O o o o o O O o o o o o o o o O O o o o o o o o o o o o o o o o o o o o o o o o o o o o o o o o o o o o o X X o o . . . o o                                                                                                                                   ",
"                                                                                                                                    > > > > > > > > > > > > > > > > ; ; ; ; > > > > > > > > : * > ; ; - ; > > ; - - - - & & & & & & & & - - - & & & & & & & & & & & & & &                                                                                                                                                                                                                                                                                                                                                                                                                                                                                                             O O O O O O o o o o o o O o o o o o o o o o o o o o o o o o o o o o o o o o o o o o o o o o o o o o o o o o o o o o o o X o o X . o o                                                                                                                                     ",
"                                                                                                                                      > > > > > > > > > > > > > > > ; ; ; ; > > > > > > > > & & ; ; - - - > ; ; - - - & ; & & & & & - - - - - & & & & & & & & & & & & & &                                                                                                                                                                                                                                                                                                                                                                                                                                                                                                             O O O O O o o o o o o O O o o o o o o o o o o o o o o o o o o o o o o o o o o o o o o o o o o o o o o o o o o o o o o o X o o . . o                                                                                                                                       ",
"                                                                                                                                        > > > > > > > > > ; ; ; > > > ; > > > > > : > > * * & & - - - - - - - ; - - & & & : : : : - - - - - - - & & & & & & & & & & & & &                                                                                                                                                                                                                                                                                                                                                                                                                                                                                                             O O O O o o o o o o o o o o o o o o o o o o o o o o o o o o o o o o o o o o o o o o o o o o o o o o o o o o X o o o o o o . . . .                                                                                                                                         ",
"                                                                                                                                          > > > > > > > ; ; ; > > > ; ; > : > > - - > > : & & & - - - - - - - - - & & & : : : : - - - - - - - & & & & & & & & & & & & & &                                                                                                                                                                                                                                                                                                                                                                                                                                                                                                             O O O o o o o o o o o o o o O O O o o o o o o o o o o o o o o o o o o o o o o o o o o o o o o o o o o o o X X o X o o o . . . .                                                                                                                                           ",
"                                                                                                                                            > > > > > ; ; ; > > ; ; > > : : - - - & > > > ; ; - ; ; > ; - - - - & & & & - - & & - - & & - - & & & & & & & & & & & & & & &                                                                                                                                                                                                                                                                                                                                                                                                                                                                                                             O O o o o o o o o o o o o o o o o O O o o o o o o o o o o o o o o o o o o o o o o o o o o o o o o o o o o X X o o o o . . o X                                                                                                                                             ",
"                                                                                                                                              > > > ; ; > ; > > ; > > > > - - - & & > > ; ; - - ; - > ; - - - & & & & - & - - & & - & & - & & & & & & & & & & & & & & & &                                                                                                                                                                                                                                                                                                                                                                                                                                                                                                             O o o o o o o O o o o o o o o o o O O o o o o o o o o o o o o o o o o o o o o o o o o o o o o o o o o o o X X o o o o . . X                                                                                                                                               ",
"                                                                                                                                                > > > > > > > > ; ; > > > > - & * : : ; ; & - - - - - & - - & & & & - - - - & & & & & & & & & & & & & & & & & & & & & & &                                                                                                                                                                                                                                                                                                                                                                                                                                                                                                             o o o o o o o o O O o o o o o o o o o o o o o o o o o o o o o o o o o o o o o o o o o o o o o o o o X o o X o o o . . . .                                                                                                                                                 ",
"                                                                                                                                                  > > > > > > > ; - > > > > & * * : ; ; - & & & - - - & - & & & & & - : - - & & & & & & & & & & & & & & & & & & & & & & &                                                                                                                                                                                                                                                                                                                                                                                                                                                                                                             o o o o o o o O O O o o o o o o o o o o o o o o o o o o o o o o o o o o o o o o o o o o o o o o o X X o o X . o o . . .                                                                                                                                                   ",
"                                                                                                                                                    > > ; ; ; ; - - : : > > > * > ; ; - - - - - - - & & ; ; & & & : : - & - - & - - & & & & & & & & & & & & & & & & & & &                                                                                                                                                                                                                                                                                                                                                                                                                                                                                                             o O O o o o o o O O o o o o o o o o o o o o o o o o o o o o o o o o o o o o o o o o o o o o o o o o o o o o o o o . o                                                                                                                                                     ",
"                                                                                                                                                      > ; ; ; - - - > : > > > : ; ; - - - - - - - - & & ; & & & * : - - & & - & - & & & & & & & & & & & & & & & & & & & &                                                                                                                                                                                                                                                                                                                                                                                                                                                                                                             o O o o o o o o O O o o o o o o o o o o o o o o o o o o o o o o o o o o o o o o o o o o o o o o o X X o o o o o o o                                                                                                                                                       ",
"                                                                                                                                                        ; ; > : > > > > > > > ; ; - - - - - - ; - - > > : : & & & - - - - - - - & & & & & & & & & & & & & & & & & & & & &                                                                                                                                                                                                                                                                                                                                                                                                                                                                                                             o O o o o o o O O o o o o o o o o o o o o o o o o o o o o o o o o o o o o o o o o o o o o o X o o X X . . o o o .                                                                                                                                                         ",
"                                                                                                                                                          > > > > > > > > > ; ; - - - - - - ; ; ; > > : : : & & & - - - - - - & & & & & & & & & & & & & & & & & & & & & &                                                                                                                                                                                                                                                                                                                                                                                                                                                                                                             o o o o o o o o o o o o o o o o o o o o o o o o o o o o o o o o o o o o o o o o o o o o o X o o o X . . . . . o                                                                                                                                                           ",
"                                                                                                                                                            > > > > > : * & ; ; > > > ; > > > ; & & & & & & & & & & - & & & & & & & & & & & & & & & & & & & & & & & & & &                                                                                                                                                                                                                                                                                                                                                                                                                                                                                                             o o o o o o o o o o o o o o o o o o o o o o o o o o o o o o o o o o o o o o o o o o o o X X X o o o o . . o o                                                                                                                                                             ",
"                                                                                                                                                              > > > > > & & - - > > ; ; ; ; > > & & & & & & & & - - - - & & & & & & & & & & & & & & & & & & & & & & & & &                                                                                                                                                                                                                                                                                                                                                                                                                                                                                                             o o O o o o o O O o o o o o o o o o o o o o o o o o o o o o o o o o o o o o o o o o o X X X X o o o o . o o                                                                                                                                                               ",
"                                                                                                                                                                > > > ; & & & - - - - - - ; & ; * & & & & & - - - - - - & & & & & & & & & & & & & & & & & & & & & & & & &                                                                                                                                                                                                                                                                                                                                                                                                                                                                                                             o O o o o o o O O o o o o o o o o o o o o o o o o o o o o o o o o o o o o o o o o o X o o o o . o . . . .                                                                                                                                                                 ",
"                                                                                                                                                                  > ; ; & & & & - - - - - & & * : & & & & - - - - - - & & & & & & & & & & & & & & & & & & & & & & & & & &                                                                                                                                                                                                                                                                                                                                                                                                                                                                                                             o O O o o o o o o o o o o o o o o o o o o o o o o o o o o o o o o o o o o o o o o o o o o o . . o . . .                                                                                                                                                                   ",
"                                                                                                                                                                    = - - - - - & - - - & & & & : : & & & & - - - - & & & & & & & & & & & & & & & & & & & & & & & & & & &                                                                                                                                                                                                                                                                                                                                                                                                                                                                                                             o o o o o o o o o o o o o o o o o o o o o o o o o o o o o o o o o o o o o o o o X X o o o o o o o . .                                                                                                                                                                     ",
"                                                                                                                                                                      - - - - - - - - & ; & & & : : & & & & - - - & & & & & & & & & & & & & & & & & & & & & & & & & & & &                                                                                                                                                                                                                                                                                                                                                                                                                                                                                                             o o o o o o o o o o o o o o o o o o o o o o o o o o o o o o o o o o o o o o o X X X X o o o o o o .                                                                                                                                                                       ",
"                                                                                                                                                                        * - - - - - & & - : : & : - - & & - - - & & & & & & & & & & & & & & & & & & & & & & & & & & & & &                                                                                                                                                                                                                                                                                                                                                                                                                                                                                                             o o o o o o o o o o o o o o o o o o o o o o o o o o o o o o o o o o o o o o o o X X o o o o o o X                                                                                                                                                                         ",
"                                                                                                                                                                          - - - - & & & : : : : - - - & & & - & & & & & & & & & & & & & & & & & & & & & & & & & & & & & &                                                                                                                                                                                                                                                                                                                                                                                                                                                                                                             o o o o o o o o o o o o o o o o o o o o o o o o o o o o o o o o o o o o o o o o X X . o o o o X                                                                                                                                                                           ",
"                                                                                                                                                                            - - & & & & - - & & & & - - - - & & & & & & & & & & & & & & & & & & & & & & & & & & & & & & &                                                                                                                                                                                                                                                                                                                                                                                                                                                                                                             o o o o o o o o o o o o o o o o o o o o o o o o o o o o o o o o o o o o o X X X X o o o o . .                                                                                                                                                                             ",
"                                                                                                                                                                              & & & & - - - & & - & & - - & & & & & & & & & & & & & & & & & & & & & & & & & & & & & & & &                                                                                                                                                                                                                                                                                                                                                                                                                                                                                                             o o o o o o o o o o o o o o o o o o o o o o o o o o o o o o o o o o o o o o X X . o o o o .                                                                                                                                                                               ",
"                                                                                                                                                                                & & - - - - & & - - - - & & & & & & & & & & & & & & & & & & & & & & & & & & & & & & & & &                                                                                                                                                                                                                                                                                                                                                                                                                                                                                                             o o o o o o o o o o o o o o o o o o o o o o o o o o o o o o o o o o o o o o o . . o o o .                                                                                                                                                                                 ",
"                                                                                                                                                                                  & : : - - & & & & - & & & & & & & & & & & & & & & & & & & & & & & & & & & & & & & & & &                                                                                                                                                                                                                                                                                                                                                                                                                                                                                                             o o o o o o o o o o o o o o o o o o o o o o o o o o o o o o o o o X o o o o o . . . o o                                                                                                                                                                                   ",
"                                                                                                                                                                                    : - & & & & & & & & & & & & & & & & & & & & & & & & & & & & & & & & & & & & & & & & &                                                                                                                                                                                                                                                                                                                                                                                                                                                                                                             o o o o o o o o o o o o o o o o o o o o o o o o o o o o o o o o o o o o o o o o o o X                                                                                                                                                                                     ",
"                                                                                                                                                                                      - - - - - - & & & & & & & & & & & & & & & & & & & & & & & & & & & & & & & & & & & &                                                                                                                                                                                                                                                                                                                                                                                                                                                                                                             o o o o o o o o o o o o o o o o o o o o o o o o o o o o o X X o o o o X X X X X X X                                                                                                                                                                                       ",
"                                                                                                                                                                                                                                                                                                                                                                                                                                                                                                                                                                                                                                                                                                                                                                                                                                                                                                                                                                                                                                                                ",
"                                                                                                                                                                                                                                                                                                                                                                                                                                                                                                                                                                                                                                                                                                                                                                                                                                                                                                                                                                                                                                                                ",
"                                                                                                                                                                                                                                                                                                                                                                                                                                                                                                                                                                                                                                                                                                                                                                                                                                                                                                                                                                                                                                                                ",
"                                                                                                                                                                                                                                                                                                                                                                                                                                                                                                                                                                                                                                                                                                                                                                                                                                                                                                                                                                                                                                                                ",
"                                                                                                                                                                                                                                                                                                                                                                                                                                                                                                                                                                                                                                                                                                                                                                                                                                                                                                                                                                                                                                                                ",
"                                                                                                                                                                                                                                                                                                                                                                                                                                                                                                                                                                                                                                                                                                                                                                                                                                                                                                                                                                                                                                                                ",
"                                                                                                                                                                                                                                                                                                                                                                                                                                                                                                                                                                                                                                                                                                                                                                                                                                                                                                                                                                                                                                                                ",
"                                                                                                                                                                                                                                                                                                                                                                                                                                                                                                                                                                                                                                                                                                                                                                                                                                                                                                                                                                                                                                                                ",
"                                                                                                                                                                                                                                                                                                                                                                                                                                                                                                                                                                                                                                                                                                                                                                                                                                                                                                                                                                                                                                                                ",
"                                                                                                                                                                                                                                                                                                                                                                                                                                                                                                                                                                                                                                                                                                                                                                                                                                                                                                                                                                                                                                                                ",
"                                                                                                                                                                                                                                                                                                                                                                                                                                                                                                                                                                                                                                                                                                                                                                                                                                                                                                                                                                                                                                                                ",
"                                                                                                                                                                                                                                                                                                                                                                                                                                                                                                                                                                                                                                                                                                                                                                                                                                                                                                                                                                                                                                                                ",
"                                                                                                                                                                                                                                                                                                                                                                                                                                                                                                                                                                                                                                                                                                                                                                                                                                                                                                                                                                                                                                                                ",
"                                                                                                                                                                                                                                                                                                                                                                                                                                                                                                                                                                                                                                                                                                                                                                                                                                                                                                                                                                                                                                                                ",
"                                                                                                                                                                                                                                                                                                                                                                                                                                                                                                                                                                                                                                                                                                                                                                                                                                                                                                                                                                                                                                                                ",
"                                                                                                                                                                                                                                                                                                                                                                                                                                                                                                                                                                                                                                                                                                                                                                                                                                                                                                                                                                                                                                                                ",
"                                                                                                                                                                                                                                                                                                                                                                                                                                                                                                                                                                                                                                                                                                                                                                                                                                                                                                                                                                                                                                                                ",
"                                                                                                                                                                                                                                                                                                                                                                                                                                                                                                                                                                                                                                                                                                                                                                                                                                                                                                                                                                                                                                                                "
};
