/* XPM */
static char *code[] = {
/* columns rows colors chars-per-pixel */
"512 512 155 2 ",
"   c None",
".  c #2367BA",
"X  c #2569BC",
"o  c #286CBF",
"O  c #2B6EC1",
"+  c #2E71C3",
"@  c #3275C6",
"#  c #3478C7",
"$  c #3577C8",
"%  c #3678C9",
"&  c #3C7DCD",
"*  c #3E7FD0",
"=  c #3E80CF",
"-  c #3F80D0",
";  c #4081CF",
":  c #4384D3",
">  c #4887D5",
",  c #4788D6",
"<  c #4889D7",
"1  c #4B8BDA",
"2  c #4A8BD8",
"3  c #4C8BD8",
"4  c #4D8BD9",
"5  c #4A8CD8",
"6  c #4B8CD9",
"7  c #4C8CD9",
"8  c #4D8CD9",
"9  c #4C8DD9",
"0  c #4D8DD9",
"q  c #4C8CDA",
"w  c #4D8CDA",
"e  c #4C8DDA",
"r  c #4D8DDA",
"t  c #4D8DDB",
"y  c #4E8CDA",
"u  c #4E8DDB",
"i  c #4D8EDB",
"p  c #4E8EDA",
"a  c #4E8EDB",
"s  c #4F8EDB",
"d  c #4E8FDB",
"f  c #4F8FDB",
"g  c #4D8CDC",
"h  c #4E8DDC",
"j  c #4F8FDC",
"k  c #4F8FDD",
"l  c #4C8CDA",
"z  c #508FDC",
"x  c #528FDD",
"c  c #508FDE",
"v  c #508FDC",
"b  c #4F90DC",
"n  c #4F91DD",
"m  c #4F90DE",
"M  c #4F90DC",
"N  c #5090DC",
"B  c #5190DC",
"V  c #5191DC",
"C  c #5090DD",
"Z  c #5190DD",
"A  c #5191DD",
"S  c #5290DD",
"D  c #5291DD",
"F  c #5192DC",
"G  c #5192DD",
"H  c #5190DE",
"J  c #5191DE",
"K  c #5290DE",
"L  c #5291DE",
"P  c #5391DE",
"I  c #5291DF",
"U  c #5391DF",
"Y  c #5192DE",
"T  c #5193DE",
"R  c #5292DE",
"E  c #5392DE",
"W  c #5393DE",
"Q  c #5392DF",
"!  c #5393DF",
"~  c #5493DF",
"^  c #5593DF",
"/  c #5595DF",
"(  c #5191DD",
")  c #5493E0",
"_  c #5593E0",
"`  c #5493E1",
"'  c #5394E0",
"]  c #5494E0",
"[  c #5594E0",
"{  c #5595E0",
"}  c #5594E1",
"|  c #5495E1",
" . c #5595E1",
".. c #5695E1",
"X. c #5696E1",
"o. c #5796E1",
"O. c #5595E2",
"+. c #5695E2",
"@. c #5696E2",
"#. c #5796E2",
"$. c #5797E4",
"%. c #5896E1",
"&. c #5896E2",
"*. c #5897E2",
"=. c #5997E2",
"-. c #5996E3",
";. c #5897E3",
":. c #5997E3",
">. c #5A96E2",
",. c #5A97E3",
"<. c #5998E2",
"1. c #5898E3",
"2. c #5998E3",
"3. c #5999E3",
"4. c #5A98E2",
"5. c #5A98E3",
"6. c #5898E4",
"7. c #5998E4",
"8. c #5998E5",
"9. c #5A98E4",
"0. c #5B98E4",
"q. c #5A99E4",
"w. c #5B99E4",
"e. c #5A98E5",
"r. c #5B99E5",
"t. c #5A9AE4",
"y. c #5B9AE4",
"u. c #5A9AE5",
"i. c #5B9AE5",
"p. c #5B9AE6",
"a. c #5B9BE6",
"s. c #5C99E5",
"d. c #5C9AE5",
"f. c #5C9BE5",
"g. c #5D9AE6",
"h. c #5C9BE6",
"j. c #5D9BE6",
"k. c #5D9BE7",
"l. c #5E9BE6",
"z. c #5F9BE7",
"x. c #5D9CE6",
"c. c #5D9CE7",
"v. c #5E9CE7",
"b. c #5E9DE7",
"n. c #5F9DE7",
"m. c #5F9FE7",
"M. c #5D9DE8",
"N. c #5F9DE8",
"B. c #5F9EE8",
"V. c #609FE7",
"C. c #609EE8",
"Z. c #619EE8",
"A. c #609EE9",
"S. c #619EE9",
"D. c #609FE9",
/* pixels */
"                                                                                                                                                                                                                                                                                                                                                                                                                                                                                                                                                                                                                                                                                                                                                                                                                                                                                                                                                                                                                                                                ",
"                                                                                                                                                                                                                                                                                                                                                                                                                                                                                                                                                                                                                                                                                                                                                                                                                                                                                                                                                                                                                                                                ",
"                                                                                                                                                                                                                                                                                                                                                                                                                                                                                                                                                                                                                                                                                                                                                                                                                                                                                                                                                                                                                                                                ",
"                                                                                                                                                                                                                                                                                                                                                                                                                                                                                                                                                                                                                                                                                                                                                                                                                                                                                                                                                                                                                                                                ",
"                                                                                                                                                                                                                                                                                                                                                                                                                                                                                                                                                                                                                                                                                                                                                                                                                                                                                                                                                                                                                                                                ",
"                                                                                                                                                                                                                                                                                                                                                                                                                                                                                                                                                                                                                                                                                                                                                                                                                                                                                                                                                                                                                                                                ",
"                                                                                                                                                                                                                                                                                                                                                                                                                                                                                                                                                                                                                                                                                                                                                                                                                                                                                                                                                                                                                                                                ",
"                                                                                                                                                                                                                                                                                                                                                                                                                                                                                                                                                                                                                                                                                                                                                                                                                                                                                                                                                                                                                                                                ",
"                                                                                                                                                                                                                                                                                                                                                                                                                                                                                                                                                                                                                                                                                                                                                                                                                                                                                                                                                                                                                                                                ",
"                                                                                                                                                                                                                                                                                                                                                                                                                                                                                                                                                                                                                                                                                                                                                                                                                                                                                                                                                                                                                                                                ",
"                                                                                                                                                                                                                                                                                                                                                                                                                                                                                                                                                                                                                                                                                                                                                                                                                                                                                                                                                                                                                                                                ",
"                                                                                                                                                                                                                                                                                                                                                                                                                                                                                                                                                                                                                                                                                                                                                                                                                                                                                                                                                                                                                                                                ",
"                                                                                                                                                                                                                                                                                                                                                                                                                                                                                                                                                                                                                                                                                                                                                                                                                                                                                                                                                                                                                                                                ",
"                                                                                                                                                                                                                                                                                                                                                                                                                                                                                                                                                                                                                                                                                                                                                                                                                                                                                                                                                                                                                                                                ",
"                                                                                                                                                                                                                                                                                                                                                                                                                                                                                                                                                                                                                                                                                                                                                                                                                                                                                                                                                                                                                                                                ",
"                                                                                                                                                                                                                                                                                                                                                                                                                                                                                                                                                                                                                                                                                                                                                                                                                                                                                                                                                                                                                                                                ",
"                                                                                                                                                                                                                                                                                                                                                                                                                                                                                                                                                                                                                                                                                                                                                                                                                                                                                                                                                                                                                                                                ",
"                                                                                                                                                                                                                                                                                                                                                                                                                                                                                                                                                                                                                                                                                                                                                                                                                                                                                                                                                                                                                                                                ",
"      D.D.D.D.D.D.D.D.D.D.D.D.D.D.B.B.B.B.B.B.B.B.B.B.B.B.B.B.B.B.B.B.B.B.B.B.B.B.B.B.B.                                                                                                                                                                                                                                                                                                                                                                                                                                                                                                                                                                                                                                                                                                                                                                                                                                                                                - - - - - - - - - - - - - - - - = = = = = = = = = = & & & & & & & & & & = = & & &       ",
"    D.D.D.D.D.D.D.D.D.D.D.D.D.D.B.B.B.B.B.B.B.B.B.B.B.B.n.n.n.n.n.n.n.n.n.n.n.n.n.n.n.n.n.                                                                                                                                                                                                                                                                                                                                                                                                                                                                                                                                                                                                                                                                                                                                                                                                                                                                            : : : : - - - - - - - - - - - - = = = = = = = = = = & & & & & & & & & & & = = & & & &     ",
"    D.D.D.D.D.D.D.D.D.D.D.D.D.B.B.B.B.B.B.B.B.B.B.B.B.n.n.n.n.n.n.n.n.n.n.n.n.n.n.n.n.n.n.n.                                                                                                                                                                                                                                                                                                                                                                                                                                                                                                                                                                                                                                                                                                                                                                                                                                                                        : : : : - - - - - - - - - - - - = = = = = = - - - = & & & * & & & & & & & & & & & & & &     ",
"    D.D.D.D.D.D.D.D.D.D.D.D.B.B.B.B.B.B.B.B.B.B.B.B.n.n.n.n.n.n.n.n.n.n.n.n.j.n.n.n.n.n.n.n.j.                                                                                                                                                                                                                                                                                                                                                                                                                                                                                                                                                                                                                                                                                                                                                                                                                                                                    : : : : - - - - - - - - - - - - = = = = = = = - - - & & & & - & & & & & & = = & & & & & &     ",
"    D.D.D.D.D.D.D.D.D.D.D.B.B.B.B.B.B.B.B.B.B.B.B.n.n.n.n.n.n.n.n.n.n.n.n.n.n.n.n.n.n.n.n.n.n.n.                                                                                                                                                                                                                                                                                                                                                                                                                                                                                                                                                                                                                                                                                                                                                                                                                                                                : : : : - - - - - - - - - - - - = = = = = = = = - - & & & & - - & & & & = = = = & & & & & &     ",
"    D.D.D.D.D.D.D.D.D.D.B.B.B.B.B.B.B.B.B.B.B.B.n.n.n.n.n.n.n.n.n.n.n.n.n.n.n.n.n.n.n.n.n.n.n.j.j.                                                                                                                                                                                                                                                                                                                                                                                                                                                                                                                                                                                                                                                                                                                                                                                                                                                            : - : : - - - - - - - - - - - - = = = = = = = = = - & & & & & - = = = & & & = = = & & & & & &     ",
"    D.D.D.D.D.D.D.D.D.B.B.B.B.B.B.B.B.B.B.B.B.n.n.n.n.n.n.n.n.n.n.n.n.n.n.n.n.n.n.n.n.n.n.n.j.j.j.j.                                                                                                                                                                                                                                                                                                                                                                                                                                                                                                                                                                                                                                                                                                                                                                                                                                                        : : = = - - - - - - - - - - - - = = = = = = = = = = & & & & & & = = = = = & & & & & & & & & & &     ",
"    D.D.D.D.D.D.D.D.B.B.B.B.B.B.B.B.B.B.B.B.n.n.n.n.n.n.n.n.n.n.n.n.n.n.n.n.n.n.n.n.n.n.n.j.j.j.j.j.j.                                                                                                                                                                                                                                                                                                                                                                                                                                                                                                                                                                                                                                                                                                                                                                                                                                                    = : : = = - - - - - - - - - - - = = = = = = = = = = & & & & & & & = = = = & & & & & & & & & & & &     ",
"    V.D.D.D.D.D.D.B.B.B.B.B.B.B.B.B.B.B.B.n.n.n.n.n.n.n.n.n.n.n.n.n.n.n.j.n.n.n.n.n.n.n.j.j.j.j.j.j.j.j.                                                                                                                                                                                                                                                                                                                                                                                                                                                                                                                                                                                                                                                                                                                                                                                                                                                : : : : = = = = - - - - - - - - = = = = = = = = = = - - * & & & & & & & & & & & & & & & & & & & & &     ",
"    V.D.D.D.D.D.B.B.B.B.B.B.B.B.B.B.B.B.n.n.n.n.n.n.n.n.n.n.n.n.n.n.n.n.n.j.n.n.n.n.n.j.j.j.j.j.j.j.j.j.j.                                                                                                                                                                                                                                                                                                                                                                                                                                                                                                                                                                                                                                                                                                                                                                                                                                            = = - : - = = = - - - - - - - - = = = = = = = = = = - - - * & & & & & & & & & & & & & & & & & & & & &     ",
"    V.D.D.D.D.B.B.B.B.B.B.B.B.B.B.B.B.n.n.n.n.n.n.n.n.n.n.n.n.n.n.n.n.n.n.n.n.n.n.n.j.j.j.j.j.j.j.j.j.j.j.j.                                                                                                                                                                                                                                                                                                                                                                                                                                                                                                                                                                                                                                                                                                                                                                                                                                        : : : : - - - - - - - - - - - - = = = = = = = = = = & & & - - - & & & & & & & & = & & & & & & & & & & &     ",
"    V.D.D.D.B.B.B.B.B.B.B.B.B.B.B.B.n.n.n.n.n.n.n.n.n.n.n.n.n.n.n.n.n.n.n.n.n.n.n.j.j.j.j.j.j.j.j.j.j.j.j.j.j.                                                                                                                                                                                                                                                                                                                                                                                                                                                                                                                                                                                                                                                                                                                                                                                                                                    - : : : - - - - - - - - - - - - = = = = = = = = = = & & & & & - - & & & & & = & & & & & & & & & & & & & &     ",
"    V.D.D.B.B.B.B.B.B.B.B.B.B.B.B.n.n.n.n.n.n.n.n.n.n.n.n.n.n.n.n.n.n.n.n.n.n.n.j.j.j.j.j.j.j.j.j.j.j.j.j.j.j.j.                                                                                                                                                                                                                                                                                                                                                                                                                                                                                                                                                                                                                                                                                                                                                                                                                                : : : : - - - - - - - - - - - - = = = = = = = = = = & & & & * & - * & & & = = = = & & & & & & & & & & & & &     ",
"    V.D.B.B.B.B.B.B.B.B.B.B.B.B.n.n.n.n.n.n.n.n.n.n.n.n.n.n.n.n.n.n.n.n.j.n.n.j.j.j.j.j.j.j.j.j.j.j.j.j.j.j.j.j.j.                                                                                                                                                                                                                                                                                                                                                                                                                                                                                                                                                                                                                                                                                                                                                                                                                            : : : : - - - - - - - - - - - - = = = = = = = = = = & & & & & * & - - & & & & = = & & & & & & & & & & & & & &     ",
"    V.B.B.B.B.B.B.B.B.B.B.B.B.n.n.n.n.n.n.n.n.n.n.n.n.n.n.n.n.n.j.j.n.n.n.n.j.j.j.j.j.j.j.j.j.j.j.j.j.j.j.j.j.j.j.j.                                                                                                                                                                                                                                                                                                                                                                                                                                                                                                                                                                                                                                                                                                                                                                                                                        : : : = = = - - - - - - - - - - = = = = = = = = = = - - & & & & = = = = = = & & & & & & & & & & & & & & & & & &     ",
"    n.B.B.B.B.B.B.B.B.B.B.B.n.n.n.n.n.n.n.n.j.n.n.n.n.n.n.n.n.n.n.n.n.n.n.j.j.j.j.j.j.j.j.j.j.j.j.j.j.j.j.j.j.j.j.j.j.                                                                                                                                                                                                                                                                                                                                                                                                                                                                                                                                                                                                                                                                                                                                                                                                                    ; : : - = = = - - - - - - - - - = = = = = = = = = = & - - & & & = = = & = = = & & & & & & & & & & & & & & & & & &     ",
"    n.B.B.B.B.B.B.B.B.B.B.n.n.n.n.n.n.n.n.n.n.n.n.n.n.n.n.n.n.n.n.n.n.n.j.j.j.j.j.j.j.j.j.j.j.j.j.j.j.j.j.j.j.j.j.j.a.a.                                                                                                                                                                                                                                                                                                                                                                                                                                                                                                                                                                                                                                                                                                                                                                                                                : : : : - = = = - - - - - - - - = = = = = = = = = = & & - - & & & & = = & & & & & & & & & & & & & & & & & & & & & &     ",
"    n.B.B.B.B.B.B.B.B.B.n.n.n.n.n.n.n.n.n.n.n.n.n.n.j.n.n.n.n.n.n.n.n.j.j.j.j.j.j.j.j.j.j.j.j.j.j.j.j.j.j.j.j.j.j.a.a.a.a.                                                                                                                                                                                                                                                                                                                                                                                                                                                                                                                                                                                                                                                                                                                                                                                                            = : : : - - = = = - - - - - - - = = = = = = = = = = & & & * * & & & & = = & & & & & & & & & & & & & & & & & & & & & &     ",
"    n.B.B.B.B.B.B.B.B.n.n.n.n.n.n.n.n.n.n.n.n.n.n.j.j.n.n.n.n.n.n.n.j.j.j.j.j.j.j.j.j.j.j.j.j.j.j.j.j.j.j.j.j.j.a.a.a.a.a.a.                                                                                                                                                                                                                                                                                                                                                                                                                                                                                                                                                                                                                                                                                                                                                                                                        : = : : - - - - - - - - - - - - = = = = = = - - - = & & & * * & & & & & & = & & & & & & & & & & & & & & & & & & & & & &     ",
"    n.B.B.B.B.B.B.B.n.n.n.n.n.n.n.n.n.n.n.n.n.n.n.j.n.n.n.n.n.n.n.j.j.j.j.j.j.j.j.j.j.j.a.j.j.j.j.j.j.j.j.j.j.a.a.a.a.a.a.a.j.                                                                                                                                                                                                                                                                                                                                                                                                                                                                                                                                                                                                                                                                                                                                                                                                    = : - : - - - - - - - - - - - - = = = = = = = - - - & & & & - * & & & & & & & & & & & & & & & & & & & & & & & & & & & & &     ",
"    n.B.B.B.B.B.B.n.n.n.n.n.n.n.n.n.n.n.n.n.n.n.n.n.n.n.n.n.n.n.j.j.j.j.j.j.j.j.j.j.j.j.a.a.j.j.j.j.j.j.j.a.a.a.a.a.a.a.a.a.a.a.                                                                                                                                                                                                                                                                                                                                                                                                                                                                                                                                                                                                                                                                                                                                                                                                : : : : - - - - - - - - - - - - = = = = = = = = - - & & & & - - & & & & & & & & = & & & & & & & & & & & & & & & & & & & & &     ",
"    n.B.B.B.B.B.n.n.n.n.n.n.n.n.n.n.n.n.j.n.n.n.n.n.n.n.n.n.n.j.j.j.j.j.j.j.j.j.j.j.j.j.j.j.j.j.a.j.j.j.j.a.a.a.a.a.a.a.a.a.a.a.j.                                                                                                                                                                                                                                                                                                                                                                                                                                                                                                                                                                                                                                                                                                                                                                                            - : : : - - - - - - - - - - - - = = = = = = = = = - & & & & & - = & & & & & & & = & & & & & & & & & & & & & & & & & & & & & &     ",
"    n.B.B.B.B.n.n.n.n.n.n.n.n.n.n.n.n.n.n.n.n.n.n.n.n.n.n.n.j.j.j.j.j.j.j.j.j.j.j.j.j.j.j.j.j.j.j.j.j.j.a.a.a.a.a.a.a.a.a.a.a.a.a.,.                                                                                                                                                                                                                                                                                                                                                                                                                                                                                                                                                                                                                                                                                                                                                                                        : : : : - - - - - - - - - - - - = = = = = = = = = = & & & & & & = = & = & & & & & & & & & & & & & & & & & & & & & & & & & & & &     ",
"    n.B.B.B.n.n.n.n.n.n.n.n.n.n.n.n.n.n.n.n.n.n.n.n.n.n.n.j.j.j.j.j.j.j.j.j.j.j.j.j.j.j.j.j.j.j.j.j.j.a.a.a.a.a.a.a.a.a.a.a.a.5.a.a.5.                                                                                                                                                                                                                                                                                                                                                                                                                                                                                                                                                                                                                                                                                                                                                                                    : : : : - - - - - - - - - - - - = = = = = = = = = = & & & & & & & = = = = & & & & & & & & & & & & & & & & & & & & & & & & & & & &     ",
"    n.B.B.n.n.n.n.n.n.n.n.n.n.n.n.n.n.n.j.j.n.n.n.n.n.n.j.j.j.j.j.j.j.j.a.j.j.j.j.j.j.j.j.j.j.j.j.j.a.a.a.a.a.a.a.a.a.a.a.a.5.5.a.a.5.a.                                                                                                                                                                                                                                                                                                                                                                                                                                                                                                                                                                                                                                                                                                                                                                                : : : : - - - - - - - - - - - - = = = = = = = = = = - - * & & & & & & & = = & & = & & & & & & & & & & & & & & & & & & & & & & & & &     ",
"    n.B.n.n.n.n.n.n.n.n.n.n.n.n.n.n.n.n.n.n.n.n.n.n.n.j.j.j.j.j.j.j.j.j.j.j.j.j.j.a.j.j.j.j.j.j.j.a.a.a.a.a.a.a.a.a.a.a.a.a.a.5.a.a.a.a.5.                                                                                                                                                                                                                                                                                                                                                                                                                                                                                                                                                                                                                                                                                                                                                                            ; - : : - - - - - - - - - - - - = = = = = = = = = = - - - * & & & & & & & = = & & & & & & & & & & & & & & & & & & & & & & & & & & & &     ",
"    n.n.n.n.n.n.n.n.n.n.n.n.n.n.n.n.n.n.n.n.n.n.n.n.j.j.j.j.j.j.j.j.j.j.j.j.j.j.j.j.a.j.j.j.j.j.a.a.a.a.a.a.a.a.a.a.a.a.a.a.a.a.5.5.a.a.a.a.                                                                                                                                                                                                                                                                                                                                                                                                                                                                                                                                                                                                                                                                                                                                                                        : : - = = = - - - - - - - - - - = = = = = = = = = = & & & - - - & & & & & & & & & & & & & & & & & & & & & & & & & & & & & & & & & & & &     ",
"    n.n.n.n.n.n.n.n.n.n.n.n.n.n.n.n.n.n.n.n.n.n.n.j.j.j.j.j.j.j.j.j.j.j.j.j.j.j.j.j.a.j.j.j.j.a.a.a.a.a.a.a.a.a.a.a.a.5.a.a.a.a.5.5.a.a.a.a.a.                                                                                                                                                                                                                                                                                                                                                                                                                                                                                                                                                                                                                                                                                                                                                                    : : : = = = = - - - - - - - - - = = = = = = = = = = & & & & & - - & & & & & = & & & & & & & & & & & & & & & & & & & & & & & & & & & & & &     ",
"    n.n.n.n.n.n.n.n.j.n.n.n.n.n.n.n.n.n.n.n.n.n.j.j.j.j.j.j.j.j.j.j.j.j.j.j.j.j.j.j.j.j.j.j.a.a.a.a.a.a.a.a.a.a.a.a.5.5.5.5.a.a.5.5.a.5.a.a.a.a.                                                                                                                                                                                                                                                                                                                                                                                                                                                                                                                                                                                                                                                                                                                                                                : : : : - - = = - - - - - - - - = = = = = = = = = = & & & & * & - * & & & = = = & & & & & & & & & & & & & & & & & & & & & & & & & & & & & &     ",
"    n.n.n.n.n.n.n.n.j.n.n.n.j.j.n.n.n.n.j.n.n.j.j.j.j.j.j.j.j.j.j.j.j.j.j.j.j.j.j.j.j.j.j.a.a.a.a.a.a.a.a.a.a.a.a.a.5.5.5.5.5.5.a.a.a.5.5.a.a.a.a.                                                                                                                                                                                                                                                                                                                                                                                                                                                                                                                                                                                                                                                                                                                                                            & = - : - - - = - - - - - - - - = = = = = = = = = = & & & & & * & - - & & & & = = & & & & & & & & & & & & & & & & & & & & & & & & & & & & & &     ",
"    n.n.n.n.n.n.n.n.n.n.n.n.n.n.n.n.n.n.n.n.j.j.j.j.j.j.j.j.j.j.j.j.j.j.j.j.j.j.j.j.j.j.a.a.a.a.a.a.a.a.a.a.a.a.a.a.5.5.5.5.5.a.5.a.a.a.5.5.a.a.a.a.                                                                                                                                                                                                                                                                                                                                                                                                                                                                                                                                                                                                                                                                                                                                                        - = = = - - - - - - - - - - - - = = = = = = = = = = - - & & & & = = = = = = & & & & & & & & & & & & & & & & & & & & & & & & & & & & & & & & & &     ",
"    n.n.n.n.n.n.n.n.n.n.n.n.n.n.n.n.n.n.n.j.j.j.j.j.j.j.j.j.j.j.j.j.j.j.j.j.j.j.j.j.j.a.a.a.a.a.a.a.a.a.a.a.a.a.a.a.5.5.5.5.a.a.a.a.5.a.5.,.a.a.a.a.,.                                                                                                                                                                                                                                                                                                                                                                                                                                                                                                                                                                                                                                                                                                                                                    : : : = = - - - - - - - - - - - = = = = = = = = = = & - - & & & = = = & = = = & & & & & & & & & & & & & & & & & & & & & & & & & & & & & & & & & &     ",
"    n.n.n.n.n.n.n.n.n.n.n.n.n.n.n.n.n.n.j.j.j.j.j.j.j.j.j.j.j.j.j.a.j.j.j.j.j.j.j.j.a.a.a.a.a.a.a.a.a.a.a.a.5.5.a.a.a.5.a.a.a.a.a.a.a.a.,.,.,.a.,.,.,.,.                                                                                                                                                                                                                                                                                                                                                                                                                                                                                                                                                                                                                                                                                                                                                - : : : = - - - - - - - - - - - = = = = = = = = = = - - - - & & & & = = & & & & & & & & & & & & & & & & & & & & & & & & & & & & & & & & & & & & & &     ",
"    n.n.n.n.n.n.n.n.n.n.n.j.j.j.n.n.n.j.j.j.j.j.j.j.j.j.a.j.j.j.j.a.j.j.j.j.j.j.j.a.a.a.a.a.a.a.a.a.a.a.a.5.5.5.a.a.a.5.a.a.a.a.a.a.a.,.,.,.a.a.,.,.,.,.5.                                                                                                                                                                                                                                                                                                                                                                                                                                                                                                                                                                                                                                                                                                                                            ; : : : - - - - - - - - - - - - = = = = = = = = = = - - - * * & & & & = = & & & & & & & & & & & & & & & & & & & & & & & & & & & & & & & & & & & & & &     ",
"    n.n.n.n.n.n.n.n.n.n.n.n.n.n.n.n.j.j.j.j.j.j.j.j.j.j.j.j.j.j.j.j.j.j.j.j.j.j.a.a.a.a.a.a.a.a.a.a.a.a.a.a.5.5.a.a.a.a.a.a.5.5.a.a.,.,.a.a.a.5.,.,.5.5.5.,.                                                                                                                                                                                                                                                                                                                                                                                                                                                                                                                                                                                                                                                                                                                                        : : = = - - - - - - - - - - - - = = = = = = = = = = & & & - * & & & & & & = & & & & & & & & & & & & & & & & & & & & & & & & & & & & & & & & & & & & & &     ",
"    j.n.n.n.n.n.n.n.n.n.n.n.n.n.n.j.j.j.j.j.j.j.j.j.j.j.j.j.j.j.j.j.j.j.j.j.j.a.a.a.a.a.a.a.a.a.a.a.a.a.a.a.5.5.a.a.a.a.a.a.5.5.5.,.a.a.a.a.5.5.5.5.5.5.5.5.,.                                                                                                                                                                                                                                                                                                                                                                                                                                                                                                                                                                                                                                                                                                                                    : : : = = - = - - - - - - - - - = = = = = = = = = = & & & & & * & & & & & & & & & & & & & & & & & & & & & & & & & & & & & & & & & & & & & & & & & & & & &     ",
"    j.n.n.n.n.n.n.n.n.n.n.j.n.n.j.j.j.j.j.j.j.j.j.j.j.j.j.j.j.j.j.j.j.j.j.j.a.a.a.a.a.a.a.a.a.a.a.a.5.a.a.a.a.5.a.a.a.a.5.5.5.5.,.,.a.a.a.5.5.5.5.5.5.5.5.5.5.5.                                                                                                                                                                                                                                                                                                                                                                                                                                                                                                                                                                                                                                                                                                                                : : : : = = = = - - - - - - - - = = = = = = = = = = & & & & * & & & & & & & & & = & & & & & & & & & & & & & & & & & & & & & & & & & & & & & & & & & & & & &     ",
"    j.n.n.n.n.n.j.j.n.n.n.n.n.j.j.j.j.j.j.j.j.j.j.j.j.j.j.j.j.j.a.j.j.j.j.a.a.a.a.a.a.a.a.a.a.a.a.5.5.5.a.a.a.5.5.5.a.a.a.5.5.,.,.,.a.a.5.5.5.5.5.5.5.5.5.5.,.,.$.                                                                                                                                                                                                                                                                                                                                                                                                                                                                                                                                                                                                                                                                                                                            : : : : - = = = = - - - - - - - = = = = = = = = = = & & & & & * & & & & & & & & = & & & & & & & & & & & & & & & & & & & & & & & & & & & & & & & & & & & & & &     ",
"    j.n.n.n.n.n.n.n.n.n.j.n.j.j.j.j.j.j.j.j.j.j.j.j.j.j.j.j.j.j.a.j.j.j.a.a.a.a.a.a.a.a.a.a.a.a.a.a.a.a.5.5.5.5.5.5.a.a.a.a.a.a.a.a.a.5.5.5.5.5.5.5.5.5.5.,.,.#.,.,.                                                                                                                                                                                                                                                                                                                                                                                                                                                                                                                                                                                                                                                                                                                        : : : : - - - - - - - - - - - - = = = = = = = = = = & & & & = & & & & = & & & & & & & & & & & & & & & & & & & & & & & & & & & & & & & & & & & & & & & & & & & &     ",
"    j.n.n.n.n.n.n.n.n.n.n.j.j.j.j.j.j.j.j.j.j.j.j.j.j.j.j.j.j.j.j.j.j.a.a.a.a.a.a.a.a.a.a.a.a.5.a.a.a.a.5.5.5.a.5.5.a.a.a.a.,.a.a.a.5.5.5.5.5.5.5.5.5.5.,.,.#.#.,.,.                                                                                                                                                                                                                                                                                                                                                                                                                                                                                                                                                                                                                                                                                                                        : : : - - - - - - - - - - - - = = = = = = = = = = & & & & & = & & & = = & & & & & & & & & & & & & & & & & & & & & & & & & & & & & & & & & & & & & & & & & & & &     ",
"    j.n.n.n.n.n.n.n.n.n.j.j.j.j.j.j.j.j.j.j.j.j.j.a.j.j.j.j.j.j.j.j.a.a.a.a.a.a.a.a.a.a.a.a.a.a.a.a.a.a.5.5.a.a.5.5.5.a.,.,.,.,.a.5.5.5.5.,.,.5.5.5.5.,.,.#.,.,.,.,.,.                                                                                                                                                                                                                                                                                                                                                                                                                                                                                                                                                                                                                                                                                                                    : : : - - - - - - - - - - - - = = = = = = = = = = & & & & & & = = & & = = & & = & & & & & & & & & & & & & & & & & & & & & & & & & & & & & & & & & & & & & & & & &     ",
"    j.n.n.n.n.n.n.n.n.j.j.j.j.j.j.j.j.j.j.j.j.j.a.j.j.j.j.j.j.j.j.a.a.a.a.a.a.a.a.a.a.a.a.5.5.a.5.a.a.a.5.5.a.a.5.5.a.a.,.,.,.,.5.5.5.5.,.,.,.,.5.5.,.,.#.#.,.,.,.,.,.,.                                                                                                                                                                                                                                                                                                                                                                                                                                                                                                                                                                                                                                                                                                                : : : - - - - - - - - - - - - = = = = = = = = = = & & & & & = = = = & & = = & & & & & & & & & & & & & & & & & & & & & & & & & & & & & & & & & & & & & & & & & & & &     ",
"    j.n.n.n.n.n.n.n.j.j.j.j.j.j.j.j.j.j.j.j.j.j.j.j.j.j.j.j.j.j.a.a.a.a.a.a.a.a.a.a.a.a.5.5.a.a.5.5.5.5.a.a.a.a.a.a.a.a.,.,.a.5.5.5.5.5.5.5.5.5.5.,.,.,.,.,.,.,.#.,.,.,.,.                                                                                                                                                                                                                                                                                                                                                                                                                                                                                                                                                                                                                                                                                                            - : : - - - - - - - - - - - - = = = = = = = = = = - - & & * - - - = & & & & & & & & & & & & & & & & & & & & & & & & & & & & & & & & & & & & & & & & & & & & & & & & &     ",
"    j.n.n.n.n.n.n.j.j.j.j.j.j.j.j.j.j.j.j.j.j.j.j.j.j.j.j.j.j.a.a.a.a.a.a.a.a.a.a.a.a.a.5.a.a.a.5.5.5.5.a.a.a.a.a.a.a.a.,.,.5.5.5.5.5.5.5.5.5.5.,.,.,.,.,.,.,.,.#.,.,.,.,.,.                                                                                                                                                                                                                                                                                                                                                                                                                                                                                                                                                                                                                                                                                                        : : : - - - - - - - - - - - - = = = = = = = = = = & - = & & - - - - = = & & & & & & & & & & & & & & & & & & & & & & & & & & & & & & & & & & & & & & & & & & & & & & & &     ",
"    j.n.n.n.n.n.j.j.j.j.j.j.j.j.j.j.a.j.j.j.j.j.j.j.j.j.j.j.a.a.a.a.a.a.a.a.a.a.a.a.5.5.5.5.a.a.a.a.5.5.a.a.5.5.,.,.a.a.a.5.5.5.5.5.5.5.5.5.5.,.,.#.,.#.,.,.#.#.#.#.,.,.,.,.,.                                                                                                                                                                                                                                                                                                                                                                                                                                                                                                                                                                                                                                                                                                    - : : - - - - - - - - - - - - = = = = = = = = = = & & - - & & & & * & = = & & & & & & & & & & & & & & & & & & & & & & & & & & & & & & & & & & & & & & & & & & & & & & & &     ",
"    j.n.n.n.n.j.j.j.j.j.j.j.j.j.j.j.a.j.j.j.a.a.j.j.j.j.j.a.a.a.a.a.a.a.a.a.a.a.a.a.5.5.5.5.a.a.a.a.a.a.5.5.5.,.,.,.a.a.5.5.5.5.5.5.5.5.5.5.,.,.#.#.#.,.,.#.#.#.#.#.,.,.,.,.#.#.                                                                                                                                                                                                                                                                                                                                                                                                                                                                                                                                                                                                                                                                                                - : : - - - - - - - - - - - - = = = = = = = = = = & & * * * & & & & & & = = & & & & & & & & & & & & & & & & & & & & & & & & & & & & & & & & & & & & & & & & & & & & & & & &     ",
"    j.n.n.n.j.j.j.j.j.j.j.j.j.j.j.j.j.j.j.j.j.j.j.j.j.j.a.a.a.a.a.a.a.a.a.a.a.a.a.a.a.a.a.a.a.5.5.5.a.a.a.a.a.a.a.a.a.5.5.5.5.5.5.5.5.5.5.,.,.#.,.#.#.#.#.#.,.,.,.,.,.#.,.#.#.#.#.                                                                                                                                                                                                                                                                                                                                                                                                                                                                                                                                                                                                                                                                                            : : = = = - - - - - - - - - - = = = = = = = = = = & & & - - - * & = & & & & & = & & & & & & & & & & & & & & & & & & & & & & & & & & & & & & & & & & & & & & & & & & & & & & &     ",
"    j.n.n.j.j.j.j.j.j.j.j.j.j.j.j.j.j.j.j.j.j.j.j.j.j.a.a.a.a.a.a.a.a.a.a.a.a.a.a.a.a.a.a.a.a.5.5.5.a.a.a.a.,.a.a.a.5.5.5.5.5.5.5.5.5.5.,.,.#.#.,.,.#.#.#.#.,.,.,.,.#.#.#.#.#.#.#.#.                                                                                                                                                                                                                                                                                                                                                                                                                                                                                                                                                                                                                                                                                        : : : - = = - - - - - - - - - = = = = = = = = = = & & & & & - - & & = = & & & & & & & & & & & & & & & & & & & & & & & & & & & & & & & & & & & & & & & & & & & & & & & & & & & &     ",
"    j.n.j.j.j.j.j.j.j.j.j.j.j.j.j.j.j.j.j.j.j.j.j.j.a.a.a.a.a.a.a.a.a.a.a.a.5.a.5.5.a.a.a.a.a.a.5.5.5.a.,.,.,.,.a.5.5.5.5.,.,.5.5.5.5.,.,.,.#.#.,.,.,.,.#.,.,.,.#.#.#.#.#.#.#.#.#.#.#.                                                                                                                                                                                                                                                                                                                                                                                                                                                                                                                                                                                                                                                                                    : : : - = = = - - - - - - - - = = = = = = = = = = & & & & - & & & & & = = & & & & & & & & & & & & & & & & & & & & & & & & & & & & & & & & & & & & & & & & & & & & & & & & & & & &     ",
"    j.j.j.j.j.j.j.j.j.j.j.j.j.j.j.j.j.j.j.j.j.j.j.a.a.a.a.a.a.a.a.a.a.a.a.5.5.5.5.5.5.5.a.a.a.a.5.5.a.a.,.,.,.,.5.5.5.5.,.,.,.,.5.5.,.,.,.,.,.,.,.,.,.,.#.,.,.,.#.#.#.#.#.#.#.#.#.#.#.#.                                                                                                                                                                                                                                                                                                                                                                                                                                                                                                                                                                                                                                                                                : : : - - = = = - - - - - - - = = = = = = = = = = & & & & & * & & & & & = = & & & & & & & & & & & & & & & & & & & & & & & & & & & & & & & & & & & & & & & & & & & & & & & & & & & &     ",
"    j.j.j.j.j.j.j.j.j.j.j.j.j.j.j.j.j.j.j.j.j.j.a.a.a.a.a.a.a.a.a.a.a.a.a.a.5.5.5.5.a.a.a.a.5.a.a.a.a.a.,.,.a.5.5.5.5.5.5.5.5.5.5.,.,.,.,.,.,.,.#.#.,.,.,.,.,.,.,.#.#.#.#.#.#.#.#.#.#.#.#.                                                                                                                                                                                                                                                                                                                                                                                                                                                                                                                                                                                                                                                                            = : : - - - - - - - - - - - - = = = = = = - - - = & & & * & & & & & & = = & & & & & & & & & & & & & & & & & & & & & & & & & & & & & & & & & & & & & & & & & & & & & & & & & & & & & &     ",
"    j.j.j.j.j.j.j.j.j.j.a.j.j.j.j.j.j.j.j.j.j.a.a.a.a.a.a.a.a.a.a.a.a.5.a.a.a.5.5.5.a.a.a.a.5.5.a.a.a.a.,.,.5.5.5.5.5.5.5.5.5.5.,.,.,.,.,.,.,.,.#.#.,.,.,.,.,.,.#.#.#.#.#.#.#.#.#.#.#.#.#.#.                                                                                                                                                                                                                                                                                                                                                                                                                                                                                                                                                                                                                                                                        : - : - - - - - - - - - - - - = = = = = = = - - - & & & & - = & & & & & = = & & & & & & & & & & & & & & & & & & & & & & & & & & & & & & & & & & & & & & & & & & & & & & & & & & & & & &     ",
"    j.j.j.j.j.j.j.j.j.j.a.a.j.j.j.j.j.j.j.a.a.a.a.a.a.a.a.a.a.a.a.a.a.a.a.a.5.5.5.a.a.a.5.5.5.5.,.,.a.a.a.5.5.5.5.5.5.5.5.5.5.,.,.,.#.#.#.#.,.#.#.#.#.#.,.,.,.#.#.#.#.#.#.#.#.#.#.#.#.#.#.#.#.                                                                                                                                                                                                                                                                                                                                                                                                                                                                                                                                                                                                                                                                    : : : - - - - - - - - - - - - = = = = = = = = - - & & & & - - = = & & & & = = & & & & & & & & & & & & & & & & & & & & & & & & & & & & & & & & & & & & & & & & & & & & & & & & & & & & & &     ",
"    j.j.j.j.j.j.j.j.j.j.j.j.j.j.a.j.j.j.j.a.a.a.a.a.a.a.a.a.a.a.a.a.a.a.a.a.5.5.a.a.a.a.5.5.5.,.,.,.a.a.5.5.5.5.5.5.5.5.5.5.,.,.,.,.#.#.#.#.#.#.#.#.#.,.,.,.#.#.#.#.#.#.#.#.#.#.#.#.#.#.#.#.#.#.                                                                                                                                                                                                                                                                                                                                                                                                                                                                                                                                                                                                                                                                : : : - - - - - - - - - - - - = = = = = = = = = - & & & & & - = = = & & & & = = & & & & & & & & & & & & & & & & & & & & & & & & & & & & & & & & & & & & & & & & & & & & & & & & & & & & & &     ",
"    j.j.j.j.j.j.j.j.j.j.j.j.j.j.j.j.j.j.a.a.a.a.a.a.a.a.a.a.a.a.5.5.5.a.a.a.5.5.5.a.a.a.a.5.,.,.,.,.,.,.5.5.5.5.5.5.5.5.5.,.,.,.,.,.#.#.#.#.#.#.#.#.#.,.,.#.#.#.#.#.#.#.#.#.#.#.#.#.#.#.#.#.#.#.#.                                                                                                                                                                                                                                                                                                                                                                                                                                                                                                                                                                                                                                                            : : : - - - - - - - - - - - - = = = = = = = = = = & & & & & & = = = & & & & & & & & & & & & & & & & & & & & & & & & & & & & & & & & & & & & & & & & & & & & & & & & & & & & & & & & & & & & &     ",
"    j.j.j.j.j.j.j.j.j.j.j.j.j.j.j.j.j.a.a.a.a.a.a.a.a.a.a.a.a.5.5.5.a.a.a.a.5.5.a.a.a.a.a.,.,.,.,.,.,.,.5.5.5.5.5.5.5.5.,.,.,.,.,.,.#.#.,.,.#.#.#.#.,.,.#.#.#.#.#.#.#.#.#.#.#.#.#.#.#.#.#.#.#.#.#.#.                                                                                                                                                                                                                                                                                                                                                                                                                                                                                                                                                                                                                                                        : : : - - - - - - - - - - - - = = = = = = = = = = & & & & & & & = = = = & & & & & & & & & & & & & & & & & & & & & & & & & & & & & & & & & & & & & & & & & & & & & & & & & & & & & & & & & & & &     ",
"    j.j.j.j.j.j.j.a.j.j.j.j.j.j.j.j.a.a.a.a.a.a.a.a.a.a.a.a.5.5.5.5.5.a.a.a.a.a.a.5.a.a.,.a.a.a.a.5.5.5.5.5.5.5.5.5.5.,.,.,.,.#.#.#.,.,.,.,.,.,.,.,.,.#.#.#.#.#.#.#.#.#.#.#.#.#.#.#.#.#.#.#.#.#.#.#.#.                                                                                                                                                                                                                                                                                                                                                                                                                                                                                                                                                                                                                                                    - : : - - - - - - - - - - - - = = = = = = = = = = - - * & & & & & & & & & & & & & & & & & & & & & & & & & & & & & & & & & & & & & & & & & & & & & & & & & & & & & & & & & & & & & & & & & & & & &     ",
"    j.j.j.j.j.j.j.a.j.j.j.j.j.j.j.a.a.a.a.a.a.a.a.a.a.a.a.a.a.5.5.5.5.a.a.a.a.a.a.a.a.,.,.a.a.a.5.5.5.5.5.5.5.5.5.5.,.,.,.,.,.#.#.#.#.#.,.,.,.,.,.,.#.#.#.#.#.#.#.#.#.#.#.#.#.#.#.#.#.#.#.#.#.#.#.#.#.#.                                                                                                                                                                                                                                                                                                                                                                                                                                                                                                                                                                                                                                                : : : - - - - - - - - - - - - = = = = = = = = = = - - - * & & & & & & & & & & & & & & & & & & & & & & & & & & & & & & & & & & & & & & & & & & & & & & & & & & & & & & & & & & & & & & & & & & & & &     ",
"    a.j.j.j.j.j.j.j.a.a.j.j.j.j.a.a.a.a.a.a.a.a.a.a.a.a.a.a.a.a.a.a.a.a.5.5.a.a.5.5.,.,.a.a.a.5.5.5.5.5.5.5.5.5.5.,.,.,.,.,.#.#.,.,.,.#.#.#.,.,.,.#.#.#.#.#.#.#.#.#.#.#.#.#.#.#.#.#.#.#.#.#.#.#.#.#.#.#.#.                                                                                                                                                                                                                                                                                                                                                                                                                                                                                                                                                                                                                                            : : = = = - - - - - - - - - - = = = = = = = = = = & & & - - - & & & & & & & & & & & & & & & & & & & & & & & & & & & & & & & & & & & & & & & & & & & & & & & & & & & & & & & & & & & & & & & & & & & &     ",
"    a.j.j.j.j.j.j.j.j.j.j.j.j.a.a.a.a.a.a.a.a.a.a.a.a.5.a.a.a.a.a.a.a.a.5.5.a.a.5.,.,.,.a.a.5.5.5.5.5.5.5.5.5.5.,.,.,.,.,.,.#.#.,.,.,.,.#.#.,.,.#.#.#.#.#.#.#.#.#.#.#.#.#.#.#.#.#.#.#.#.#.#.#.#.#.#.#.#.#.#.                                                                                                                                                                                                                                                                                                                                                                                                                                                                                                                                                                                                                                        : : : - = = - - - - - - - - - = = = = = = = = = = & & & & & - - & & & & & = = = & & & & & & & & & & & & & & & & & & & & & & & & & & & & & & & & & & & & & & & & & & & & & & & & & & & & & & & & & & & &     ",
"    a.j.j.j.j.j.j.j.j.j.j.j.a.a.a.a.a.a.a.a.a.a.a.a.5.5.5.5.a.a.a.a.5.5.5.5.a.a.a.a.,.a.a.5.5.5.5.5.5.5.5.5.5.,.,.#.#.,.,.#.#.#.,.,.,.,.#.#.#.#.#.#.#.#.#.#.#.#.#.#.#.#.#.#.#.#.#.#.#.#.#.#.#.#.#.#.#.#.#.#.#.                                                                                                                                                                                                                                                                                                                                                                                                                                                                                                                                                                                                                                    - : : - - = = - - - - - - - - = = = = = = = = = = & & & & * & - * & & & = = = = & & & & & & & & & & & & & & & & & & & & & & & & & & & & & & & & & & & & & & & & & & & & & & & & & & & & & & & & & & & & &     ",
"    a.j.j.j.j.j.j.j.j.j.j.a.a.a.a.a.a.a.a.a.a.a.a.a.5.5.5.5.5.5.a.a.a.5.5.5.a.a.a.a.a.a.5.5.5.5.5.5.5.5.5.5.,.,.#.#.,.,.,.,.#.#.,.,.,.,.#.#.#.#.#.#.#.#.#.#.#.#.#.#.#.#.#.#.#.#.#.#.#.#.#.#.#.#.#.#.#.#.#.#.#.#.                                                                                                                                                                                                                                                                                                                                                                                                                                                                                                                                                                                                                                = - : - - - = - - - - - - - - = = = = = = = = = = & & & & & * & - - & & & & = = & & & & & & & & & & & & & & & & & & & & & & & & & & & & & & & & & & & & & & & & & & & & & & & & & & & & & & & & & & & & & &     ",
"    a.j.j.j.j.j.j.j.j.j.a.a.a.a.a.a.a.a.a.a.a.a.a.a.5.5.5.5.5.a.5.a.a.a.5.5.a.a.a.a.a.  5.5.5.5.5.5.5.5.5.,.,.,.,.,.,.,.#.#.#.#.,.,.,.,.,.#.#.#.#.#.#.#.#.#.#.#.#.#.#.#.#.#.#.#.#.#.#.#.#.#.#.#.#.#.#.#.#.#./ #.#.                                                                                                                                                                                                                                                                                                                                                                                                                                                                                                                                                                                                                            = = = - - - - - - - - - - - - = = = = = = = = = = - - & & & & = = = = = = & & & & & & & & & & & & & & & & & & & & & & & &   & & & & & & & & & & & & & & & & & & & & & & & & & & & & & & & & & & & & & & & & &     ",
"    a.j.j.j.j.j.j.j.j.a.a.a.a.a.a.a.a.a.a.a.a.a.a.a.5.5.5.5.a.a.a.a.5.a.5.,.a.a.a.a.#.    5.5.5.5.5.5.5.,.,.,.,.#.,.,.,.#.#.#.#.,.,.,.,.#.#.#.#.#.#.#.#.#.#.#.#.#.#.#.#.#.#.#.#.#.#.#.#.#.#.#.#.#.#.#.#.#.#./ / ) #.                                                                                                                                                                                                                                                                                                                                                                                                                                                                                                                                                                                                                        : : - = - - - - - - - - - - - = = = = = = = = = = & - - & & & = = = & = = = & & & & & & & & & & & & & & & & & & & & & & &     & & & & & & & & & & & & & & & & & & & & & & & & & & & & & & & & & & & & & & & & %     ",
"    a.j.j.j.j.j.j.j.a.a.a.a.a.a.a.a.a.a.a.a.5.5.a.a.a.5.a.a.a.a.a.a.a.a.,.,.,.a.,.,.#.      5.5.5.5.5.,.,.,.,.,.#.#.,.,.,.,.#.#.,.,.,.#.#.#.#.#.#.#.#.#.#.#.#.#.#.#.#.#.#.#.#.#.#.#.#.#.#.#.#.#.#.#./ ~ #.~ ~ / #.#.#.                                                                                                                                                                                                                                                                                                                                                                                                                                                                                                                                                                                                                    ; : : - - - - - - - - - - - - = = = = = = = = = = - - - - & & & & = = & & & & & & & & & & & & & & & & & & & & & & & & & &       & & & & & & & & & & & & & & & & & & & & & & & & & & & & & & & & & & & & & & & & &     ",
"    a.j.j.j.j.j.j.a.a.a.a.a.a.a.a.a.a.a.a.5.5.5.a.a.a.5.a.a.a.a.a.a.a.,.,.,.a.a.,.,.#.        5.5.5.,.,.#.,.,.,.#.#.,.,.,.,.#.,.,.,.#.#.#.#.#.#.#.#.#.#.#.#.#.#.#.#.#.#.#.#.#.#.#.#.#.#.#.#.#.#.#./ ~ ~ ~ ~ / / #.#.#./                                                                                                                                                                                                                                                                                                                                                                                                                                                                                                                                                                                                                 : : : - - - - - - - - - - - - = = = = = = = = = = - - - * * & & & & = = & & & & & & & & & & & & & & & & & & & & & & & & &         & & & & & & & & & & & & & & & & & & & & & & & & & & & & & & & & & & & & & & & & &     ",
"    a.j.j.j.j.j.a.a.a.a.a.a.a.a.a.a.a.a.a.a.5.5.a.a.a.a.a.a.5.5.a.a.,.,.a.a.a.5.,.,.5.          5.,.,.#.#.#.#.#.#.#.#.#.,.,.,.,.,.#.#.#.#.#.#.#.#.#.#.#.#.#.#.#.#.#.#.#.#.#.#.#.#.#.#.#.#.#.#.#.#.#.#.~ ~ ~ ~ ~ #.#.~ ~ !                                                                                                                                                                                                                                                                                                                                                                                                                                                                                                                                                                                                             - : : - - - - - - - - - - - - = = = = = = = = = = & & & - * & & & & & & = & & & & & & & & & & & & & & & & & & & & & & & &           & & & & & & & & & & & & & & & & & & & & & & & & & & & & & & & & & & & & & % % & &     ",
"    a.j.j.j.j.a.a.a.a.a.a.a.a.a.a.a.a.a.a.a.5.5.a.a.a.a.a.a.5.5.5.,.a.a.a.a.5.5.5.5.1.            ,.,.#.#.#.#.#.#.#.,.,.,.,.,.,.#.#.#.#.#.#.#.#.#.#.#.#.#.#.#.#.#.#.#.#.#.#.#.#.#.#.#.#.#.#.#./ #.#.#.#.~ ~ ~ #.#.#.~ ! #.'                                                                                                                                                                                                                                                                                                                                                                                                                                                                                                                                                                                                         : : - - - = - - - - - - - - - = = = = = = = = = = & & & & & * & & & & & & & & & & & & & & & & & & & & & & & & & & & & & &             & & & & & & & & & & & & & & & & & & & & & & & & & & & & & & & & & & & & % % % & &     ",
"    a.j.j.j.a.a.a.a.a.a.a.a.a.a.a.a.5.a.a.a.a.5.a.a.a.a.5.5.5.5.,.,.a.a.a.5.5.5.5.5.5.              ,.,.#.#.,.,.,.,.,.,.,.,.,.#.#.#.#.#.#.#.#.#.#.#.#.#.#.#.#.#.#.#.#.#.#.#.#.#.#.#.#.#.#.#./ ~ #.#.#.#.~ ~ #.#.#.) ! ! #.#.~                                                                                                                                                                                                                                                                                                                                                                                                                                                                                                                                                                                                     - : : = = = = - - - - - - - - = = = = = = = = = = & & & & * & & & & & & & & & = & & & & & & & & & & & & & & & & & & & & &               & & & & & & & & & & & & & & & & & & & & & & & & & & & & & & & & & & & % % % % & &     ",
"    a.j.j.a.a.a.a.a.a.a.a.a.a.a.a.5.5.5.a.a.a.5.5.5.a.a.a.5.5.,.,.,.a.a.5.5.5.5.5.5.5.                ,.#.,.,.,.,.,.,.,.,.,.#.#.#.#.#.#.#.#.#.#.#.#.#.#.#.#.#.#.#.#.#.#.#.#.#.#.#.#.#.#.#.#.) ~ #.#.#.#.~ ~ #.#.#.#.! ! #.) ) )                                                                                                                                                                                                                                                                                                                                                                                                                                                                                                                                                                                                 : : : - = = = = - - - - - - - = = = = = = = = = = & & & & & * & & & & & & & & = & & & & & & & & & & & & & & & & & & & & &                 & & & & & & & & & & & & & & & & & & & & & & & & & & & & & & & & & & & % % % % & &     ",
"    a.j.a.a.a.a.a.a.a.a.a.a.a.a.a.a.a.a.5.5.5.5.5.5.a.a.a.a.a.a.a.a.a.5.5.5.5.5.5.5.5.                  ,.,.,.,.,.,.,.,.,.#.#.#.#.#.#.#.#.#.#.#.#.#.#.#.#.#.#.#.#.#.#.#.#.#.#.#.#.#.#.#.#.#.#.#.#.~ ~ ~ ~ ~ #.#.#.#.#.#.) ) ) ~ ~                                                                                                                                                                                                                                                                                                                                                                                                                                                                                                                                                                                             - : : - - - - - - - - - - - - = = = = = = = = = = & & & & = & & & & = & & & & & & & & & & & & & & & & & & & & & & & & & &                   & & & & & & & & & & & & & & & & & & & & & & & & & & & & & & & & & % % & & & % % %     ",
"    a.a.a.a.a.a.a.a.a.a.a.a.a.5.a.a.a.a.5.5.5.a.5.5.a.a.a.a.,.a.a.a.5.5.5.5.5.5.5.5.5.                    ,.,.,.,.,.,.,.#.#.#.#.#.#.#.#.#.#.#.#.#.#.#.#.#.#.#.#.#.#.#.#.#.#.#.#.#.#.#./ #.#.#.#.#.#.~ ~ ~ ~ #.#.#.#.#.) ) ) ~ ~ ~ ~                                                                                                                                                                                                                                                                                                                                                                                                                                                                                                                                                                                         : : : - - - - - - - - - - - - = = = = = = = = = = & & & & & = & & & = = & & & & & & & & & & & & & & & & & & & & & & & & &                     & & & & & & & & & & & & & & & & & & & & & & & & & & & & & & & & % % % & & & % % %     ",
"    a.a.a.a.a.a.a.a.a.a.a.a.a.a.a.a.a.a.5.5.a.a.5.5.5.a.,.,.,.,.a.5.5.5.5.,.,.5.5.5.5.                      ,.,.,.,.,.#.#.#.#.#.#.#.#.#.#.#.#.#.#.#.#.#.#.#.#.#.#.#.#.#.#.#.#.#.#.#.#.~ ~ ~ #.#.#.#.#.#.~ #.#.#.#.#.) ) ) ~ ~ ~ ~ ~ ~                                                                                                                                                                                                                                                                                                                                                                                                                                                                                                                                                                                     : : : - - - - - - - - - - - - = = = = = = = = = = & & & & & & = = & & = = & & = & & & & & & & & & & & & & & & & & & & & &                       & & & & & & & & & & & & & & & & & & & & & & & & & & & & & & & % % % % & & & & % %     ",
"    a.a.a.a.a.a.a.a.a.a.a.5.5.a.5.a.a.a.5.5.a.a.5.5.a.a.,.,.,.,.5.5.5.5.,.,.,.,.5.5.,.                        ,.,.,.#.#.#.#.#.#.#.#.#.#.#.#.#.#.#.#.#.#.#.#.#.#.#.#.#.#.#.#.#.#.#.#./ ~ ~ ~ #.#.#.#.#.#.~ #.#.#.#.) ) ) ~ ~ ~ ~ ~ ~ ~ !                                                                                                                                                                                                                                                                                                                                                                                                                                                                                                                                                                                 : : : - - - - - - - - - - - - = = = = = = = = = = & & & & & = = = = & & = = & & & & & & & & & & & & & & & & & & & & & & &                         & & & & & & & & & & & & & & & & & & & & & & & & & & & & & & % % % % % & & & % % %     ",
"    a.a.a.a.a.a.a.a.a.a.5.5.a.a.5.5.5.5.a.a.a.a.a.a.a.a.,.,.a.5.5.5.5.5.5.5.5.5.5.,.,.                          ,.#.#.#.#.#.#.#.#.#.#.#.#.#.#.#.#.#.#.#.#.#.#.#.#.#.#.#.#.#.#.#./ ~ ~ #.~ ~ ~ ~ ~ ~ #.#.#.#.#.#.) ) ! ! ~ ~ ~ ~ ~ ~ ! ! !                                                                                                                                                                                                                                                                                                                                                                                                                                                                                                                                                                             = : : - - - - - - - - - - - - = = = = = = = = = = - - & & * - - - = & & & & & & & & & & & & & & & & & & & & & & & & & & &                           & & & & & & & & & & & & & & & & & & & & & & & & & & & & & % % & & & & % % % % & &     ",
"    a.a.a.a.a.a.a.a.a.a.5.a.a.a.5.5.5.5.a.a.a.a.a.a.a.a.,.,.5.5.5.5.5.5.5.5.5.5.,.,.,.                            #.#.#.#.#.#.#.#.#.#.#.#.#.#.#.#.#.#.#.#.#.#.#.#.#.#.#.#.#.#.#.~ ~ ~ #.~ ~ #.~ ~ ~ #.#.#.#.#.) ) ) ! ! ~ ~ ~ ~ ~ ! ! ! ! ~                                                                                                                                                                                                                                                                                                                                                                                                                                                                                                                                                                         : - : - - - - - - - - - - - - = = = = = = = = = = & - = & & - - - - = = & & & & & & & & & & & & & & & & & & & & & & & & &                             & & & & & & & & & & & & & & & & & & & & & & & & & & & & % % % & & & & % % % % & &     ",
"    a.a.a.a.a.a.a.a.5.5.5.5.a.a.a.a.5.5.a.a.5.5.,.,.a.a.a.5.5.5.5.5.5.5.5.5.5.,.,.,.,.                              #.#.#.#.#.#.#.#.#.#.#.#.#.#.#.#.#.#.#.#.#.#.#.#.#.#.#.#.#.#.~ ~ #.#.#.#.#.#.~ ~ ' #.#.#.) ) ) ~ ! ! ~ ~ ~ ~ ! ! ! ! ! ! !                                                                                                                                                                                                                                                                                                                                                                                                                                                                                                                                                                     : : : - - - - - - - - - - - - = = = = = = = = = = & & - - & & & & * & = = & & & & & & & & & & & & & & & & & & & & & & & &                               & & & & & & & & & & & & & & & & & & & & & & & & & & & & & % % % % & & % % & & & &     ",
"    a.a.a.a.a.a.a.a.5.5.5.5.a.a.a.a.a.a.5.5.5.,.,.,.a.a.5.5.5.5.5.5.5.5.5.5.,.,.,.,.,.                                #.#.#.#.#.#.#.#.#.#.#.#.#.#.#.#.#.#.#.#.#.#.#.#.#.#.#.#.~ ~ ~ #.#.#.#.#.#.~ ! ! #.#.) ) ) ~ ! ! ! ~ ~ ~ ! ! ! ! ! ! ! ! !                                                                                                                                                                                                                                                                                                                                                                                                                                                                                                                                                                 : : : - - - - - - - - - - - - = = = = = = = = = = & & * * * & & & & & & = = & & & & & & & & & & & & & & & & & & & & & & &                                 & & & & & & & & & & & & & & & & & & & & & & & & & & & & & % % % & & & % % & & & &     ",
"    a.a.a.a.a.a.a.a.5.a.5.a.a.a.5.a.a.a.5.5.a.a.a.a.a.5.5.5.5.5.5.5.5.5.5.,.,.,.,.#.,.                                  #.#.#.#.#.#.#.#.#.#.#.#.#.#.#.#.#.#.#.#.#.#.#.#.#.#./ #.#.#.#.#.) ~ ~ ~ ! ! ! #.) ) ) ~ ~ ~ ~ ~ ~ ~ ! ! ! ! ! ! ! ! ! ! ~                                                                                                                                                                                                                                                                                                                                                                                                                                                                                                                                                             * = = - - - - - - - - - - - - = = = = = = = = = = & & & & & & = = = = & & & & = & & & & & & & & & & & & & & & & & & & & &                                   & & & & & & & & & & & & & & & & & & & & & & & & & % % & & % % % % & & & & & & % &     ",
"    a.a.a.a.a.a.a.a.5.5.a.a.a.a.a.a.5.a.5.,.a.a.a.a.,.,.5.5.5.5.5.5.5.5.,.,.,.,.#.#.,.                                    #.#.#.#.#.#.#.#.#.#.#.#.#.#.#.#.#.#.#.#.#.#.#.#.#./ / ) #.#.#.#.#.~ ! ! ! #.) ) ) ~ ~ ~ ~ ~ ~ ~ ! ! ! ! ! ! ! ! ! ! ! ! !                                                                                                                                                                                                                                                                                                                                                                                                                                                                                                                                                         - : : = - - - - - - - - - - - = = = = = = = = = = & & & & & & & = = = = & & & & & & & & & & & & & & & & & & & & & & & & &                                     & & & & & & & & & & & & & & & & & & & & & & & & % % % & & % % % % & & & & % % % &     ",
"    a.a.a.a.5.5.5.5.5.5.5.a.a.a.a.a.a.a.,.,.,.a.,.,.,.,.5.5.5.5.5.5.5.,.,.,.,.#.#.,.,.                                      #.#.#.#.#.#.#.#.#.#.#.#.#.#.#.#.#.#.#.#./ ~ #.~ ~ / ) ) #.) #.#.#.#.#.#.) ) ) ~ ~ ~ ~ ~ ~ ~ ! ! ! ! ! ! ! ! ! ! ! ! ! ! !                                                                                                                                                                                                                                                                                                                                                                                                                                                                                                                                                     : : : - - - - - - - - - - - - = = = = = = = = = = - - * & & & & & & & = & & & = & & & & & & & & & & & & & & & & & & & & &                                       & & & & & & & & & & & & & & & & & & & & & & & % % % % & & & & % % % & % % % % % &     ",
"    a.a.a.a.5.5.a.a.5.5.5.a.a.a.a.a.a.,.,.,.a.a.,.,.,.,.5.5.5.5.5.5.,.,.,.,.,.#.#.,.,.                                        #.#.#.#.#.#.#.#.#.#.#.#.#.#.#.#.#.#./ ~ ~ ~ ~ / / ~ ) ) ) #.#.#.#.#.) ) ) ~ ~ ~ ~ ~ ~ ~ ! ! ! ! ! ! ! ! ! ! ! ! ! ! ! ! !                                                                                                                                                                                                                                                                                                                                                                                                                                                                                                                                                 - : : - - - - - - - - - - - - = = = = = = = = = = - - - * & & & & & & & & & & & & & & & & & & & & & & & & & & & & & & & &                                         & & & & & & & & & & & & & & & & & & & & & & % % % % % & & & & % % & & % % % % % &     ",
"    a.a.a.a.a.5.5.5.a.a.5.5.5.5.a.a.,.,.a.a.a.5.,.,.5.5.5.5.5.5.5.,.,.,.,.,.#.#.,.,.,.                                          #.#.#.#.#.#.#.#.#.#.#.#.#.#.#.#.#.#.#.~ ~ ~ ~ ~ ~ / #.#.#.' #.#.) ) ) ~ ~ ~ ~ ~ ~ ~ ! ! ! ! ! ! ! ! ! ! ! ! ! ! ! ! ! ! !                                                                                                                                                                                                                                                                                                                                                                                                                                                                                                                                             : : : - - - - - - - - - - - - = = = = = = = = = = & & & - - - & & & & & & & & & & & & & & & & & & & & & & & & & & & & & &                                           & & & & & & & & & & & & & & & & & & & & & % % & & & & % % % % & & & & % % % % % &     ",
"    a.a.a.a.a.a.5.5.5.a.5.5.5.5.5.,.a.a.a.a.5.5.5.,.5.5.5.5.5.5.,.,.,.,.,.,.#.#.,.,.,.                                            #.#.#.#.#.#.#.#.#.#.#.#.#.#./ #.#.#.#.~ ~ ~ #.~ ~ #.#.! ' #.) ) ) ! ~ ~ ~ ~ ~ ~ ! ! ! ! ! ! ! ! ! ! ! ! ! ! ! ! ! ! ! ! !                                                                                                                                                                                                                                                                                                                                                                                                                                                                                                                                         - : = - - - - - - - - - - - - = = = = = = = = = = & & & & & - - & & & & & = & & & & & & & & & & & & & & & & & & & & & & &                                             & & & & & & & & & & & & & & & & & & & & % % % & & & & % % % & & & & % % % % % % &     ",
"    a.a.a.5.5.a.5.5.a.a.a.a.a.a.,.,.a.a.a.5.5.5.5.5.5.5.5.5.5.,.,.#.#.,.,.#.#.#.,.,.,.                                              #.#.#.#.#.#.#.#.#.#.#.#./ ~ #.#.#.#.~ ~ #.#.#.#.#.#.! ! ! ! ) ~ ~ ~ ~ ~ ~ ~ ! ! ! ! ! ! ! ! ! ! ! ! ! ! ! ! ! ! ! ! ! ! !                                                                                                                                                                                                                                                                                                                                                                                                                                                                                                                                     : : : = = = = - - - - - - - - = = = = = = = = = = & & & & * & - * & & & = = = & & & & & & & & & & & & & & & & & & & & & &                                               & & & & & & & & & & & & & & & & & & & & & % % % % & & % % & & & & % % % % % % % &     ",
"    a.a.a.a.5.5.5.5.a.a.a.a.a.a.,.,.a.a.5.5.5.5.5.5.5.5.5.5.,.,.#.#.,.,.,.,.#.#.,.,.,.                                                #.#.#.#.#.#.#.#.#.#.#.) ~ #.#.#.#.~ ~ #.#.#.#.#.#.! ! ! ! ! ~ ~ ~ ~ ~ ~ ! ! ! ! ! ! ! ! ! ! ! ! ! ! ! ! ! ! ! ! ! ! ! ! z                                                                                                                                                                                                                                                                                                                                                                                                                                                                                                                                 : : : - = = = - - - - - - - - = = = = = = = = = = & & & & & * & - - & & & & = = & & & & & & & & & & & & & & & & & & & & &                                                 & & & & & & & & & & & & & & & & & & % & & % % % & & & % % % & & % % % % % % % % &     ",
"    a.a.5.5.a.a.5.5.a.a.a.5.,.,.a.a.a.5.5.5.5.5.5.5.5.5.5.,.,.,.,.,.,.,.#.#.#.#.,.,.#.                                                  #.#.#.#.#.#.#.#.#.#.#.#.#.~ ~ ~ ~ ~ #.#.#.#.#.#.) ) ) ~ ~ ~ ~ ~ ~ ~ ! ! ! ! ! ! ! ! ! ! ! ! ! ! ! ! ! ! ! ! ! ! ! ! ! ! !                                                                                                                                                                                                                                                                                                                                                                                                                                                                                                                             = : : - - - - - - - - - - - - = = = = = = = = = = - - & & & & = = = = = = & & & & & & & & & & & & & & & & & & & & & & & &                                                   & & & & & & & & & & & & & & & & & % % & & % % % % & & & & & & % % % % % % % % % &     ",
"    a.a.5.a.a.a.a.a.a.a.5.,.,.,.a.a.5.5.5.5.5.5.5.5.5.5.,.,.,.,.#.,.,.,.#.#.#.#.,.,.#.                                                    #.#.#.#.#.#./ #.#.#.#.#.#.~ ~ ~ ~ #.#.#.#.#.) ) ) ~ ~ ~ ~ ~ ~ ~ ! ! ! ! ! ! ! ! ! ! ! ! ! ! ! ! ! ! ! ! ! ! ! ! ! ! ! ! !                                                                                                                                                                                                                                                                                                                                                                                                                                                                                                                         : : : - - - - - - - - - - - - = = = = = = = = = = & - - & & & = = = & = = = & & & & & & & & & & & & & & & & & & & & & & &                                                     & & & & & & & & & & & & & & & & % % % & & % % % % & & & & & % % % % % % % % % % &     ",
"    5.5.5.5.a.a.a.a.a.a.a.a.,.,.a.5.5.5.5.,.,.5.5.5.5.,.,.,.,.,.#.#.,.,.,.,.#.#.#.#.#.                                                      #.#.#.#.#.~ ~ ~ #.#.#.#.#.#.~ #.#.#.#.#.) ) ) ~ ~ ~ ~ ~ ~ ~ ! ! ! ! ! ! ! ! ! ! ! ! ! ! ! ! ! ! ! ! ! ! ! ! ! ! ! ! ! !                                                                                                                                                                                                                                                                                                                                                                                                                                                                                                                         : : - - - - - - - - - - - - = = = = = = = = = = & & - - & & & & = = & & & & & & & & & & & & & & & & & & & & & & & & & &                                                       & & & & & & & & & & & & & & & % % & & & % % % & & & & & & % % % % % % % % % % % &     ",
"    5.5.5.5.a.a.a.a.a.a.a.a.,.,.5.5.5.5.,.,.,.,.5.5.,.,.#.,.,.,.#.#.,.,.,.,.#.,.#.#.#.                                                        #.#.#./ ~ ~ ~ #.#.#.#.#.#.~ #.#.#.#.) ) ) ~ ~ ~ ~ ~ ~ ~ ! ! ! ! ! ! ! ! ! ! ! ! ! ! ! ! ! ! ! ! ! ! ! ! ! ! ! ! ! ! ! !                                                                                                                                                                                                                                                                                                                                                                                                                                                                                                                     : : - - - - - - - - - - - - = = = = = = = = = = & & & * * & & & & = = & & & & & & & & & & & & & & & & & & & & & & & & &                                                         & & & & & & & & & & & & & & % % % & & & & % % & & & & & % % % % % % % % % % % % &     ",
"    a.a.a.a.a.a.a.a.a.a.a.a.a.5.5.5.5.5.5.5.5.5.5.,.,.#.#.#.#.#.#.#.#.#.,.,.,.,.,.#.#.                                                          / ~ ~ #.~ ~ ~ ~ ~ ~ #.#.#.#.#.#.) ) ! ! ~ ~ ~ ~ ~ ~ ! ! ! ! ! ! ! ! ! ! ! ! ! ! ! ! ! ! ! ! ! ! ! ! ! ! ! ! ! ! ! ! ! !                                                                                                                                                                                                                                                                                                                                                                                                                                                                                                                 : : - - - - - - - - - - - - = = = = = = - - - = & & = - * & & & & & & = & & & & & & & & & & & & & & & & & & & & & & & &                                                           % & & & & & & & & & & & & % % & & & & % & & & & % % % % % % % % % % % % % % % % &     ",
"    a.a.5.5.a.a.a.a.a.a.a.a.5.5.5.5.5.5.5.5.5.5.,.,.#.#.#.#.#.#.#.#.,.,.,.,.,.,.#.#.#.                                                            ~ ~ #.~ ~ #.~ ~ ~ #.#.#.#.#.) ) ) ! ! ~ ~ ~ ~ ~ ! ! ! ! ! ! ! ! ! ! ! ! ! ! ! ! ! ! ! ! ! ! ! ! ! ! ! ! ! ! ! ! ! ! ! !                                                                                                                                                                                                                                                                                                                                                                                                                                                                                                             : : - - - - - - - - - - - - = = = = = = = - - - * & & & - * & & & & & & & & & & & & & & & & & & & & & & & & & & & & & &                                                             % & & & & & & & & & & & % % % & & & & % & & & % % % % % % & % & % % % % % % % % %     ",
"    a.a.5.5.5.5.a.a.a.a.,.,.5.,.5.5.5.5.5.5.5.,.,.,.,.,.#.#.,.,.,.,.,.,.,.,.,.#.#.#.#.                                                              #.#.#.#.#.#.~ ~ ' #.#.#.) ) ) ~ ! ! ~ ~ ~ ~ ! ! ! ! ! ! ! ! ! ! ! ! ! ! ! ! ! ! ! ! ! ! ! ! ! ! ! ! ! ! ! ! ! ! ! ! ! !                                                                                                                                                                                                                                                                                                                                                                                                                                                                                                         : : - = = = - - - - - - - - = = = = = = = = - - & & & & - - & & & & & & & & = & & & & & & & & & & & & & & & & & & & & &                                                               % & & & & & & & & & & % % % % % & % % % % & & & % % % % % % % & % % % % % % % % %     ",
"    a.a.5.5.5.,.,.a.,.,.,.,.,.,.5.5.5.5.5.5.,.,.,.,.,.#.#.,.,.,.,.,.,.,.,.,.#.#.#.#.#.                                                                #.#.#.#.#.~ ! ! #.#.) ) ) ~ ! ! ! ~ ~ ~ ! ! ! ! ! ! ! ! ! ! ! ! ! ! ! ! ! ! ! ! ! ! ! ! ! ! ! ! ! ! ! ! ! ! ! ! ! ! z z                                                                                                                                                                                                                                                                                                                                                                                                                                                                                                     - : - - - = - - - - - - - - = = = = = = = = = - & & & & & - & & & & & & & & = & & & & & & & & & & & & & & & & & & & & &                                                                 % & & & & & & & & & & & % % % % % % % % % & & & % % % % % % % % % % % % % % % % %     ",
"    a.a.a.a.a.a.a.a.a.5.5.5.5.5.5.5.5.5.5.,.,.#.,.#.#.#.#.#.,.,.,.,.#.#.,.#.#.#.#.#.#.                                                                  #.#.#.#.#.#.! ! ! ) ) ~ ~ ~ ~ ~ ~ ~ ! ! ! ! ! ! ! ! ! ! ! ! ! ! ! ! ! ! ! ! ! ! ! ! ! ! ! ! ! ! ! ! ! ! ! ! ! ! z z z z                                                                                                                                                                                                                                                                                                                                                                                                                                                                                                 - : - - - - - - - - - - - - = = = = = = = = = = & & & - - - * & = & & & & & = & & & & & & & & & & & & & & & & & & & & &                                                                   & & & & & & & & & % % & & % % % % % % & & & & % % % % % % % % % % % % % % % % % %     ",
"    a.a.a.a.,.5.a.a.5.5.5.5.5.5.5.5.5.5.,.,.#.#.,.,.#.#.#.#.,.,.,.,.#.#.#.#.#.#.#.#.#.                                                                    #.#.#.#.#.! ! ) ) ~ ~ ~ ~ ~ ~ ~ ! ! ! ! ! ! ! ! ! ! ! ! ! ! ! ! ! ! ! ! ! ! ! ! ! ! ! ! ! ! ! ! ! ! ! ! ! ! ! z z z k !                                                                                                                                                                                                                                                                                                                                                                                                                                                                                             : : - - - - - - - - - - - - = = = = = = = = = = & & & & & - - & & = = & & & & & & & & & & & & & & & & & & & & & & & & &                                                                     & & & & & & & & % % % & & % % % % % % & & & % % % % % % % % % % % % % % % % % % %     ",
"    a.a.,.,.,.,.a.5.5.5.5.,.,.5.5.5.5.,.,.,.#.#.,.,.,.,.#.,.,.,.,.#.#.#.#.#.#.#.#.#.#.                                                                      #.#.#.! ! ! ) ~ ~ ~ ~ ~ ~ ~ ! ! ! ! ! ! ! ! ! ! ! ! ! ! ! ! ! ! ! ! ! ! ! ! ! ! ! ! ! ! ! ! ! ! ! ! ! ! ! ! z z k k ! !                                                                                                                                                                                                                                                                                                                                                                                                                                                                                         : : - - - - - - - - - - - - = = = = = = = = = = & & & & - & & & & & = = & & & & & & & & & & & & & & & & & & & & & & & &                                                                       & & & & & & & % % % % & & & & & & % & & & % % % % % % % % % % % % % % % % % % % %     ",
"    a.a.,.,.,.,.5.5.5.5.,.,.,.,.5.5.,.,.,.,.,.,.,.,.,.,.#.,.,.,.#.#.#.#.#.#.#.#.#.#.#.                                                                        #.#.) ! ! ~ ~ ~ ~ ~ ~ ~ ! ! ! ! ! ! ! ! ! ! ! ! ! ! ! ! ! ! ! ! ! ! ! ! ! ! ! ! ! ! ! ! ! ! ! ! ! ! z ! ! ! k ! ! ! ! !                                                                                                                                                                                                                                                                                                                                                                                                                                                                                     : : - - - - - - - - - - - - = = = = = = = = = = & & & & & * & & & & & = = & & & & & & & & & & & & & & & & & & & & & & &                                                                         & & & & & & % % % % % & & & & & & & & & % % % % % % % % % % % % % & % % % % % % %     ",
"    a.a.,.a.a.5.5.5.5.5.5.5.5.5.5.,.,.,.,.,.,.,.#.#.,.,.,.,.,.,.,.#.#.#.#.#.#.#.#.#.#.                                                                          ) ) ) ~ ~ ~ ~ ~ ~ ~ ! ! ! ! ! ! ! ! ! ! ! ! ! ! ! ! ! ! ! ! ! ! ! ! ! ! ! ! ! ! ! ! ! ! ! ! ! ! z z z z ! ! ! ! ! ! ! !                                                                                                                                                                                                                                                                                                                                                                                                                                                                                 : : - - - - - - - - - - - - = = = = = = - - - = & & & * & & & & & & = = & & & & & & & & & & & & & & & & & & & & & & & &                                                                           % & & & & % % & % % % & & & & & & & & % % % & % % % % % % % % % % % % % % % % % %     ",
"    a.a.,.,.5.5.5.5.5.5.5.5.5.5.,.,.,.,.,.,.,.,.#.#.,.,.,.,.,.,.#.#.#.#.#.#.#.#.#.#.#.                                                                            ) ~ ~ ~ ~ ~ ~ ~ ! ! ! ! ! ! ! ! ! ! ! ! ! ! ! ! ! ! ! ! ! ! ! ! ! ! ! ! ! ! ! ! ! ! ! ! ! ! z z z z k ! ! ! ! ! ! ! ! !                                                                                                                                                                                                                                                                                                                                                                                                                                                                             : : - - - - - - - - - - - - = = = = = = = - - - & & & & - = & & & & & = = & & & & & & & & & & & & & & & & & & & & & & &                                                                             % & & & % % % & % % % & & & & & & % % % % % & % % % % % % % % % % % % % % % % % %     ",
"    a.a.a.5.5.5.5.5.5.5.5.5.5.,.,.,.#.#.#.#.,.#.#.#.#.#.,.,.,.#.#.#.#.#.#.#.#.#.#.#.#.                                                                              ~ ~ ~ ~ ~ ~ ! ! ! ! ! ! ! ! ! ! ! ! ! ! ! ! ! ! ! ! ! ! ! ! ! ! ! ! ! ! ! ! ! ! ! ! ! ! z z ! ! k k ! ! k k k k k a ! z                                                                                                                                                                                                                                                                                                                                                                                                                                                                         : : - - - - - - - - - - - - = = = = = = = = - - & & & & - - = = & & & & = = & & & & & & & & & & & & & & & & & & & & & &                                                                               & & & & % & & & & % % & & % % % % % % % % % % % & % % % % % % % % % % % % % % % %     ",
"    a.a.5.5.5.5.5.5.5.5.5.5.,.,.,.,.#.#.#.#.#.#.#.#.#.,.,.,.#.#.#.#.#.#.#.#.#.#.#.#.#.                                                                                ~ ~ ~ ~ ! ! ! ! ! ! ! ! ! ! ! ! ! ! ! ! ! ! ! ! ! ! ! ! ! ! ! ! ! ! ! ! ! ! ! ! ! ! ! z z ! ! ! z ! k k k k a a a z z z                                                                                                                                                                                                                                                                                                                                                                                                                                                                     : : - - - - - - - - - - - - = = = = = = = = = - & & & & & - = = = & & & & = = & & & & & & & & & & & & & & & & & & & & &                                                                                 % & % & & & & & & % % & & % % % % % % % % % % % % % % % % % % % % % % % % % % % %     ",
"    ,.5.5.5.5.5.5.5.5.5.5.,.,.,.,.,.#.#.#.#.#.#.#.#.#.,.,.#.#.#.#.#.#.#.#.#.#.#.#.#.#.                                                                                  ~ ~ ! ! ! ! ! ! ! ! ! ! ! ! ! ! ! ! ! ! ! ! ! ! ! ! ! ! ! ! ! ! ! ! ! ! ! ! ! ! z z z z ! ! k k k k k ! ! ! ! z z z z k                                                                                                                                                                                                                                                                                                                                                                                                                                                                 : : - - - - - - - - - - - - = = = = = = = = = = & & & & & & = = = & & & & & & & & & & & & & & & & & & & & & & & & & & &                                                                                   % & & & & & & & & & % & % % % % % % % % % % % % % % % % % % % % % % % % % % % % %     ",
"    5.5.5.5.5.5.5.5.5.5.,.,.,.,.,.,.#.#.,.,.#.#.#.#.,.,.#.#.#.#.#.#.#.#.#.#.#.#.#.#.#.                                                                                    ! ! ! ! ! ! ! ! ! ! ! ! ! ! ! ! ! ! ! ! ! ! ! ! ! ! ! ! ! ! ! ! ! ! ! ! ! ! z z ! z ! ! ! k k k k ! ! ! ! z z z z k k k                                                                                                                                                                                                                                                                                                                                                                                                                                                             : : - - - - - - - - - - - - = = = = = = = = = = & & & & & & & = = = = & & & & & & & & & & & & & & & & & & & & & & & & &                                                                                     % & & & & & & & & % % % % % % % % % % & & % % % % % % % % % % % % % % % % % % % %     ",
"    5.5.5.5.5.5.5.5.5.,.,.,.,.#.#.#.,.,.,.,.,.,.,.,.,.#.#.#.#.#.#.#.#.#.#.#.#.#.#.#.#.                                                                                      ! ! ! ! ! ! ! ! ! ! ! ! ! ! ! ! ! ! ! ! ! ! ! ! ! ! ! ! ! ! ! ! ! ! ! ! z z ! ! ! ! ! ! k k ! ! ! ! ! z z z v a a k k k                                                                                                                                                                                                                                                                                                                                                                                                                                                         - : - = = = - - - - - - - - = = = = = = = = = = - - * & & & & & & & & & & & & & & & & & & & & & & & & & & & & & & & & &                                                                                       % % % % % & % & & & & & % % % % % % % % % % % % % % % % % % % % % % % % % % % % %     ",
"    5.5.5.5.5.5.5.5.,.,.,.,.,.#.#.#.#.#.,.,.,.,.,.,.#.#.#.#.#.#.#.#.#.#.#.#.#.#.#.#.#.                                                                                        ! ! ! ! ! ! ! ! ! ! ! ! ! ! ! ! ! ! ! ! ! ! ! ! ! ! ! ! ! ! ! ! ! ! z z z ! ! ! k ! ! k k ! ! ! ! z z z z a a a a k k k                                                                                                                                                                                                                                                                                                                                                                                                                                                     - : - = = = - - - - - - - - = = = = = = = = = = - - - * & & & & & & & & & & & & & & & & & & & & & & & & & & & & & & & &                                                                                         % % % % % % % & & & & & % % % % % % & % % % % % % % % % % % % % % % % % % % % % %     ",
"    5.5.5.5.5.5.5.,.,.,.,.,.#.#.,.,.,.#.#.#.,.,.,.#.#.#.#.#.#.#.#.#.#.#.#.#.#.#.#.#.#.                                                                                          ! ! ! ! ! ! ! ! ! ! ! ! ! ! ! ! ! ! ! ! ! ! ! ! ! ! ! ! ! ! ! ! z z z ! ! ! z k ! ! ! ! N a a a z z z k k k k k k k k k                                                                                                                                                                                                                                                                                                                                                                                                                                                 : : - - - - - - - - - - - - = = = = = = = = = = & & & - - - & & & & & & & & & & & & & & & & & & & & & & & & & & & & & &                                                                                           & & % % % & & & & % % % % % % % % % % % % % % % % % % % % % % % % % % % % % % % %     ",
"    5.5.5.5.5.5.,.,.,.,.,.,.#.#.,.,.,.,.#.#.,.,.#.#.#.#.#.#.#.#.#.#.#.#.#.#.#.#.#.#.#.                                                                                            ! ! ! ! ! ! ! ! ! ! ! ! ! ! ! ! ! ! ! ! ! ! ! ! ! ! ! ! ! ! z z z z z k ! ! ! ! ! ! ! N a a a z z k k k k k k k k k k k                                                                                                                                                                                                                                                                                                                                                                                                                                             : : - - - - - - - - - - - - = = = = = = = = = = & & & & & - - & & & & & = = = & & & & & & & & & & & & & & & & & & & & &                                                                                             & & & % % & & % & % % % % % % % % % % & % % % % % % % % % % % % % % % % % % % % %     ",
"    5.5.5.5.5.,.,.#.#.,.,.#.#.#.,.,.,.,.#.#.#.#.#.#.#.#.#.#.#.#.#.#.#.#.#.#.#.#.#.#.#.                                                                                              ! ! ! ! ! ! ! ! ! ! ! ! ! ! ! ! ! ! ! ! ! ! ! ! ! ! ! ! z z z ! ! ! k k k ! k k ! ! ! z a a z k k k k k k k k k k k a a                                                                                                                                                                                                                                                                                                                                                                                                                                         : : - - - - - - - - - - - - = = = = = = = = = = & & & & * & - * & & & = = = = & & & & & & & & & & & & & & & & & & & & &                                                                                               & & & % & & & % % % % % % % % % % % % % % % % % % % % % % % % % % % % % % % % % #     ",
"    5.5.5.5.,.,.#.#.,.,.,.,.#.#.,.,.,.,.#.#.#.#.#.#.#.#.#.#.#.#.#.#.#.#.#.#.#.#.#.#.#.                                                                                                ! ! ! ! ! ! ! ! ! ! ! ! ! ! ! ! ! ! ! ! ! ! ! ! ! ! z z z ! ! ! ! k k k k k a ! ! z a a a a k k k k k k k k k k a a a a                                                                                                                                                                                                                                                                                                                                                                                                                                     : : - - - - - - - - - - - - = = = = = = = = = = & & & & & * & - - & & & & = = & & & & & & & & & & & & & & & & & & & & &                                                                                                 & & & % & & & % % % % % % % % % % % % % % % % % % % % % % % % % % % % % % % % % #     ",
"    5.5.5.,.,.,.,.,.,.,.#.#.#.#.,.,.,.,.,.#.#.#.#.#.#.#.#.#.#.#.#.#.#.#.#.#.#.#.#.#.#.                                                                                                  ! ! ! ! ! ! ! ! ! ! ! ! ! ! ! ! ! ! ! ! ! ! ! ! ! ! ! ! ! ! ! ! k k k k a a ! z z z z k k k k k k k k k k k a a a a a a                                                                                                                                                                                                                                                                                                                                                                                                                                 - : - - - - - - - - - - - - = = = = = = = = = = - - & & & & = = = = = = & & & & & & & & & & & & & & & & & & & & & & & &                                                                                                   % % % & & & & % % % % % % % % % % % % % % % % % % % % % % % % % % % % % % % % % #     ",
"    5.5.,.,.,.,.#.,.,.,.#.#.#.#.,.,.,.,.#.#.#.#.#.#.#.#.#.#.#.#.#.#.#.#.#.#.#.#.#.#.#.                                                                                                    ! ! ! ! ! ! ! ! ! ! ! ! ! ! ! ! ! ! ! ! ! ! z ! ! ! ! k ! ! ! k k k a a a z z z z k k k k k k a k k k k a a a a a a a a                                                                                                                                                                                                                                                                                                                                                                                                                             : : - - - - - - - - - - - - = = = = = = = = = = & - - & & & = = = & = = = & & & & & & & & & & & & & & & & & & & & & & &                                                                                                     % % & & & & % % % % % % % % % % % % % % % % % % % % % % % % % % % % % % % % % % $     ",
"    5.,.,.,.,.,.#.#.,.,.,.,.#.#.,.,.,.#.#.#.#.#.#.#.#.#.#.#.#.#.#.#.#.#.#.#.#.#.#.#.#.                                                                                                    ! ! ! ! ! ! ! ! ! ! ! ! ! ! ! ! ! ! ! ! ! z z ! ! k ! k k ! ! ! ! ! ! a a z z z k k k k k k k k k k k a a a a a a a a a a                                                                                                                                                                                                                                                                                                                                                                                                                         : : - - = - - - - - - - - - = = = = = = = = = = & & - - & & & & = = & & & & & & & & & & & & & & & & & & & & & & & & & &                                                                                                       % & & & & & % % % % % % % % % % % % % % % % % % % % % % % % % % % % % % % % % $ $     ",
"    ,.,.#.,.,.,.#.#.,.,.,.,.#.,.,.,.#.#.#.#.#.#.#.#.#.#.#.#.#.#.#.#.#.#.#.#.#.#.#.#.#.                                                                                                      ! ! ! ! ! ! ! ! ! ! ! ! ! ! ! ! ! ! ! z z z ! ! k k k k ! k k N ! ! a a z z k k k k k k k k k k k a a a a a a a a a a a a                                                                                                                                                                                                                                                                                                                                                                                                                     - : - - - - - - - - - - - - = = = = = = = = = = & & & * * & & & & = = & & & & & & & & & & & & & & & & & & & & & & & & & &                                                                                                       % & & & % % % % % & % & % % % % % % % % % % % % % % % % % % % % % % % % % % $ $ $     ",
"    ,.,.#.#.#.#.#.#.#.#.,.,.,.,.,.#.#.#.#.#.#.#.#.#.#.#.#.#.#.#.#.#.#.#.#.#.#.#.#.#.#.                                                                                                        ! ! ! ! ! ! ! ! ! ! ! ! ! ! ! ! ! ! z z z k k k k k k k k ! ! ! z z z z k k k k k k k k k k k a a a a a a a a a a a a a a                                                                                                                                                                                                                                                                                                                                                                                                                 : : - - - - - - - - - - - - = = = = = = - - - = & & & * * & & & & & & = & & & & & & & & & & & & & & & & & & & & & & & & &                                                                                                         & & & % % % % % % % % % % % % % % % % % % % % % % % % % % % % % % % % % % $ $ $ $     ",
"    ,.,.#.#.#.#.#.#.,.,.,.,.,.,.#.#.#.#.#.#.#.#.#.#.#.#.#.#.#.#.#.#.#.#.#.#.#.#.#.#.#.                                                                                                          ! ! ! ! ! ! ! ! ! ! ! ! ! ! ! z ! z z k k k k k k k k a ! ! z z z z k k k k k k k k k k k a a a a a a a a a a a a a a a a                                                                                                                                                                                                                                                                                                                                                                                                             - : - - - - - - - - - - - - = = = = = = = - - - & & & & - * & & & & & & & & & & & & & & & & & & & & & & & & & & & & & & &                                                                                                           & & % % % % % % % % % % % % % % % % % % % % % % % % % % % % % % % % % % $ $ $ $ $     ",
"    ,.,.#.#.,.,.,.,.,.,.,.,.,.#.#.#.#.#.#.#.#.#.#.#.#.#.#.#.#.#.#.#.#.#.#.#.#.#.#.#.#.                                                                                                            z ! ! ! ! ! ! ! ! ! ! ! ! ! ! ! ! k k k k ! ! ! ! N ! ! z z z z k k k k k k k k k k k a a a a a a a a a a a a a a a a a k                                                                                                                                                                                                                                                                                                                                                                                                         : : - - - - - - - - - - - - = = = = = = = = - - & & & & - - & & & & & & & & = & & & & & & & & & & & & & & & & & & & & & &                                                                                                             & % % % % % % % % % % % % % % % % % % % % % % % % % % % % % % % % % % $ $ $ $ $ $     ",
"    ,.,.#.,.,.,.,.,.,.,.,.,.#.#.#.#.#.#.#.#.#.#.#.#.#.#.#.#.#.#.#.#.#.#.#.#.#.#.#.#.#.                                                                                                              z ! ! ! ! ! ! ! ! ! ! ! ! ! ! z k k ! ! ! ! ! ! ! ! z z z z k k k k k k k k k k k a a a a a a a a a a a a a a a a a a a a                                                                                                                                                                                                                                                                                                                                                                                                     - : - - - - - - - - - - - - = = = = = = = = = - & & & & & - = & & & & & & & = & & & & & & & & & & & & & & & & & & & & & &                                                                                                               % % % % % % % % % % & % % % % % % % % % % % % % % % % % % % % % % % $ $ $ $ $ $ $     ",
"    ,.,.,.,.,.,.,.,.,.,.,.#.#.#.#.#.#.#.#.#.#.#.#.#.#.#.#.#.#.#.#.#.#.#.#.#.#.#.#.#.#.                                                                                                                ! ! ! ! ! ! ! ! ! z z ! ! ! ! k k k k k k ! ! ! z z z z k k k k k k k k k k k a a a a a a a a a a a a a a a a a a a a a a                                                                                                                                                                                                                                                                                                                                                                                                 : : - - - - - - - - - - - - = = = = = = = = = = & & & & & & = = & = & & & & & & & & & & & & & & & & & & & & & & & & & & &                                                                                                                 % % % % % % & % % % % & % % % % % % % % % % % % % % % % % % % % % $ $ $ $ $ $ $ $     ",
"    ,.,.,.,.#.#.,.,.,.,.#.#.#.#.#.#.#.#.#.#.#.#.#.#.#.#.#.#.#.#.#.#.#.#.#.#.#.#.#.#.#.                                                                                                                  ! ! ! ! ! ! ! ! z z ! ! ! ! k k k k ! a ! ! z z z z k k k k k k k k k k k a a a a a a a a a a a a a a a a a a a a a a a a                                                                                                                                                                                                                                                                                                                                                                                             : : - - - - - - - - - - - - = = = = = = = = = = & & & & & & & = = = = & & & & & & & & & & & & & & & & & & & & & & & & & &                                                                                                                   % % % % % % % % % % % % % % % % % % % % % % % % % % % % % % % % $ $ $ $ $ $ $ $ $     ",
"    ,.,.#.#.#.#.,.,.,.#.#.#.#.#.#.#.#.#.#.#.#.#.#.#.#.#.#.#.#.#.#.#.#.#.#.#.#.#.#.#.#.                                                                                                                    ! ! ! ! ! ! ! z z k z ! ! ! k ! ! ! ! ! z z z v a a k k k k k k k k k a a a a a a a a a a a a a a a a a a a a a a a a a a                                                                                                                                                                                                                                                                                                                                                                                         : : - - - - - - - - - - - - = = = = = = = = = = - - * & & & & & & & = = & & = & & & & & & & & & & & & & & & & & & & & & &                                                                                                                     % % % % % % % % % % % % % % % % % % % % % % % % % % % % % % % $ $ $ $ $ $ $ $ $ $     ",
"    ,.,.#.#.#.#.,.,.#.#.#.#.#.#.#.#.#.#.#.#.#.#.#.#.#.#.#.#.#.#.#.#.#.#.#.#.#.#.#./ )                                                                                                                       ! ! ! ! ! z z k k k ! ! ! k ! ! ! ! z z z z a a a a k k k k k k k a a a a a a a a a a a a a a a a a a a a a a a a a a a a                                                                                                                                                                                                                                                                                                                                                                                     = : - - - - - - - - - - - - = = = = = = = = = = - - - * & & & & & & & = = & & & & & & & & & & & & & & & & & & & & & & & &                                                                                                                       % % % % % % % % % % % % % % % % % % % % % % % % % % % % % % $ $ $ $ $ $ $ $ $ $ $     ",
"    ,.#.#.,.,.,.,.#.#.#.#.#.#.#.#.#.#.#.#.#.#.#.#.#.#.#.#.#.#.#.#.#.#.#.#.#.#.#.#.#.)                                                                                                                         ! z z z z k k k k ! ! ! ! ! N a a z z z k k k k k k k k k k k a a a a a a a a a a a a a a a a a a a a a a a a a a a a a a                                                                                                                                                                                                                                                                                                                                                                                 : : - - - - - - - - - - - - = = = = = = = = = = & & & - - - & & & & & & & & & & & & & & & & & & & & & & & & & & & & & & &                                                                                                                         % % % % % % % % % % % % % % % % % % % % % % % % % % % % % $ $ $ $ $ $ $ $ $ $ $ $     ",
"    ,.#.,.,.,.,.#.#.#.#.#.#.#.#.#.#.#.#.#.#.#.#.#.#.#.#.#.#.#.#.#.#.#.#.#.#.#./ #.#.)                                                                                                                           z ! z k ! k k k ! ! ! ! ! ! a a z z k k k k k k k k a a k a a a a a a a a a a a a a a a a a a a a a a a a a a a a a a a a                                                                                                                                                                                                                                                                                                                                                                             - : - - = - - - - - - - - - = = = = = = = = = = & & & & & - - & & & & & = & & & & & & & & & & & & & & & & & & & & & & & &                                                                                                                           % % % % % % % % % % % % % % % % % % % % % % % % % % % % $ $ $ $ $ $ $ $ $ $ $ $ $     ",
"    #.#.,.,.,.#.#.#.#.#.#.#.#.#.#.#.#.#.#.#.#.#.#.#.#.#.#.#.#.#.#.#.#.#.#.#./ ~ #.#.)                                                                                                                             z ! ! ! ! k k ! ! ! ! a a a a z k k a k k k k k k k a a a a a a a a a a a a a a a a a a a a a a a a a a a a a a a a a a a                                                                                                                                                                                                                                                                                                                                                                         - : - - = - - - - - - - - - = = = = = = = = = = & & & & * & - * & & & = = = & & & & & & & & & & & & & & & & & & & & & & &                                                                                                                             % % % % % % % % % % % % % % % % % % % % % % % % % % % $ $ $ $ $ $ $ $ $ $ $ $ $ $     ",
"    #.#.,.,.#.#.#.#.#.#.#.#.#.#.#.#.#.#.#.#.#.#.#.#.#.#.#.#.#.#.#.#.#.#.#.#.) ~ #.#.)                                                                                                                               b ! ! ! k k k a ! N v a a a k k k k k k k k k k k a a a a a a a a a a a a a a a a a a a a a a a a a a a a a a a a a a a a                                                                                                                                                                                                                                                                                                                                                                     : : - - - - - - - - - - - - = = = = = = = = = = & & & & & * & - - & & & & = = & & & & & & & & & & & & & & & & & & & & & &                                                                                                                               % % % % % % % % % % % % % % % % % % % % % % % % % % $ $ $ $ $ $ $ $ $ $ $ $ $ $ $     ",
"    ,.,.,.#.#.#.#.#.#.#.#.#.#.#.#.#.#.#.#.#.#.#.#.#.#.#.#.#.#.#.#.#.#.#./ ~ ~ ~ ~ #.)                                                                                                                                 z ! ! ! ! ! ! ! z z z z k k k k k k k k k k k a a a a a a a a a a a a a a a a a a a a a a a a a a a a a a a a a 6 6 6 a 3                                                                                                                                                                                                                                                                                                                                                                 = - - - - - - - - - - - - - = = = = = = = = = = - - & & & & = = = = = = & & & & & & & & & & & & & & & & & & & & & & & & &                                                                                                                                 % % % % % % % % % % % % % % % % % % % % % % % % % $ $ $ $ $ $ $ $ $ $ $ $ $ $ $ $     ",
"    ,.,.#.#.#.#.#.#.#.#.#.#.#.#.#.#.#.#.#.#.#.#.#.#.#.#.#.#.#.#.#.#.#.#.~ ~ ~ ~ #.#.)                                                                                                                                   ! ! ! ! ! ! z z z z k k k k k k k k k k k a a a a a a a a a a a a a a a a a a a a a a a a a a a a a a a a a a 6 6 6 a a a                                                                                                                                                                                                                                                                                                                                                             : : - - - - - - - - - - - - = = = = = = = = = = & - - & & & = = = & = = = & & & & & & & & & & & & & & & & & & & & & & & &                                                                                                                                   % % % % % % % % % % % % % % % % % % % % % % % % $ $ $ $ $ $ $ $ $ $ $ $ $ $ $ $ $     ",
"    ,.#.#.#.#.#.#.#.#.#.#.#.#.#.#.#.#.#.#.#.#.#.#.#.#.#.#.#.#.#.#.#.#./ ~ ~ #.#.#.#.)                                                                                                                                     b ! ! ! z z z v a a k k k k k k k k k a a a a a a a a a a a a a a a a a a a a a a a a a a a a a a a 6 a a a a 6 6 a a a 3                                                                                                                                                                                                                                                                                                                                                         ; : - - - - - - - - - - - - = = = = = = = = = = - - - - & & & & = = & & & & & & & & & & & & & & & & & & & & & & & & & & &                                                                                                                                     % % % % % % % % % % % % % % % % % % % % % % % $ $ $ $ $ $ $ $ $ $ $ $ $ $ $ $ $ $     ",
"    ,.#.#.#.#.#.#.#.#.#.#.#.#.#.#.#.#.#.#.#.#.#.#.#.#.#.#.#.#.#.#./ ~ ~ #.#.#.#.#.#.)                                                                                                                                       b ! z z z z a a a a k k k k k k k a a a a a a a a a a a a a a a a a a a a a a a a a a a a a a a 6 6 a a a a 6 6 a a a a a                                                                                                                                                                                                                                                                                                                                                     : : - - - - - - - - - - - - = = = = = = = = = = - - - * * & & & & = = & & & & & & & & & & & & & & & & & & & & & & & & & &                                                                                                                                       % % % % % % % % % % % % % % % % % % % % % % $ $ $ $ $ $ $ $ $ $ $ $ $ $ $ $ $ $ $     ",
"    ,.#.#.#.#.#.#.#.#.#.#.#.#.#.#.#.#.#.#.#.#.#.#.#.#.#.#.#.#.#.#.#.~ ~ ~ ~ #.#.#.#.)                                                                                                                                         k z z z k k k k k k k k k k k a a a a a a a a a a a a a a a a a a a a a a a a a a a a a a a a a a 6 6 6 3 a a a a a a 6 3                                                                                                                                                                                                                                                                                                                                                 : : - - - - - - - - - - - - = = = = = = = = = = & & & - * & & & & & & = & & & & & & & & & & & & & & & & & & & & & & & & &                                                                                                                                         % % % % % % % % % % % % % % % % % % % % % $ $ $ $ $ $ $ $ $ $ $ $ $ $ $ $ $ $ $ $     ",
"    ,.#.#.#.#.#.#.#.#.#.#.#.#.#.#.#.#.#.#.#.#.#.#.#.#.#.#.#.#.#.#.#.~ ~ ~ ~ #.#.#.#.)                                                                                                                                           ! z k k k k k k k k k k k a a a a a a a a a a a a a a a a a a a a a a a a a a a a a a a a a a a 6 6 3 3 a a a a a a 6 6 6                                                                                                                                                                                                                                                                                                                                             : : - - - - - - - - - - - - = = = = = = = = = = & & & & & * & & & & & & & & & & & & & & & & & & & & & & & & & & & & & & &                                                                                                                                           % % % % % % % % % % % % % % % % % % % % $ $ $ $ $ $ $ $ $ $ $ $ $ $ $ $ $ $ $ $ $     ",
"    ,.#.#.#.#.#.#.#.#.#.#.#.#.#.#.#.#.#.#.#.#.#.#.#.#.#.#.#./ ) #.#.#.#.~ #.#.#.#.#.)                                                                                                                                             a k k k k k k k k k k a a a a a a a a a a a a a a a a a a a a a a a a a a a a a a a 6 6 6 a a 6 6 6 a a a 3 3 a a 6 6 6 6                                                                                                                                                                                                                                                                                                                                         - : - - - - - - - - - - - - = = = = = = = = = = & & & & * & & & & & & & & & = & & & & & & & & & & & & & & & & & & & & & &                                                                                                                                             % % % % % % % % % % % % % % % % % % % $ $ $ $ $ $ $ $ $ $ $ $ $ $ $ $ $ $ $ $ $ $     ",
"    ,.#.#.#.#.#.#.#.#.#.#.#.#.#.#.#.#.#.#.#.#.#.#.#.#.#.#./ ~ ~ #.#.#.#.~ ~ #.#.#.#.)                                                                                                                                               b k k k k k k k k a a a a a a a a a a a a a a a a a a a a a a a a a a a a a a a 6 6 6 6 a a 6 6 6 a a a 6 6 a 6 6 6 6 6 6                                                                                                                                                                                                                                                                                                                                     : : - - - = - - - - - - - - = = = = = = = = = = & & & & & * & & & & & & & & = & & & & & & & & & & & & & & & & & & & & & &                                                                                                                                               % % % % % % % % % % % % % % % % % % $ $ $ $ $ $ $ $ $ $ $ $ $ $ $ $ $ $ $ $ $ $ $     ",
"    ,.#.#.#.#.#.#.#.#.#.#.#.#.#.#.#.#.#.#.#.#.#.#.#.#.#.#.#.#.#.~ ~ #.#.~ ~ ~ ~ #.#.~                                                                                                                                                 k k k k k k k a a a a a a a a a a a a a a a a a a a a a a a a a a a a a a a a 6 6 6 a a 6 6 6 3 a a a 6 6 6 6 6 6 6 6 6 6                                                                                                                                                                                                                                                                                                                                 : : - - - - - - - - - - - - = = = = = = = = = = & & & & = & & & & = & & & & & & & & & & & & & & & & & & & & & & & & & & &                                                                                                                                                 % % % % % % % % % % % % % % % % % $ $ $ $ $ $ $ $ $ $ $ $ $ $ $ $ $ $ $ $ $ $ $ @     ",
"    ,.#.#.#.#.#.#.#.#.#.#.#.#.#.#.#.#.#.#.#.#.#.#.#.#./ #.#.#.#.~ #.#.#.#.~ ~ ! #.#.~                                                                                                                                                   k k k k k a a a a a a a a a a a a a a a a a a a a a a a a a a a a a a a a a 6 a 6 6 6 6 6 6 a a a a 6 6 6 6 6 6 6 6 6 6 6                                                                                                                                                                                                                                                                                                                             = : - - - - - - - - - - - - = = = = = = = = = = & & & & & = & & & = = & & & & & & & & & & & & & & & & & & & & & & & & & &                                                                                                                                                   % % % % % % % % % % % % % % % % $ $ $ $ $ $ $ $ $ $ $ $ $ $ $ $ $ $ $ $ $ $ $ @ @     ",
"    ,.#.#.#.#.#.#.#.#.#.#.#.#.#.#.#.#.#.#.#.#.#.#.#./ ~ #.~ #.#.~ ~ #.#.#.#.' ' #.! ~                                                                                                                                                     z k k a a a a a a a a a a a a a a a a a a a a a a a a a a a a a a a a 6 a a a a a 6 3 6 6 3 a a a 6 6 6 6 6 6 6 6 6 6 6 6                                                                                                                                                                                                                                                                                                                         : : - - - - - - - - - - - - = = = = = = = = = = & & & & & & = = & & = = & & = & & & & & & & & & & & & & & & & & & & & & &                                                                                                                                                     % % % % % % % % % % % % % % % $ $ $ $ $ $ $ $ $ $ $ $ $ $ $ $ $ $ $ $ $ $ $ @ @ @     ",
"    ,.#.#.#.#.#.#.#.#.#.#.#.#.#.#.#.#.#.#.#.#.#.#.#.~ ~ ~ ~ #.#.~ ~ #.#.#.#.#.#.#.) ~                                                                                                                                                       k a a a a a a a a a a a a a a a a a a a a a a a a a a a a a a a a a 6 a a a a a a a 6 6 3 a a 6 6 6 6 6 6 6 6 6 6 6 6 6                                                                                                                                                                                                                                                                                                                         : - - - - - - - - - - - - = = = = = = = = = = & & & & & = = = = & & = = & & & & & & & & & & & & & & & & & & & & & & & &                                                                                                                                                       % % % % % % % % % % % % % % $ $ $ $ $ $ $ $ $ $ $ $ $ $ $ $ $ $ $ $ $ $ $ @ @ @ @     ",
"    ,.#.#.#.#.#.#.#.#.#.#.#.#.#.#.#.#.#.#.#.#.#.#.#.#.~ ~ ~ ~ #.~ ~ #.#.#.#.#.#.) ) )                                                                                                                                                         a a a a a a a a a a a a a a a a a a a a a a a a a a a a a a 6 a a a a a 3 a 3 a a a a a a 6 6 6 6 6 6 6 6 6 6 6 6 6 6 6                                                                                                                                                                                                                                                                                                                     : - - - - - - - - - - - - = = = = = = = = = = - - & & * - - - = & & & & & & & & & & & & & & & & & & & & & & & & & & & &                                                                                                                                                         % % % % % % % % % % % % % $ $ $ $ $ $ $ $ $ $ $ $ $ $ $ $ $ $ $ $ $ $ $ @ @ @ @ @     ",
"    ,.#.#.#.#.#.#.#.#.#.#.#.#.#.#.#.#.#.#.#.#.#.#.#./ ~ ~ ~ ~ #.~ ~ #.#.#.#.#.) ) ) ~                                                                                                                                                           a a a a a a a a a a a a a a a a a a a a a a a a a a a a 6 6 3 3 a a a 3 a a a a a a a 6 6 6 6 6 6 6 6 6 6 6 6 6 6 6 6 6                                                                                                                                                                                                                                                                                                                 : - - - - - - - - - - - - = = = = = = = = = = & - = & & - - - - = = & & & & & & & & & & & & & & & & & & & & & & & & & &                                                                                                                                                           % % % % % % % % % % % % $ $ $ $ $ $ $ $ $ $ $ $ $ $ $ $ $ $ $ $ $ $ $ @ @ @ @ @ @     ",
"    ,.#.#.#.#.#.#.#.#.#.#.#.#.#.#.#.#.#.#.#.#.#.~ / #.#.~ ~ #.#.#.#.#.#.#.#.) ) ) ~ ~                                                                                                                                                             a a a a a a a a a a a a a a a a a a a a a a a a a a 6 6 6 6 a a a 3 a 6 6 6 6 a a 6 6 6 6 6 6 6 6 6 6 6 6 6 6 6 6 6 6 6                                                                                                                                                                                                                                                                                                             : - - - - - - - - - - - - = = = = = = = = = = & & - - & & & & * & = = & & & & & & & & & & & & & & & & & & & & & & & & &                                                                                                                                                             % % % % % % % % % % % $ $ $ $ $ $ $ $ $ $ $ $ $ $ $ $ $ $ $ $ $ $ $ @ @ @ @ @ @ @     ",
"    ,.#.#.#.#.#.#.#.#.#.#.#.#.#.#.#.#.#.#.#.) ~ ~ / #./ ~ ~ ~ #.#.#.#.#.#.) ) ) ~ ~ ~                                                                                                                                                               a a a a a a a a a a a a a a a a a a a a a a a a 6 6 6 6 6 a a a 6 6 6 6 6 6 a 6 6 6 6 6 6 6 6 6 6 6 6 6 6 6 6 6 6 6 6 6                                                                                                                                                                                                                                                                                                         : - - - - - - - - - - - - = = = = = = = = = = & & * * * & & & & & & = = & & & & & & & & & & & & & & & & & & & & & & & &                                                                                                                                                               % % % % % % % % % % $ $ $ $ $ $ $ $ $ $ $ $ $ $ $ $ $ $ $ $ $ $ $ @ @ @ @ @ @ @ @     ",
"    ,.#.#.#.#.#.#.#.#.#.#.#.#.#.#.#.#.#./ ~ ~ ~ ) #.#./ ~ ~ ~ ~ #.#.#.#.) ) ) ~ ~ ~ ~                                                                                                                                                                 a a a a a a a a a a a a a a a a a a a a a a a a 6 6 6 a a a a a 3 a a a a 6 6 6 6 6 6 6 6 6 6 6 6 6 6 6 6 2 2 2 6 6 6 2                                                                                                                                                                                                                                                                                                     - - - - - - - - - - - - - = = = = = = = = = = & & & & & & = = = = & & & & = & & & & & & & & & & & & & & & & & & & & & &                                                                                                                                                                 % % % % % % % % % $ $ $ $ $ $ $ $ $ $ $ $ $ $ $ $ $ $ $ $ $ $ $ @ @ @ @ @ @ @ @ @     ",
"    #.#.#.#.#.#.#.#.#.#.#.#.#.#.#.#.#./ ~ ~ ~ ~ #.#.#.#.~ ~ ~ ! #.#.#.) ) ) ~ ! ~ ~ ~                                                                                                                                                                   a a a a a a a a a a a a a a a a a a a a a a a 6 6 6 a a a a 6 3 a a a 6 6 6 6 6 6 6 6 6 6 6 6 6 6 6 6 6 2 2 2 6 6 6 6 6                                                                                                                                                                                                                                                                                                 - - - - - - - - - - - - - = = = = = = = = = = & & & & & & & = = = = & & & & & & & & & & & & & & & & & & & & & & & & & &                                                                                                                                                                   % % % % % % % % $ $ $ $ $ $ $ $ $ $ $ $ $ $ $ $ $ $ $ $ $ $ $ @ @ @ @ @ @ @ @ @ @     ",
"    #.#.#.#.#.#.#.#.#.#.#.#.#.#.#.#./ ~ ~ ~ #.#.#.#.#.#.#.#.! ) #.#.) ) ! ! ! ! ~ ~ ~                                                                                                                                                                     k a a a a a a a a a a a a a a a a a 6 a a a a 6 6 a a 6 6 6 6 a a 6 6 6 6 6 6 6 6 6 6 6 6 6 6 6 6 6 6 6 6 6 6 6 6 6 6 6                                                                                                                                                                                                                                                                                             : - - - - - - - - - - - - = = = = = = = = = = - - * & & & & & & & = & & & = & & & & & & & & & & & & & & & & & & & & & &                                                                                                                                                                     % % % % % % % $ $ $ $ $ $ $ $ $ $ $ $ $ $ $ $ $ $ $ $ $ $ $ @ @ @ @ @ @ @ @ @ @ @     ",
"    #.#.#.#.#.#.#.#.#.#.#.#.#.#.#.#.) ~ / #.#.#.#.#.#.#.#.#.#.#.#.) ) ) ! ! ! ! ~ ~ ~                                                                                                                                                                       a a a a a a a a a a a a a a a a 6 6 a a a a 6 6 a a 6 6 6 6 a 6 6 6 6 6 6 6 6 6 6 6 6 6 6 6 6 6 6 6 6 6 6 6 6 6 6 6 6 6                                                                                                                                                                                                                                                                                         : - - - - - - - - - - - - = = = = = = = = = = - - - * & & & & & & & & & & & & & & & & & & & & & & & & & & & & & & & & &                                                                                                                                                                       % % % % % % $ $ $ $ $ $ $ $ $ $ $ $ $ $ $ $ $ $ $ $ $ $ $ @ @ @ @ @ @ @ @ @ @ @ @     ",
"    #.#.#.#.#.#.#.#.#.#.#.#.#.#.#.#.~ ~ ~ ~ #.#.#.#.#.#.#.#.#.#.) ) ) ~ ~ ~ ~ ~ ~ ~ !                                                                                                                                                                         a a a a a a a a a a a a a a a a a 6 6 6 3 a a a a 3 3 a a 6 6 6 6 6 6 6 6 6 6 6 6 6 6 6 6 6 6 6 6 6 6 6 6 2 2 2 2 6 6 2                                                                                                                                                                                                                                                                                     : - - - - - - - - - - - - = = = = = = = = = = & & & - - - & & & & & & & & & & & & & & & & & & & & & & & & & & & & & & &                                                                                                                                                                         % % % % % $ $ $ $ $ $ $ $ $ $ $ $ $ $ $ $ $ $ $ $ $ $ $ @ @ @ @ @ @ @ @ @ @ @ @ @     ",
"    #.#.#.#.#.#.#.#.#.#.#.#.#.#.#.#.~ ~ ~ ~ #.#.#.#.#.#.#.#.' ) ) ) ~ ~ ~ ~ ~ ~ ~ ! !                                                                                                                                                                           a a a a a a a a a a a a a a a a 6 6 3 3 a a a a a a a 6 6 6 6 6 6 6 6 6 6 6 6 6 6 6 6 6 6 6 6 6 6 6 6 6 2 2 2 2 6 2 2 2                                                                                                                                                                                                                                                                                 : - - - - - - - - - - - - = = = = = = = = = = & & & & & - - & & & & & = & & & & & & & & & & & & & & & & & & & & & & & &                                                                                                                                                                           % % % % $ $ $ $ $ $ $ $ $ $ $ $ $ $ $ $ $ $ $ $ $ $ $ @ @ @ @ @ @ @ @ @ @ @ @ @ @     ",
"    #.#.#.#.#.#.#.#.#.#.#.#.#.#.#.#.#./ ~ #.#.#.#.#.' #.! ! ! ! ) ~ ~ ~ ~ ~ ~ ~ ! ! !                                                                                                                                                                             a a a a a a a a a a 6 6 6 a a 6 6 6 a a a 3 3 a a 6 6 6 6 6 6 6 6 6 6 6 6 6 6 6 6 2 6 2 2 6 6 6 6 6 6 2 6 2 2 2 2 2 2 2                                                                                                                                                                                                                                                                             : - - - - - - - - - - - - = = = = = = = = = = & & & & * & - * & & & = = = & & & & & & & & & & & & & & & & & & & & & & &                                                                                                                                                                             % % % $ $ $ $ $ $ $ $ $ $ $ $ $ $ $ $ $ $ $ $ $ $ $ @ @ @ @ @ @ @ @ @ @ @ @ @ @ @     ",
"    #.#.#.#.#.#.#.#.#.#.#.#.#.) #.#.#.#.~ ) #.#.#.#.) ! ! ! ! ! ~ ~ ~ ~ ~ ~ ~ ! ! ! !                                                                                                                                                                               a a a a a a a a 6 6 6 6 a a 6 6 6 a a a 6 6 a 6 6 6 6 6 6 6 6 6 6 6 6 6 6 6 6 6 2 2 2 6 6 6 6 6 6 6 6 6 2 2 2 2 2 2 2 2                                                                                                                                                                                                                                                                         : - - - - - - - - - - - - = = = = = = = = = = & & & & & * & - - & & & & = = & & & & & & & & & & & & & & & & & & & & & &                                                                                                                                                                               % % $ $ $ $ $ $ $ $ $ $ $ $ $ $ $ $ $ $ $ $ $ $ $ @ @ @ @ @ @ @ @ @ @ @ @ @ @ @ @     ",
"    #.#.#.#.#.#.#.#.#.#./ ~ ~ ~ #.#.#.#.~ ~ ~ ~ ' ! #.#.) ) ) ~ ~ ~ ~ ~ ~ ~ ! ! ! ! !                                                                                                                                                                                 a a a a a a a 6 6 6 a a 6 6 6 3 a a a 6 6 6 6 6 6 6 6 6 6 6 6 6 6 6 6 2 2 6 6 6 6 6 6 6 6 2 2 2 6 6 6 2 2 2 2 2 2 2 2 2                                                                                                                                                                                                                                                                     : - - - - - - - - - - - - = = = = = = = = = = - - & & & & = = = = = = & & & & & & & & & & & & & & & & & & & & & & & & &                                                                                                                                                                                 % $ $ $ $ $ $ $ $ $ $ $ $ $ $ $ $ $ $ $ $ $ $ $ @ @ @ @ @ @ @ @ @ @ @ @ @ @ @ @ @     ",
"    #.#.#.#.#.#.#.#.#./ ~ ~ ~ ~ ~ #.#.#.~ ~ ~ ! ! ! #.) ) ) ~ ~ ~ ~ ~ ~ ~ ! ! ! ! ! !                                                                                                                                                                                   a a a a a a 6 a 6 6 6 6 6 6 a a a a 6 6 6 6 6 6 6 6 6 6 6 6 2 6 6 6 6 2 2 6 6 6 6 6 2 2 6 2 2 2 6 2 2 2 2 2 2 2 2 2 2 2                                                                                                                                                                                                                                                                 : - - - - - - - - - - - - = = = = = = = = = = & - - & & & = = = & = = = & & & & & & & & & & & & & & & & & & & & & & & &                                                                                                                                                                                   $ $ $ $ $ $ $ $ $ $ $ $ $ $ $ $ $ $ $ $ $ $ $ @ @ @ @ @ @ @ @ @ @ @ @ @ @ @ @ @ @     ",
"    #.#.#.#.#.#.#.#./ ~ ~ ~ #.#.~ ~ #.#.#.#.' ' ! ! ! ) ) ! ~ ~ ~ ~ ~ ~ ! ! ! ! ! ! !                                                                                                                                                                                     a a a 6 a a a a a 6 3 6 6 3 a a a 6 6 6 6 6 6 6 6 6 6 6 6 6 6 6 6 6 2 2 6 6 6 6 6 2 2 2 2 2 2 2 2 2 2 2 2 2 2 2 2 2 2 2                                                                                                                                                                                                                                                             : - - - - - - - - - - - - = = = = = = = = = = & & - - & & & & = = & & & & & & & & & & & & & & & & & & & & & & & & & & &                                                                                                                                                                                     $ $ $ $ $ $ $ $ $ $ $ $ $ $ $ $ $ $ $ $ $ $ @ @ @ @ @ @ @ @ @ @ @ @ @ @ @ @ @ @ @     ",
"    #.#.#.#.#.#.#.#.~ ~ / #.#.#.~ ~ #.#.#.#.#.#.! ! ! ! ~ ~ ~ ~ ~ ~ ~ ! ! ! ! ! ! ! !                                                                                                                                                                                       a a 6 a a a a a a a 6 6 3 a a 6 6 6 6 6 6 6 6 6 6 6 6 6 6 6 6 6 6 6 2 6 6 6 6 6 6 2 2 2 2 2 2 2 2 2 2 2 2 2 2 2 2 , 2 2                                                                                                                                                                                                                                                         : - - - - - - - - - - - - = = = = = = = = = = & & & * * & & & & = = & & & & & & & & & & & & & & & & & & & & & & & & & &                                                                                                                                                                                       $ $ $ $ $ $ $ $ $ $ $ $ $ $ $ $ $ $ $ $ $ @ @ @ @ @ @ @ @ # @ @ @ @ @ @ @ @ @ @ @     ",
"    #.#.#.#.#.#.#.#.~ ~ ~ ~ #.#.~ ~ ~ ~ #.#.#.#.) ) ) ~ ~ ~ ~ ~ ~ ~ ! ! ! ! ! ! ! ! !                                                                                                                                                                                         a a a a 3 a 3 a a a a a a 6 6 6 6 6 6 6 6 6 6 6 6 6 6 6 6 6 6 6 6 6 6 6 6 6 6 6 6 2 2 2 2 2 2 2 2 2 2 2 2 2 2 2 2 2 2 2                                                                                                                                                                                                                                                     : - - - - - - - - - - - - = = = = = = - - - = & & = - * & & & & & & = & & & & & & & & & & & & & & & & & & & & & & & & &                                                                                                                                                                                         $ $ $ $ $ $ $ $ $ $ $ $ $ $ $ $ $ $ $ $ @ @ @ @ @ @ @ @ @ @ @ @ @ @ @ @ @ @ @ @ @     ",
"    #.#.#.#.#.#.#.#.~ ~ ~ ~ #.#.~ ~ #.#.#.#.#.) ) ) ~ ~ ~ ~ ~ ~ ~ ! ! ! ! ! ! ! ! ! !                                                                                                                                                                                           a a a 3 a a a a a a a 6 6 6 6 6 6 6 6 6 6 6 6 6 6 6 6 6 6 6 6 6 6 6 6 6 6 6 6 6 2 2 2 2 2 2 2 2 2 2 2 2 2 2 2 2 2 2 2 2                                                                                                                                                                                                                                                 - - - - - - - - - - - - - = = = = = = = - - - * & & & - * & & & & & & & & & & & & & & & & & & & & & & & & & & & & & & &                                                                                                                                                                                           $ $ $ $ $ $ $ $ $ $ $ $ $ $ $ $ $ $ $ @ @ @ @ @ @ @ @ @ @ @ @ @ @ @ @ @ @ @ @ @ @     ",
"    #.#.#.#.#.#.#.#.#./ ~ #.#.#.#.#.#.#.#.#.) ) ) ~ ~ ~ ~ ~ ~ ~ ! ! ! ! ! ! ! ! ! ! !                                                                                                                                                                                             a 3 a 6 6 6 6 a a 6 6 6 6 6 6 6 6 6 6 6 6 6 6 6 6 6 6 6 6 2 2 6 6 6 6 2 2 6 6 2 2 2 2 2 2 2 2 2 2 2 2 2 2 2 , , , 2 2 ,                                                                                                                                                                                                                                             : - - - - - - - - - - - - = = = = = = = = - - & & & & - - & & & & & & & & = & & & & & & & & & & & & & & & & & & & & & &                                                                                                                                                                                             $ $ $ $ $ $ $ $ $ $ $ $ $ $ $ $ $ $ @ @ @ @ @ @ @ @ @ @ @ @ @ @ @ @ @ @ @ @ @ @ @     ",
"    #.#.#.#.#.#.#.#.#.#.~ ) #.#.#.#.#.#.#.) ) ) ~ ~ ~ ~ ~ ~ ~ ! ! ! ! ! ! ! ! ! ! ! !                                                                                                                                                                                               3 6 6 6 6 6 a 6 6 6 6 6 6 6 6 6 6 6 6 6 6 6 6 6 6 6 6 6 6 2 2 6 6 6 6 2 2 2 2 2 2 2 2 2 2 2 2 2 2 , 2 2 2 , , , 2 2 2 2                                                                                                                                                                                                                                         : - - - - - - - - - - - - = = = = = = = = = - & & & & & - & & & & & & & & = & & & & & & & & & & & & & & & & & & & & & &                                                                                                                                                                                               $ $ $ $ $ $ $ $ $ $ $ $ $ $ $ $ $ @ @ @ @ @ @ @ @ @ @ @ @ @ @ @ @ @ @ @ @ @ @ @ @     ",
"    ' #.#.#.#.#.#.#.#.#.~ ~ ~ ~ #.' ' ! ) ) ) ~ ~ ~ ~ ~ ~ ~ ! ! ! ! ! ! ! ! ! ! ! ! !                                                                                                                                                                                                 a a a a 6 6 6 6 6 6 6 6 6 6 6 6 6 6 6 6 6 6 6 2 2 6 6 6 6 2 2 2 6 6 6 2 2 2 2 2 2 2 2 2 2 2 2 2 2 2 2 , , , , , , 2 2 2                                                                                                                                                                                                                                     : - - - - - - - - - - - - = = = = = = = = = = & & & - - - * & = & & & & & = & & & & & & & & & & & & & & & & & & & & & &                                                                                                                                                                                                 $ $ $ $ $ $ $ $ $ $ $ $ $ $ $ $ @ @ @ @ @ @ @ @ @ @ @ @ @ @ @ @ @ @ @ @ @ @ @ @ @     ",
"    ' / #.#.#.#.~ #.#.#.~ ~ ~ ! #.#.! ! ) ) ~ ~ ~ ~ ~ ~ ~ ! ! ! ! ! ! ! ! ! ! ! ! ! !                                                                                                                                                                                                   a a a 6 6 6 6 6 6 6 6 6 6 6 6 6 6 6 6 6 6 6 2 2 6 6 6 6 6 2 2 2 6 2 2 2 2 2 2 2 2 2 2 2 2 2 2 2 2 2 , , , , , , 2 2 2 ,                                                                                                                                                                                                                                 - - - - - - - - - - - - - = = = = = = = = = = & & & & & - - & & = = & & & & & & & & & & & & & & & & & & & & & & & & & &                                                                                                                                                                                                   $ $ $ $ $ $ $ $ $ $ $ $ $ $ $ @ @ @ @ @ @ @ @ @ @ @ @ @ @ @ @ @ @ @ @ @ @ @ @ @ @     ",
"    ' ~ #.#.#.#.~ ~ #.#.#.#.' ! ) ! ! ! ) ~ ~ ~ ~ ~ ~ ~ ! ! ! ! ! ! ! ! ! ! ! ! ! ! !                                                                                                                                                                                                     a 6 6 6 6 6 6 6 6 6 6 6 6 6 6 6 6 6 6 6 6 6 2 6 6 6 6 2 2 2 2 2 2 2 2 2 2 2 2 2 2 2 2 , 2 , , 2 , , , 2 2 2 2 2 2 , , >                                                                                                                                                                                                                             : - - - - - - - - - - - - = = = = = = = = = = & & & & - & & & & & = = & & & & & & & & & & & & & & & & & & & & & & & & &                                                                                                                                                                                                     $ $ $ $ $ $ $ $ $ $ $ $ $ $ @ @ @ @ @ @ @ @ @ @ @ @ @ @ @ @ @ @ @ @ @ @ @ @ @ @ @     ",
"    ' ~ ~ #.#.#.~ ~ #.#.#.#.#.#.' ! ! ! ~ ~ ~ ~ ~ ~ ~ ! ! ! ! ! ! ! ! ! ! ! ! ! ! ! !                                                                                                                                                                                                       a 6 6 6 6 6 6 6 6 6 2 2 2 6 6 6 6 6 6 6 6 2 6 6 6 6 2 2 2 2 2 2 2 2 2 2 2 2 2 2 2 , , , , , 2 , , > 2 2 2 2 2 , , , > ,                                                                                                                                                                                                                         : - - - - - - - - - - - - = = = = = = = = = = & & & & & * & & & & & = = & & & & & & & & & & & & & & & & & & & & & & & &                                                                                                                                                                                                       $ $ $ $ $ $ $ $ $ $ $ $ $ @ @ @ @ @ @ @ @ @ @ @ @ @ @ @ @ @ @ @ @ @ @ @ @ @ @ @ @     ",
"    #.#.~ ~ ~ ~ ~ ~ ~ ~ #.#.#.#.) ) ) ~ ~ ~ ~ ~ ~ ~ ! ! ! ! ! ! ! ! ! ! ! ! ! ! ! ! !                                                                                                                                                                                                         6 6 6 6 6 6 6 6 6 6 6 6 6 6 6 6 6 2 2 2 2 2 6 6 6 2 2 2 2 2 2 2 2 2 2 2 2 2 2 , , 2 , , , , , > > 2 2 > > > , , , , , ,                                                                                                                                                                                                                     - - - - - - - - - - - - - = = = = = = - - - = & & & * & & & & & & = = & & & & & & & & & & & & & & & & & & & & & & & & &                                                                                                                                                                                                         $ $ $ $ $ $ $ $ $ $ $ $ @ # @ @ @ @ @ @ @ @ @ @ @ @ @ @ @ @ @ @ @ @ @ @ @ @ @ @ @     ",
"    #.#.~ ~ ~ ~ ~ ~ #.#.#.#.#.) ) ) ~ ~ ~ ~ ~ ~ ~ ! ! ! ! ! ! ! ! ! ! ! ! ! ! ! ! ! !                                                                                                                                                                                                           6 6 6 6 6 6 6 6 6 6 6 6 6 6 6 6 6 2 2 2 2 2 6 6 2 2 2 2 2 2 2 2 2 2 2 2 2 , , , 2 2 , , , > > > 2 2 > > , , , , , , , ,                                                                                                                                                                                                                 : - - - - - - - - - - - - = = = = = = = - - - & & & & - = & & & & & = = & & & & & & & & & & & & & & & & & & & & & & & &                                                                                                                                                                                                           $ $ $ $ $ $ $ $ $ $ $ @ @ @ @ @ @ @ @ @ @ @ @ @ @ @ @ @ @ @ @ @ @ @ @ @ @ @ @ @ @     ",
"    #.#.~ ~ #.#.#.#.#.#.#.#.) ) ) ~ ~ ~ ~ ~ ~ ~ ! ! ! ! ! ! ! ! ! ! ! ! ! ! ! ! ! ! !                                                                                                                                                                                                             6 6 6 6 6 6 6 6 6 2 2 6 6 6 6 6 6 6 2 6 6 6 6 2 2 2 2 2 2 2 2 2 2 2 2 2 2 , , 2 2 2 2 > , , > , > > > , , , , , , , > >                                                                                                                                                                                                             - - - - - - - - - - - - - = = = = = = = = - - & & & & - - = = & & & & = = & & & & & & & & & & & & & & & & & & & & & & &                                                                                                                                                                                                             $ $ $ $ $ $ $ $ $ $ @ @ @ @ @ @ @ @ @ @ @ @ @ @ @ @ @ @ @ @ @ @ @ @ @ @ @ @ @ @ @     ",
"    #.#.~ #.#.#.#.#.#.#.#.) ) ) ~ ~ ~ ~ ~ ~ ~ ! ! ! ! ! ! ! ! ! ! ! ! ! ! ! ! ! ! ! !                                                                                                                                                                                                               6 6 6 6 6 6 6 6 6 2 2 6 6 6 6 6 6 6 6 6 6 2 2 2 2 2 2 2 2 2 2 2 2 2 2 , , 2 2 2 2 2 2 2 2 2 , > > > , , , , , , > > > >                                                                                                                                                                                                         : - - - - - - - - - - - - = = = = = = = = = - & & & & & - = = = & & & & = = & & & & & & & & & & & & & & & & & & & & & &                                                                                                                                                                                                               $ $ $ $ $ $ $ $ $ @ @ @ @ @ @ @ @ @ @ @ @ @ @ @ @ @ @ @ @ @ @ @ @ @ @ @ @ @ @ @ @     ",
"    #.#.#.#.#.#.#.#.#.#.) ) ) ~ ~ ~ ~ ~ ~ ~ ! ! ! ! ! ! ! ! ! ! ! ! ! ! ! ! ! ! ! ! !                                                                                                                                                                                                                 6 6 6 6 6 6 6 6 6 2 2 2 6 6 6 6 6 2 2 2 2 2 2 2 2 2 2 2 2 2 2 , , , , , , 2 2 2 2 2 2 2 2 , , , , , , , , , > > > > > >                                                                                                                                                                                                     : - - - - - - - - - - - - = = = = = = = = = = & & & & & & = = = & & & & & & & & & & & & & & & & & & & & & & & & & & & &                                                                                                                                                                                                                 $ $ $ $ $ $ $ $ @ @ @ @ @ @ @ @ @ @ @ @ @ @ @ @ @ @ @ @ @ @ @ @ @ @ @ @ @ @ @ @ @     ",
"    #.#.#.#.#.#.#.#.#.) ) ) ~ ! ~ ~ ~ ~ ~ ! ! ! ! ! ! ! ! ! ! ! ! ! ! ! ! ! ! ! ! ! !                                                                                                                                                                                                                   6 6 6 6 6 6 6 6 6 6 2 2 6 6 6 6 2 2 2 2 2 2 2 2 2 2 2 2 2 , , , , , , , 2 2 2 2 2 2 2 , , , , , , , , , > > > > > > > >                                                                                                                                                                                                 : - - - - - - - - - - - - = = = = = = = = = = & & & & & & & = = = = & & & & & & & & & & & & & & & & & & & & & & & & & &                                                                                                                                                                                                                   $ $ $ $ $ $ $ @ @ @ @ @ @ @ @ @ @ @ @ @ @ @ @ @ @ @ @ @ @ @ @ @ @ @ @ @ @ @ @ @ @     ",
"    ' #.~ ~ ' ! #.#.) ) ! ! ! ! ~ ~ ~ ~ ! ! ! ! ! ! ! ! ! ! ! ! ! ! ! ! ! ! ! ! ! ! !                                                                                                                                                                                                                     2 6 6 6 6 6 6 6 6 6 6 6 6 6 6 2 2 2 2 2 2 2 2 2 2 2 2 2 2 , , , , 2 2 , 2 2 2 2 2 , , , , , , , , , > > > > > > > > > ,                                                                                                                                                                                             : - - - - - - - - - - - - = = = = = = = = = = - - * & & & & & & & & & & & & & & & & & & & & & & & & & & & & & & & & & &                                                                                                                                                                                                                     $ $ $ $ $ $ @ @ @ @ @ @ @ @ @ @ @ @ @ @ @ @ @ @ @ @ @ @ @ @ @ @ @ @ @ @ @ @ @ @ @     ",
"    #.#.~ ! ! ! #.) ) ) ! ! ! ! ~ ~ ~ ! ! ! ! ! ! ! ! ! ! ! ! ! ! ! ! ! ! ! ! ! ! ! !                                                                                                                                                                                                                       6 6 6 6 6 6 6 6 6 6 6 6 2 2 2 2 2 2 2 2 2 2 2 2 2 2 2 2 , , , , 2 2 > 2 2 2 2 , , , , , , , , , > > > > > > > > > > > ,                                                                                                                                                                                         : - - - - - - - - - - - - = = = = = = = = = = - - - * & & & & & & & & & & & & & & & & & & & & & & & & & & & & & & & & &                                                                                                                                                                                                                       $ $ $ $ $ @ @ @ @ @ @ @ @ @ @ @ @ @ @ @ @ @ @ @ @ @ @ @ @ @ @ @ @ @ @ @ @ @ @ @ @     ",
"    #.#.! ' #.#.) ) ) ~ ~ ~ ~ ~ ~ ~ ! ! ! ! ! ! ! ! ! ! ! ! ! ! ! ! ! ! ! ! ! ! ! ! !                                                                                                                                                                                                                         2 6 6 6 6 6 6 6 6 6 6 2 2 2 2 2 2 2 2 2 2 2 2 2 2 2 2 , , , , 2 2 > > 2 2 , , , , , , , , , > > > > > > > > > > > > > >                                                                                                                                                                                     = - - - - - - - - - - - - = = = = = = = = = = & & & - - - & & & & & & & & & & & & & & & & & & & & & & & & & & & & & & &                                                                                                                                                                                                                         $ $ $ $ @ @ @ @ @ @ @ @ @ @ @ @ @ @ @ @ @ @ @ @ @ @ @ @ @ @ @ @ @ @ @ @ @ @ @ @ @     ",
"    #.' ! ! #.) ) ) ~ ~ ~ ~ ~ ~ ~ ! ! ! ! ! ! ! ! ! ! ! ! ! ! ! ! ! ! ! ! ! ! ! ! ! !                                                                                                                                                                                                                           2 6 6 6 6 6 6 6 6 2 2 2 2 2 2 2 2 2 2 2 2 , 2 , 2 2 , , , , 2 2 > > 2 , , , , , , , , , > > > > > > > > > > > > > > > >                                                                                                                                                                                 : - - - - - - - - - - - - = = = = = = = = = = & & & & & - - & & & & & = = = & & & & & & & & & & & & & & & & & & & & & &                                                                                                                                                                                                                           $ $ $ @ @ @ @ @ @ @ @ @ @ @ @ @ @ @ @ @ @ @ @ @ @ @ @ @ @ @ @ @ @ @ @ @ @ @ @ @ @     ",
"    #.' #.#.) ) ) ~ ~ ~ ~ ~ ~ ~ ! ! ! ! ! ! ! ! ! ! ! ! ! ! ! ! ! ! ! ! ! ! ! ! ! ! !                                                                                                                                                                                                                             6 6 6 6 2 2 6 2 2 2 2 2 2 2 2 2 2 2 2 , , , , 2 2 2 , , 2 2 2 > > > , , , , , , , , > > > > > > > > > > > > > > > > > >                                                                                                                                                                             - - - - - - - - - - - - - = = = = = = = = = = & & & & * & - * & & & = = = = & & & & & & & & & & & & & & & & & & & & & &                                                                                                                                                                                                                             $ $ @ @ @ @ @ @ @ @ @ @ @ @ @ @ @ @ @ @ @ @ @ @ @ @ @ @ @ @ @ @ @ @ @ @ @ @ @ @ @     ",
"    #.#.#.) ) ) ~ ~ ~ ~ ~ ~ ~ ! ! ! ! ! ! ! ! ! ! ! ! ! ! ! ! ! ! ! ! ! ! ! ! ! ! ! !                                                                                                                                                                                                                               6 6 6 6 2 2 2 2 2 2 2 2 2 2 2 2 2 , , , , 2 2 2 2 , , 2 2 2 > > > > , , , , , , > > > > > > > > > > > > > > > > > > > >                                                                                                                                                                         - - - - - - - - - - - - - = = = = = = = = = = & & & & & * & - - & & & & = = & & & & & & & & & & & & & & & & & & & & & &                                                                                                                                                                                                                               $ @ @ @ @ @ @ @ @ @ @ @ @ @ @ @ @ @ @ @ @ @ @ @ @ @ @ @ @ @ @ @ @ @ @ @ @ @ @ @ @     ",
"    #.#.) ) ) ~ ~ ~ ~ ~ ~ ~ ! ! ! ! ! ! ! ! ! ! ! ! ! ! ! ! ! ! ! ! ! ! ! ! ! ! ! ! !                                                                                                                                                                                                                                 6 6 6 2 2 2 2 2 2 2 2 2 2 2 2 , 2 2 2 , , , , > > 2 2 2 2 , , , , , , , , , > > > > > > > > > > > > > > > > > > > > > >                                                                                                                                                                     : - - - - - - - - - - - - = = = = = = = = = = - - & & & & = = = = = = & & & & & & & & & & & & & & & & & & & & & & & & &                                                                                                                                                                                                                                 @ @ @ @ @ @ @ @ @ @ @ @ @ @ @ @ @ @ @ @ @ @ @ @ @ @ @ @ @ @ @ @ @ @ @ @ @ @ @ @ @     ",
"    #.) ) ) ~ ~ ~ ~ ~ ~ ~ ! ! ! ! ! ! ! ! ! ! ! ! ! ! ! ! ! ! ! ! ! ! ! ! ! ! ! ! ! !                                                                                                                                                                                                                                   6 2 2 2 2 2 2 2 2 2 2 2 2 , , 2 2 2 , , , > > > 2 2 2 , , , , , , , , , > > > > > > > > > > > > > > > > > > > > > > > >                                                                                                                                                                 = - - - - - - - - - - - - = = = = = = = = = = & - - & & & = = = & = = = & & & & & & & & & & & & & & & & & & & & & & & &                                                                                                                                                                                                                                   @ @ @ @ @ @ @ @ @ @ @ @ @ @ @ @ @ @ @ @ @ @ @ @ @ @ @ @ @ @ @ @ @ @ @ @ @ @ @ @ @     ",
"    ) ) ) ~ ~ ~ ~ ~ ~ ~ ! ! ! ! ! ! ! ! ! ! ! ! ! ! ! ! ! ! ! ! ! ! ! ! ! ! ! ! ! ! !                                                                                                                                                                                                                                     2 2 2 2 2 2 2 2 2 2 2 , , 2 2 2 2 2 , > > 2 > 2 2 , , , , , , , , , > > > > > > > > > > > > > > > > > > > > > > > > > :                                                                                                                                                             : - - - - - - - - - - - - = = = = = = = = = = - - - - & & & & = = & & & & & & & & & & & & & & & & & & & & & & & & & & &                                                                                                                                                                                                                                     @ @ @ @ @ @ @ @ @ @ @ @ @ @ @ @ @ @ @ @ @ @ @ @ @ @ @ @ @ @ @ @ @ @ @ @ @ @ @ @ @     ",
"    ) ) ~ ~ ~ ~ ~ ~ ~ ! ! ! ! ! ! ! ! ! ! ! ! ! ! ! ! ! ! ! ! ! ! ! ! ! ! ! ! ! ! ! N                                                                                                                                                                                                                                       2 2 2 2 2 2 2 2 2 2 , , 2 2 2 2 , > > , 2 2 2 , , , , , , , , , > > > > > > > > > > > > > > > > > > > > > > > > > > > >                                                                                                                                                         ; - - - - - - - - - - - - = = = = = = = = = = - - - * * & & & & = = & & & & & & & & & & & & & & & & & & & & & & & & & &                                                                                                                                                                                                                                       @ @ @ @ @ @ @ @ @ @ @ @ @ @ @ @ @ @ @ @ @ @ @ @ @ @ @ @ @ @ @ @ @ @ @ @ @ @ @ @ +     ",
"    ) ~ ~ ~ ~ ~ ~ ~ ! ! ! ! ! ! ! ! ! ! ! ! ! ! ! ! ! ! ! ! ! ! ! ! ! ! ! ! ! ! ! ! !                                                                                                                                                                                                                                         2 2 2 2 2 2 2 , 2 , , 2 2 2 , > > , 2 2 2 , , , , , , , , , > > > > > > > > > > > > > > > > > > > > > > > > > > > > > >                                                                                                                                                     : - - - - - - - - - - - - = = = = = = = = = = & & & - * & & & & & & = & & & & & & & & & & & & & & & & & & & & & & & & &                                                                                                                                                                                                                                         @ @ @ @ @ @ @ @ @ @ @ @ @ @ @ @ @ @ @ @ @ @ @ @ @ @ @ @ @ @ @ @ @ @ @ @ @ @ @ @ +     ",
"    ~ ~ ~ ~ ~ ~ ~ ! ! ! ! ! ! ! ! ! ! ! ! ! ! ! ! ! ! ! ! ! ! ! ! ! ! ! ! ! ! ! ! ! !                                                                                                                                                                                                                                           2 2 2 2 2 , , , , , 2 2 2 2 > > 2 2 2 , , , , , , , , , > > > > > > > > > > > > > > > > > > > > > > > > > > > > > > > :                                                                                                                                                 = - - - - - - - - - - - - = = = = = = = = = = & & & & & * & & & & & & & & & & & & & & & & & & & & & & & & & & & & & & &                                                                                                                                                                                                                                           @ @ @ @ @ @ @ @ @ @ @ @ @ @ @ @ @ @ @ @ @ @ @ @ @ @ @ @ @ @ @ @ @ @ @ @ @ @ + @ +     ",
"    ~ ~ ~ ~ ~ ~ ! ! ! ! ! ! ! ! ! ! ! ! ! ! ! ! ! ! ! ! ! ! ! ! ! ! ! ! ! ! ! ! ! ! !                                                                                                                                                                                                                                             2 2 2 , , , 2 2 2 2 2 2 2 , 2 2 2 , , , , , , , , , > > > > > > > > > > > > > > > > > > > > > > > > > > > : > > > > > >                                                                                                                                             : - - - - - - - - - - - - = = = = = = = = = = & & & & * & & & & & & & & & = & & & & & & & & & & & & & & & & & & & & & &                                                                                                                                                                                                                                             @ @ @ @ @ @ @ @ @ @ @ @ @ @ @ @ @ @ @ @ @ @ @ @ @ @ @ @ @ @ @ @ @ @ @ @ @ + + @ +     ",
"    ~ ~ ~ ~ ~ ! ! ! ! ! ! ! ! ! ! ! ! ! ! ! ! ! ! ! ! ! ! ! ! ! ! ! ! ! ! ! ! ! ! ! !                                                                                                                                                                                                                                               2 , , , , 2 2 2 2 2 2 > > 2 2 , , , , , , , , , > > > > > > > > > > > > > > > > > > > > > > > : : > > > : > > > > > : :                                                                                                                                         - - - - - - - - - - - - - = = = = = = = = = = & & & & & * & & & & & & & & = & & & & & & & & & & & & & & & & & & & & & &                                                                                                                                                                                                                                               @ @ @ @ @ @ @ @ @ @ @ @ @ @ @ @ @ @ @ @ @ @ @ @ @ @ @ @ @ @ @ @ @ @ @ @ + + + @ +     ",
"    ~ ~ ~ ~ ! ! ! ! ! ! ! ! ! ! ! ! ! ! ! ! ! ! ! ! ! ! ! ! ! ! ! ! ! ! ! ! ! ! ! ! N                                                                                                                                                                                                                                                 2 2 2 2 2 , , > > > > 2 2 > > , , , , , , , > > > > > > > > > > > > > > > > > > > > > > > > > > : : > > > > > > : > : >                                                                                                                                     : - - - - - - - - - - - - = = = = = = = = = = - - & & & & = = & = & & & & & & & & & & & & & & & & & & & & & & & & & & &                                                                                                                                                                                                                                                 @ @ @ @ @ @ @ @ @ @ @ @ @ @ @ @ @ @ @ @ @ @ @ @ @ @ @ @ @ @ @ @ @ @ @ + @ @ @ @ +     ",
"    ~ ~ ~ ! ! ! ! ! ! ! ! ! ! ! ! ! ! ! ! ! ! ! ! ! ! ! ! ! ! ! ! ! ! ! ! ! ! ! ! ! N                                                                                                                                                                                                                                                   2 2 2 2 , > > > 2 , 2 , > > , , , , , , > > > > > > > > > > > > > > > > > > > > > > > > > > > : > > > > > > : : > > > :                                                                                                                                 - - - - - - - - - - - - - = = = = = = = = = = & - - & & & = = = = = & & & & & & & & & & & & & & & & & & & & & & & & & &                                                                                                                                                                                                                                                   @ @ @ @ @ @ @ @ @ @ @ @ @ @ @ @ @ @ @ @ @ @ @ @ @ @ @ @ @ @ @ @ @ @ @ @ @ @ @ @ +     ",
"    ~ ~ ! ! ! ! ! ! ! ! ! ! ! ! ! ! ! ! ! ! ! ! ! ! ! ! ! ! ! ! ! ! ! ! ! ! ! ! ! ! v                                                                                                                                                                                                                                                     2 2 2 > > 2 2 2 2 , , , , , , , , , > > > > > > > > > > > > > > > > > > > > > > > > > > > > > > > > > > : : : > > > > :                                                                                                                             ; - - - - - - - - - - - - = = = = = = = = = = & & - - & & & & = = = = & & = & & & & & & & & & & & & & & & & & & & & & &                                                                                                                                                                                                                                                     @ @ @ @ @ @ @ @ @ @ @ @ @ @ @ @ @ @ @ @ @ @ @ @ @ @ @ @ @ @ @ @ @ + + @ @ @ @ @ +     ",
"    ~ ! ! ! ! ! ! ! ! ! ! ! ! ! ! ! ! ! ! ! ! ! ! ! ! ! ! ! ! ! ! ! ! ! ! ! ! ! ! z v                                                                                                                                                                                                                                                       , 2 > 2 2 2 2 , , , , , , , , , > > > > > > > > > > > > > > > > > > > > > > > > > > > > > > > > > > > > : : : > > : : :                                                                                                                         = - - - - - - - - - - - - = = = = = = = = = = & & & * * & & & & = = = = & & & & & & & & & & & & & & & & & & & & & & & &                                                                                                                                                                                                                                                       @ @ @ @ @ @ @ @ @ @ @ @ @ @ @ @ @ @ @ @ @ @ @ @ @ @ @ @ @ @ @ @ + + + + + @ @ @ +     ",
"    ! ! ! ! ! ! ! ! ! ! ! ! ! ! ! ! ! ! ! ! ! ! ! ! ! ! ! ! ! ! ! ! ! ! ! ! ! ! z ! v                                                                                                                                                                                                                                                         , 2 2 2 2 , , , , , , , , , > > > > > > > > > > > > > > > > > > > > : > > > > > > > > > > > > > > > : : : > > : : : :                                                                                                                       ; - - - - - - - - - - - - = = = = = = - - - = & & = - * & & & & & & = & & & & & & & & & & & & & & & & & & & & & & & & &                                                                                                                                                                                                                                                         @ @ @ @ @ @ @ @ @ @ @ @ @ @ @ @ @ @ @ @ @ @ @ @ @ @ @ @ @ @ @ + + + + + + + + @ +     ",
"    ! ! ! ! ! ! ! ! ! ! ! ! ! ! ! ! ! ! ! ! ! ! ! ! ! ! ! ! ! ! ! ! ! ! ! ! ! z ! ! v                                                                                                     a                                                                                                                                                     2 2 2 , , , , , , , , , > > > > > > > > > > > > > > > > > > > > > : : > > > > : > > > > > > > > > : : : > : : : : : :                                                                                                                     - - - - - - - - - - - - = = = = = = = - - - * & & & - * & & & & & & & & & & & & & & & & & & & & & & & & & & & & & & &                                                                                                                                                     %                                                                                                     @ @ @ @ @ @ @ @ @ @ @ @ @ @ @ @ @ @ @ @ @ @ @ @ @ @ @ @ @ @ + + + + @ + + @ @ @ +     ",
"    ! ! ! ! ! ! ! ! ! ! ! ! ! ! ! ! ! ! ! ! ! ! ! ! ! ! ! ! ! ! ! ! ! ! ! ! z z ! ! b                                                                                                     a a                                                                                                                                                     2 , , , , , , , , , > > > > > > > > > > > > > > > > > > > > > > > > > > > > > > > > > > : > > : : : : : : : : : : : :                                                                                                                 - - - - - - - - - - - - = = = = = = = = - - & & & & - - & & & & & & & & & & & & & & & & & & & & & & & & & & & & & & &                                                                                                                                                     % %                                                                                                     @ @ @ @ @ @ @ @ @ @ @ @ @ @ @ @ @ @ @ @ @ @ @ @ @ @ @ @ @ @ @ + + @ @ @ @ @ @ @ +     ",
"    ! ! ! ! ! ! ! ! ! ! ! ! ! ! ! ! ! ! ! ! ! ! ! ! ! ! ! ! ! ! ! ! ! ! ! z z z ! ! b                                                                                                     a a a                                                                                                                                                     , , , , , , , , > > > > > > > > > > > > > > > > > > > > > > > > > > > > > > > > > > : : > > : : : : : : : : : : : : :                                                                                                             - - - - - - - - - - - - = = = = = = = = = - & & & & & - & & & & & & & & = & & & & & & & & & & & & & & & & & & & & & &                                                                                                                                                     % % %                                                                                                     @ @ @ @ @ @ @ @ @ @ @ @ @ @ @ @ @ @ @ @ @ @ @ @ @ @ @ @ @ @ @ @ @ @ @ @ @ @ @ @ +     ",
"    ! ! ! ! ! ! ! ! ! ! ! ! ! ! ! ! ! ! ! ! ! ! ! ! ! ! ! ! ! ! ! ! ! ! z z z z ! ! b                                                                                                     a a a a                                                                                                                                                     , , , , , , > > > > > > > > > > > > > > > > > > > > > > > > > > > > > > > > > > : : : > > > > : : : : : : : : : : : :                                                                                                         - - - - - - - - - - - - = = = = = = = = = = & & & - - - * & = & & & & & = & & & & & & & & & & & & & & & & & & & & & &                                                                                                                                                     % % % %                                                                                                     @ @ @ @ @ @ @ @ @ @ @ @ @ @ @ @ @ @ @ @ @ @ @ @ @ @ @ @ @ + + + + + + @ @ @ @ @ +     ",
"    ! ! ! ! ! ! ! ! ! ! ! ! ! ! ! ! ! ! ! ! ! ! ! ! ! ! ! ! ! ! ! ! ! ! z z z k ! ! b                                                                                                     a a a a a                                                                                                                                                     , , , , > > > > > > > > > > > > > > > > > > > > > > > > > : > > > > > > > > : : : : > > > : : : : : : : : : : : : : :                                                                                                     - - - - - - - - - - - - = = = = = = = = = = & & & & & - - & & = = & & & & & & & & & & & & & & & & & & & & & & & & & &                                                                                                                                                     % % % % %                                                                                                     @ @ @ @ @ @ @ @ @ @ @ @ @ @ @ @ @ @ @ @ @ @ @ @ @ @ + @ @ + @ + + @ @ @ @ @ @ + +     ",
"    ! ! ! ! ! ! ! ! ! ! ! ! ! ! ! ! ! ! ! ! ! ! ! ! ! ! ! ! ! ! ! ! ! ! ! ! k k ! ! b                                                                                                     a a a a a a                                                                                                                                                     , , > > > > > > > > > > > > > > > > > > > > > > > > > : > > > > > > : > : : : : : > > : : : : : : : : : : : : : : : :                                                                                                 - - - - - - - - - - - - = = = = = = = = = = & & & & - & & & & & = = & & & & & & & & & & & & & & & & & & & & & & & & &                                                                                                                                                     % % % % % %                                                                                                     @ @ @ @ @ @ @ @ @ @ @ @ @ @ @ @ @ @ @ @ @ @ @ @ @ + + @ @ @ @ @ @ @ @ @ @ @ @ + +     ",
"    ! ! ! ! ! ! ! ! ! ! ! ! ! ! ! ! ! ! ! ! ! ! ! ! ! ! ! ! ! ! ! z ! ! ! ! k k ! ! b                                                                                                     a a a a a a a                                                                                                                                                     > > > > > > > > > > > > > > > > > > > > > > > > > > > > > > > > : : : : : : > > > : : : : : : : : : : : : : : : : : :                                                                                             - - - - - - - - - - - - = = = = = = = = = = & & & & & * & & & & & = = & & & & & & & & & & & & & & & & & & & & & & & &                                                                                                                                                     % % % % % % %                                                                                                     @ @ @ @ @ @ @ @ @ @ @ @ @ @ @ @ @ @ @ @ @ @ @ @ + + + @ @ @ @ @ @ @ @ @ @ @ + + +     ",
"    ! ! ! ! ! ! ! ! ! ! ! ! ! ! ! ! ! ! ! ! ! ! ! ! ! ! ! ! ! ! z z z z ! ! ! k ! ! b                                                                                                     6 6 6 6 6 a a a                                                                                                                                                     > > > > > > > > > > > > > > > > > > : > > > > > > > > > > > > > : > > > > : : : : : : : : : : : : : : : : : : : : : :                                                                                         - - - - - - - - - - - - = = = = = = - - - = & & & * & & & & & & = = & & & & & & & & & & & & & & & & & & & & & & & & &                                                                                                                                                     % % % % % % % %                                                                                                     @ @ @ @ @ @ @ @ @ @ @ @ @ @ @ @ @ @ @ @ @ @ @ @ @ @ @ @ @ @ @ @ @ @ + @ @ + + + +     ",
"    ! ! ! ! ! ! ! ! ! ! ! ! ! ! ! ! ! ! ! ! ! ! ! ! ! ! ! ! ! z z z z k ! ! ! ! ! ! a                                                                                                     6 6 6 6 6 6 a a a                                                                                                                                                     > > > > > > > > > > > > > > > > > : : > > > > : > > > > > > : : > > > > : : : : : : : : : : : : : : : : : : : : : : :                                                                                     - - - - - - - - - - - - = = = = = = = - - - & & & & - = & & & & & = = & & & & & & & & & & & & & & & & & & & & & & & &                                                                                                                                                     % % % % % % % % %                                                                                                     @ @ @ @ @ @ @ @ @ @ @ @ @ @ @ @ @ @ @ @ @ @ @ @ @ @ @ @ @ @ @ @ @ + + @ + + + + +     ",
"    ! ! ! ! ! ! ! ! ! ! ! ! ! ! ! ! ! ! ! ! ! ! ! ! ! ! ! ! z z ! ! k k ! ! ! b k k a                                                                                                     6 a a 6 6 a a a a a                                                                                                                                                     > > > > > > > > > > > > > > > > > > > > > > > > > > > > > : : > : > > : : : : : : : : : : : : : : : : : : : : : : : :                                                                                 - - - - - - - - - - - - = = = = = = = = - - & & & & - - = = & & & & = = & & & & & & & & & & & & & & & & & & & & & & &                                                                                                                                                     % % % % % % % % % %                                                                                                     @ @ @ @ @ @ @ @ @ @ @ @ @ @ @ @ @ @ @ @ @ + + @ @ @ @ + + @ @ @ @ + + + + + + + +     ",
"    ! ! ! ! ! ! ! ! ! ! ! ! ! ! ! ! ! ! ! ! ! ! ! ! ! ! ! ! z z ! ! z k ! ! ! k k a a                                                                                                     6 a a 6 6 a a a a a a                                                                                                                                                     , > > > > > > > > > > > > > > > > > > > > > > > > > > > : : : : > : : : : : : : : : : : : : : : : : : : : : : : : : :                                                                             - - - - - - - - - - - - = = = = = = = = = - & & & & & - = = = & & & & = = & & & & & & & & & & & & & & & & & & & & & &                                                                                                                                                     % % % % % % % % % % %                                                                                                     @ @ @ @ @ @ @ @ @ @ @ @ @ @ @ @ @ @ @ @ + + @ @ @ + + + + @ @ @ + + + + + + + + +     ",
"    ! ! ! ! ! ! ! ! ! ! ! ! ! ! ! ! ! ! ! ! ! ! ! ! ! ! z z z z ! ! k k k k k k ! ! b                                                                                                     a a a 6 3 a a a a a a 6                                                                                                                                                     , > > > > > > > > > > > > > > > > > > > > > > > : > > > : : : : : : : : : : : : : : : : : : : : : : : : : : : : : : :                                                                         - - - - - - - - - - - - = = = = = = = = = = & & & & & & = = = & & & & & & & & & & & & & & & & & & & & & & & & & & & &                                                                                                                                                     % % % % % % % % % % % %                                                                                                     @ @ @ @ @ @ @ @ @ @ @ @ @ @ @ @ @ @ @ @ @ @ + @ @ + + + + + @ @ @ + + + + + + + +     ",
"    ! ! ! ! ! ! ! ! ! ! ! ! ! ! ! ! ! ! ! ! ! ! ! ! ! z z ! z ! ! ! k k k k ! ! ! ! b                                                                                                     a a a 6 3 a a a a a 6 6 6                                                                                                                                                     , > > > > > > > > > : > > > > > > > > > > > : : > > : : : : : : : : : : : : : : : : : : : : : : : : : : : : : : : : :                                                                     - - - - - - - - - - - - = = = = = = = = = = & & & & & & & = = = = & & & & & & & & & & & & & & & & & & & & & & & & & &                                                                                                                                                     % % % % % % % % % % % % %                                                                                                     @ @ @ @ @ @ @ @ @ @ @ @ @ @ @ @ @ @ @ @ @ + + @ @ + + + + @ @ @ + + + + + + + + +     ",
"    ! ! ! ! ! ! ! ! ! ! ! ! ! ! ! ! ! ! ! ! ! ! ! ! z z ! ! ! ! ! ! ! k ! ! ! ! ! z b                                                                                                     a a a a a a a a a 6 6 6 6 6                                                                                                                                                     > > > > > > > > > > > > > > > > > > > > : : : > > > > : : : : : : : : : : : : : : : : : : : : : : : : : : : : : : : :                                                                 - - - - - - - - - - - - = = = = = = = = = = - - * & & & & & & & & & & & & & & & & & & & & & & & & & & & & & & & & & &                                                                                                                                                     % % % % % % % % % % % % % %                                                                                                     @ @ @ @ @ @ @ @ @ @ @ @ @ @ @ @ @ + + + @ @ @ + @ @ @ @ @ @ @ + + + + + @ + + + +     ",
"    ! ! ! ! ! ! ! ! ! ! ! ! ! ! ! ! ! ! ! ! ! ! ! z z z ! ! ! k ! ! k k ! ! ! ! z z b                                                                                                     a a a a a a a a 6 6 6 6 6 6 6                                                                                                                                                     > > > > > > > > > > > > : > > > > > : : : : > > > : : : : : : : : : : : : : : : : : : : : : : : : : : : : : : : : : :                                                             - - - - - - - - - - - - = = = = = = = = = = - - - * & & & & & & & & & & & & & & & & & & & & & & & & & & & & & & & & &                                                                                                                                                     % % % % % % % % % % % % % % %                                                                                                     @ @ @ @ @ @ @ @ @ @ @ @ @ @ @ @ + + + + @ @ @ + @ @ @ @ @ @ + + @ + + + @ + + + +     ",
"    ! ! ! ! ! ! ! ! ! ! ! ! ! ! ! ! ! ! ! ! ! ! z z z ! ! ! z k ! ! ! ! ! a a a z z b                                                                                                     a a a a a 3 3 6 6 6 6 6 6 6 6 6                                                                                                                                                     > > > > > > > > > > > : > > > > : : : : > : : : : : : : : : : : : : : : : : : : : : : : : : : : : : : : : : : : : : :                                                         - - - - - - - - - - - - = = = = = = = = = = & & & - - - & & & & & & & & & & & & & & & & & & & & & & & & & & & & & & &                                                                                                                                                     % % % % % % % % % % % % % % % $                                                                                                     @ @ @ @ @ @ @ @ @ @ @ @ @ @ @ @ @ + + + @ @ @ @ + @ @ @ @ + + + + + + + + @ @ + +     ",
"    ! ! ! ! ! ! ! ! ! ! ! ! ! ! ! ! ! ! ! ! ! z z z z z k ! ! ! ! ! ! ! N N a a z z b                                                                                                     a a a 6 6 3 6 6 6 6 6 6 6 6 6 6 6                                                                                                                                                     > > > > > > > > > > : : > > : : : : : > : : : : : : : : : : : : : : : : : : : : : : : : : : : : : : : : : : : : : : :                                                     - - - - - - - - - - - - = = = = = = = = = = & & & & & - - & & & & & = = = & & & & & & & & & & & & & & & & & & & & & &                                                                                                                                                     % % % % % % % % % % % % % % % $ $                                                                                                     @ @ @ @ @ @ @ @ @ @ @ @ @ @ + @ @ + @ @ @ @ @ + + @ + @ + + + + + + + + + + + + +     ",
"    ! ! ! ! ! ! ! ! ! ! ! ! ! ! ! ! ! ! ! ! z z z ! ! ! k k k ! z k ! ! ! a a a z k b                                                                                                     6 a a 6 6 6 6 6 6 6 6 6 6 6 6 6 6 6                                                                                                                                                     > > > > > > > > > > > > : : : > > > > : : : : : : : : : : : : : : : : : : : : : : : : : : : : : : : : : : : : : : : :                                                 - - - - - - - - - - - - = = = = = = = = = = & & & & * & - * & & & = = = = & & & & & & & & & & & & & & & & & & & & & &                                                                                                                                                     % % % % % % % % % % % % % % % $ $ $                                                                                                     @ @ @ @ @ @ @ @ @ @ @ @ @ + + @ @ @ @ @ @ + @ + @ @ + + + + + + + + + + + + + + +     ",
"    ! ! ! ! ! ! ! ! ! ! ! ! ! ! ! ! ! ! ! z z z ! ! ! ! k k k k k a ! ! z a a a k k b                                                                                                     6 a a 6 6 6 6 6 6 6 6 6 6 6 6 6 6 6 6                                                                                                                                                     > > > > > > > > > > : : : : > > > : : : : : : : : : : : : : : : : : : : : : : : : : : : : : : : : : : : : : : : : : :                                             - - - - - - - - - - - - = = = = = = = = = = & & & & & * & - - & & & & = = & & & & & & & & & & & & & & & & & & & & & &                                                                                                                                                     % % % % % % % % % % % % % % % $ $ $ $                                                                                                     @ @ @ @ @ @ @ @ @ @ @ @ + + + @ @ @ @ @ @ + + @ @ @ + + + + + + + + + + + + + + +     ",
"    ! ! ! ! ! ! ! ! ! ! ! ! ! ! ! ! ! ! ! ! ! ! ! ! ! ! k k k k a a ! z z z z k k k b                                                                                                     a a a 6 6 6 6 6 6 6 6 6 6 6 6 6 6 2 2 6                                                                                                                                                     > > > > > > > > : : : > > > > : : : : : : : : : : : : : : : : : : : : : : : : : : : : : : : : : : : : : : : : : : : :                                         - - - - - - - - - - - - = = = = = = = = = = - - & & & & = = = = = = & & & & & & & & & & & & & & & & & & & & & & & & &                                                                                                                                                     % % % % % % % % % % % % % % % $ $ $ $ $                                                                                                     @ @ @ @ @ @ @ @ @ @ @ + + @ @ @ + + + @ @ @ @ @ @ @ + + + + + + + + + + + + + + +     ",
"    ! ! ! ! ! ! ! ! ! ! ! ! ! ! ! ! ! z ! ! ! ! k ! ! ! k k k a a a z z z z k k k k b                                                                                                     a a 6 6 6 6 6 6 6 6 6 6 6 6 6 6 6 2 2 6 6                                                                                                                                                     > > > > > > : : > : > > > : : : : : : : : : : : : : : : : : : : : : : : : : : : : : : : : : : : : : : : : : : : : : :                                     - - - - - - - - - - - - = = = = = = = = = = & - - & & & = = = & = = = & & & & & & & & & & & & & & & & & & & & & & & &                                                                                                                                                     % % % % % % % % % % % % % % % $ $ $ $ $ $                                                                                                     @ @ @ @ @ @ @ @ @ @ @ + @ @ @ @ + + + @ @ @ @ @ + @ + + + + + + + + + + + + + + +     ",
"    ! ! ! ! ! ! ! ! ! ! ! ! ! ! ! ! z z ! ! k ! k k ! ! ! ! ! ! a a z z z k k k k k b                                                                                                     a 6 6 6 6 6 6 6 6 6 6 6 6 6 6 6 6 6 2 6 6 6                                                                                                                                                     > > > > : : : > > > > : : : : : : : : : : : : : : : : : : : : : : : : : : : : : : : : : : : : : : : : : : : : : : : :                                 - - - - - - - - - - - - = = = = = = = = = = & & - - & & & & = = & & & & & & & & & & & & & & & & & & & & & & & & & & &                                                                                                                                                     % % % % % % % % % % % % % % % $ $ $ $ $ $ $                                                                                                     @ @ @ @ @ @ @ @ @ + + + + @ @ @ @ + + @ @ @ @ + + + + + + + + + + + + + + + + + +     ",
"    ! ! ! ! ! ! ! ! ! ! ! ! ! ! ! z z z ! ! k k k k ! k k N ! ! a a z z k k k k k k b                                                                                                     6 6 6 6 6 6 6 6 6 6 6 6 6 6 6 6 6 6 6 6 6 6 6                                                                                                                                                     > > > > : : : > > : : : : : : : : : : : : : : : : : : : : : : : : : : : : : : : : : : : : : : : : : : : : : : : : : :                             - - - - - - - - - - - - = = = = = = = = = = & & & * * & & & & = = & & & & & & & & & & & & & & & & & & & & & & & & & &                                                                                                                                                     % % % % % % % % % % % % % % % $ $ $ $ $ $ $ $                                                                                                     @ @ @ @ @ @ @ @ + + + + + @ @ @ @ + @ @ @ @ + + + + + + + @ @ @ + + + + + + + + +     ",
"    ! ! ! ! ! ! ! ! ! ! ! ! ! ! ! z z z k k k k k k k k ! ! ! z z z z k k k k k k k b                                                                                                     6 6 6 6 6 6 6 6 6 6 6 6 6 6 6 6 6 6 6 6 6 6 6 6                                                                                                                                                     > > : : : > > : : : : : : : : : : : : : : : : : : : : : : : : : : : : : : : : : : : : : : : : : : : : : : : : : : : :                         - - - - - - - - - - - - = = = = = = - - - = & & & * * & & & & & & = & & & & & & & & & & & & & & & & & & & & & & & & &                                                                                                                                                     % % % % % % % % % % % % % % % $ $ $ $ $ $ $ $ $                                                                                                     @ @ @ @ @ @ @ @ @ @ @ + @ @ @ @ @ @ @ + + + + + + + + + @ + + + + + + + + + + + +     ",
"    ! ! ! ! ! ! ! ! ! ! ! ! ! z ! z z k k k k k k k k a ! ! z z z z k k k k k k k k b                                                                                                     6 6 6 6 6 6 6 6 6 6 6 6 6 6 6 6 6 6 6 6 6 6 6 6 6                                                                                                                                                     > : : : > : : : : : : : : : : : : : : : : : : : : : : : : : : : : : : : : : : : : : : : : : : : : : : : : : : - : : -                     - - - - - - - - - - - - = = = = = = = - - - & & & & - * & & & & & & & & & & & & & & & & & & & & & & & & & & & & & & &                                                                                                                                                     % % % % % % % % % % % % % % % $ $ $ $ $ $ $ $ $ $                                                                                                     @ @ @ @ @ @ + @ @ @ @ @ @ @ @ @ @ @ @ + + + + + + + + + @ + + + + + + + + + + + +     ",
"    ! ! ! ! ! ! ! ! ! ! ! ! ! ! ! ! k k k k ! ! ! ! N ! ! z z z z k k k k k k k k k b                                                                                                     6 6 6 6 6 6 6 6 6 6 6 6 6 6 6 6 6 2 2 6 6 6 6 6 6 6                                                                                                                                                     : : : : : : : : : : : : : : : : : : : : : : : : : : : : : : : : : : : : : : : : : : : : : : : : : : : : : - - : - : :                 = - - - - - - - - - - - = = = = = = = = - - & & & & - - & & & & & & & & = & & & & & & & & & & & & & & & & & & & & & &                                                                                                                                                     % % % % % % % % % % % % % % % $ $ $ $ $ $ $ $ $ $ $                                                                                                     @ @ @ @ @ @ @ @ @ + + @ @ @ @ @ @ @ @ + + + + + + + + + + + + + + + + + + + + + +     ",
"    ! ! ! ! ! ! ! ! ! ! ! ! ! ! ! z k k ! ! ! ! ! ! ! ! z z z z k k k k k k k k k k b                                                                                                     6 6 6 6 6 6 6 6 6 6 6 6 6 6 6 6 6 6 2 6 6 6 6 6 6 6 2                                                                                                                                                     : : : : : : : : : : : : : : : : : : : : : : : : : : : : : : : : : : : : : : : : : : : : : : : : : : : - - - - - : : :             - - - - - - - - - - - - = = = = = = = = = - & & & & & - = & & & & & & & = & & & & & & & & & & & & & & & & & & & & & &                                                                                                                                                     % % % % % % % % % % % % % % % $ $ $ $ $ $ $ $ $ $ $ $                                                                                                     @ @ @ @ + + @ @ @ + + @ @ @ @ @ @ @ + + + + + @ @ + + + + + + + + + + + + + + + +     ",
"    ! ! ! ! ! ! ! ! ! ! ! ! z z ! ! k k k k k k ! ! ! z z z z k k k k k k k k k k k b                                                                                                     6 6 6 6 6 6 6 6 6 6 6 2 2 2 2 6 6 6 6 6 6 2 6 6 6 2 2 2                                                                                                                                                     : : : : : : : : : : : : : : : : : : : : : : : : : : : : : : : : : : : : : : : : : : : : : : : : : - - - : - - : : : :         : - - - - - - - - - - - = = = = = = = = = = & & & & & & = = & = & & & & & & & & & & & & & & & & & & & & & & & & & & &                                                                                                                                                     % % % % % % % % % % % % % % % $ $ $ $ $ $ $ $ $ $ $ $ $                                                                                                     @ @ @ @ @ @ @ @ + + + + + @ @ @ @ + + + + + + + @ + + + + + + + + + + + + + + + +     ",
"    ! ! ! ! ! ! ! ! ! ! z ! z k ! ! k k k k ! a ! ! z z z z k k k k k k k k k k k a a                                                                                                     6 6 6 6 6 6 6 6 6 6 6 6 6 2 2 6 6 6 6 6 6 6 2 6 2 2 2 2 2                                                                                                                                                     : : : : : : : : : : : : : : : : : : : : : : : : : : : : : : : : : : : : : : : : : : : : : : : : - - - : - - : : : :         - - - - - - - - - - - = = = = = = = = = = & & & & & & & = = = = & & & & & & & & & & & & & & & & & & & & & & & & & &                                                                                                                                                     % % % % % % % % % % % % % % % $ $ $ $ $ $ $ $ $ $ $ $ $ $                                                                                                     @ @ + @ @ @ @ @ @ + + + + @ @ @ + + + + + + + @ @ + + + + + + + + + + + + + + + +     ",
"    ! ! ! ! ! ! ! ! z z z z k k ! ! ! k ! ! ! ! ! z z z v a a k k k k k k k k k a a a                                                                                                     6 6 6 6 6 6 6 6 6 6 6 6 6 6 6 6 6 6 6 6 6 6 2 2 2 2 2 2 2 2                                                                                                                                                     : : : : : : : : : : : : : : : : : : : : : : : : : : : : : : : : : : : : : : : : : : : : : - : - - : : : - - : = &         - - - - - - - - - - = = = = = = = = = = - - * & & & & & & & = = & & = & & & & & & & & & & & & & & & & & & & & & &                                                                                                                                                     % % % % % % % % % % % % % % % $ $ $ $ $ $ $ $ $ $ $ $ $ $ $                                                                                                     @ @ @ + + @ @ @ @ @ @ + + + @ + + + + + + + + + + + + @ + + + + + + + + + + + + +     ",
"    ! ! ! ! ! ! ! z z z z k k k ! ! ! k ! ! ! ! z z z z a a a a k k k k k k k a a a a                                                                                                     6 6 6 6 6 6 6 6 6 6 6 6 6 6 6 6 6 6 6 6 6 6 2 2 2 2 2 2 2 2 2                                                                                                                                                     : : : : : : : : : : : : : : : : : : : : : : : : : : : : : : : : : : : : : : : : : : : : - - - - : : : - - - = &         - - - - - - - - - = = = = = = = = = = - - - * & & & & & & & = = & & & & & & & & & & & & & & & & & & & & & & & &                                                                                                                                                     % % % % % % % % % % % % % % % $ $ $ $ $ $ $ $ $ $ $ $ $ $ $ $                                                                                                     + @ @ + + + @ @ @ @ @ + + @ + + + + + + + + @ + + + + @ + + + + + + + + + + + + +     ",
"    ! ! ! ! ! ! z z z z k k k k ! ! ! ! ! N a a z z z k k k k k k k k k k k a a a a a                                                                                                     6 6 6 6 6 6 6 6 6 6 6 6 6 6 6 2 6 2 2 2 2 2 2 2 2 2 2 2 2 2 2 2                                                                                                                                                     : : : : : : : : : : : : : : : : : : : : : : : : : : : : : : : : : : : : : : : : : : - - - : : : : : : : : = :         - - - - - - - - = = = = = = = = = = & & & - - - & & & & & & & & & & & & & & & & & & & & & & & & & & & & & & &                                                                                                                                                     % % % % % % % % % % % % % % % $ $ $ $ $ $ $ $ $ $ $ $ $ $ $ $ $                                                                                                     + @ @ + + @ @ @ @ @ @ @ @ + + + + + + + + + @ + + + + + + + + + + + + + + + + + +     ",
"    ! ! ! ! ! z z z z k ! k k k ! ! ! ! ! ! a a z z k k k k k k k k a a k a a a a a a                                                                                                     6 6 6 6 6 6 6 6 6 6 6 6 6 6 6 2 2 2 2 2 2 2 2 2 2 2 2 2 2 2 2 2 2                                                                                                                                                     : : : : : : : : : : : : : : : : : : : : : : : : : : : : : : : : : : : : : : : - - - - - : - : : : : : : : -         - - - - - - - = = = = = = = = = = & & & & & - - & & & & & = & & & & & & & & & & & & & & & & & & & & & & & &                                                                                                                                                     % % % % % % % % % % % % % % % $ $ $ $ $ $ $ $ $ $ $ $ $ $ $ $ $ $                                                                                                     + @ @ + + @ @ @ @ @ @ @ + + @ + + + + + + + + + + + + + + + + + + + + + + + + + +     ",
"    ! ! ! ! z z ! ! ! ! ! ! k k ! ! ! ! a a a a z k k a k k k k k k k a a a a a a a a                                                                                                     6 6 6 6 6 6 6 2 2 6 6 6 6 6 6 2 2 2 2 2 2 2 2 2 2 2 2 2 2 2 2 2 , 2                                                                                                                                                     : : : : : : : : : : : : : : : : : : : : : : : : : : : : : : : : : : : : : - - : - - - - = = = - - : : - -         - - - - - - = = = = = = = = = = & & & & * & - * & & & = = = & & & & & & & & & & & & & & & & & & & & & & &                                                                                                                                                     % % % % % % % % % % % % % % % $ $ $ $ $ $ $ $ $ $ $ $ $ $ $ $ $ $ $                                                                                                     + @ @ + @ @ @ + + + + + + @ + + + + + + + + + + + + + + + + + + + + + + + + + + +     ",
"    ! ! ! z z z ! ! ! ! ! ! k k k a ! N v a a a k k k k k k k k k k k a a a a a a a a                                                                                                     6 6 6 6 6 2 2 2 6 6 6 6 6 6 6 6 2 2 2 2 2 2 2 2 2 2 2 2 2 2 2 , , 2 2                                                                                                                                                     : : : : : : : : : : : : : : : : : : : : : : : : : : : : : : : : : : : - - - : - - - = = = = = = : - - -         - - - - - = = = = = = = = = = & & & & & * & - - & & & & = = & & & & & & & & & & & & & & & & & & & & & &                                                                                                                                                     % % % % % % % % % % % % % % % $ $ $ $ $ $ $ $ $ $ $ $ $ $ $ $ $ $ $ $                                                                                                     + @ @ @ @ @ @ + + + + + + + + + + + + + + + + + + + + + + + + + + + + + + + + + O     ",
"    ! ! ! ! ! ! ! z ! ! ! ! ! ! ! ! ! z z z z k k k k k k k k k k k a a a a a a a a a                                                                                                     6 6 6 6 2 2 2 6 6 6 2 2 2 6 6 6 6 2 2 2 2 2 2 2 2 2 2 2 2 , , , , , 2 2                                                                                                                                                     : : : : : : : : : : : : : : : : : : : : : : : : : : : : : : : : : - - - - : : : : : : : = = = - - - -         - - - - = = = = = = = = = = - - & & & & = = = = = = & & & & & & & & & & & & & & & & & & & & & & & & &                                                                                                                                                     % % % % % % % % % % % % % % % $ $ $ $ $ $ $ $ $ $ $ $ $ $ $ $ $ $ $ $ $                                                                                                     + @ @ @ @ + @ @ @ @ + + + + + + + + + + + + + + + + + + + + + + + + + + + + + + O     ",
"    ! ! ! ! ! ! k z k k ! ! ! ! ! ! z z z z k k k k k k k k k k k a a a a a a a a a a                                                                                                     6 6 6 6 2 6 6 6 6 6 6 2 2 6 6 6 2 2 2 2 2 2 2 2 2 2 2 2 , , , , , , 2 2 2                                                                                                                                                     : : : : : : : : : : : : : : : : : : : : : : : : : : : : : : : : - - - - : : : : : : - = = = - - - -         - - - = = = = = = = = = = & - - & & & = = = & = = = & & & & & & & & & & & & & & & & & & & & & & & &                                                                                                                                                     % % % % % % % % % % % % % % % $ $ $ $ $ $ $ $ $ $ $ $ $ $ $ $ $ $ $ $ $ $                                                                                                     + @ @ @ @ @ @ @ @ @ + + + + + + + @ @ + + + + + + + + + + + + + + + + + + + + + O     ",
"    ! ! ! ! k k k k k k k k ! ! ! z z z v a a k k k k k k k k k a a a a a a a a a a a                                                                                                     6 6 6 6 6 6 6 6 6 6 6 6 6 6 6 2 2 2 2 2 2 2 2 2 2 2 2 2 2 , 2 , , , 2 2 2 2                                                                                                                                                     : : : : : : : : : : : : : : : : : : : : : : : : : : : : : : : : : - - - = : : : : : : = = = - - -         - - = = = = = = = = = = - - - - & & & & = = & & & & & & & & & & & & & & & & & & & & & & & & & & &                                                                                                                                                     % % % % % % % % % % % % % % % $ $ $ $ $ $ $ $ $ $ $ $ $ $ $ $ $ $ $ $ $ $ $                                                                                                     + @ @ @ @ @ @ + + + + + + + + + + + + + + + + + + + + + + + + + + + + + + + + + O     ",
"    ! ! ! ! b k k k k k k a a ! z z z z a a a a k k k k k k k a a a a a a a a a a a a                                                                                                     6 6 6 6 6 6 6 6 6 6 6 6 6 6 2 2 2 2 2 2 2 2 2 2 2 2 , 2 , , 2 , , , 2 2 2 2 2                                                                                                                                                     : : : : : : : : : : : : : : : : : : : : : : : : : : : - : : : : - - = - - : : : : - = = = - - -         - = = = = = = = = = = - - - * * & & & & = = & & & & & & & & & & & & & & & & & & & & & & & & & &                                                                                                                                                     % % % % % % % % % % % % % % % $ $ $ $ $ $ $ $ $ $ $ $ $ $ $ $ $ $ $ $ $ $ $ @                                                                                                     + @ @ @ @ @ + + + + + + + + + + + + + + + + + + + + + + + + + + + + + + + + + + O     ",
"    ! ! ! ! k k ! ! ! ! a a a a z z z k k k k k k k k k k k a a a a a a a a a a a a a                                                                                                     6 6 6 6 6 6 6 6 6 2 6 2 2 2 2 2 2 2 2 2 2 2 2 2 2 , , 2 2 , , , , 2 2 > 2 2 2 ,                                                                                                                                                     : : : : : : : : : : : : : : : : : : : : : : : : : - - - - : : : = = = : : : : = = - - - - - -         - = = = = = = = = = & & & - * & & & & & & = & & & & & & & & & & & & & & & & & & & & & & & & &                                                                                                                                                     % % % % % % % % % % % % % % % $ $ $ $ $ $ $ $ $ $ $ $ $ $ $ $ $ $ $ $ $ $ $ @ @                                                                                                     + @ @ @ + + + + + + + + + + + + + + + + + + + + + + + + + + + + + + + + + + + + O     ",
"    ! ! ! ! k k ! ! ! ! a a v a z z k k k k k a k k k k k a a a a a a a a a a a a a a                                                                                                     6 6 6 6 6 6 6 6 6 2 2 2 2 2 2 2 2 2 2 2 2 2 2 2 , , , 2 2 , , , , 2 2 2 2 > , , ,                                                                                                                                                     : : : : : : : : : : : : : : : : : : : : : : : - - - - - : : : : = = : : : - = = - - - - - -         - = = = = = = = = & & & & & * & & & & & & & & & & & & & & & & & & & & & & & & & & & & & & &                                                                                                                                                     % % % % % % % % % % % % % % % $ $ $ $ $ $ $ $ $ $ $ $ $ $ $ $ $ $ $ $ $ $ $ @ @ @                                                                                                     + @ @ + + + + + + + + + + + @ + + + + + + + + + + + + + + + + + + + + + + + + + O     ",
"    k ! ! k k k k k ! ! ! z v z v k k k k k k k k k k k a a a a a a a a a a a a a a a                                                                                                     6 6 6 6 2 2 6 6 6 6 2 2 2 2 2 2 2 2 2 2 2 2 2 , , 2 2 2 2 , , 2 2 2 2 > > > > , , ,                                                                                                                                                     : : : : : : : : : : : : : : : : : : : : : : : : : - - : : : : = = : : - = = = - - - - - -         - = = = = = = = & & & & * & & & & & & & & & = & & & & & & & & & & & & & & & & & & & & & &                                                                                                                                                     % % % % % % % % % % % % % % % $ $ $ $ $ $ $ $ $ $ $ $ $ $ $ $ $ $ $ $ $ $ $ @ @ @ @                                                                                                     + @ @ + + + + + + + + + + @ @ + + + + + + + + + + + + + + + + + + + + + + + + + O     ",
"    b ! ! z k k k a ! ! z z z z a k k k k k k k k k k a a a a a a a a a a a a a a a a                                                                                                     6 6 6 6 2 2 6 6 6 6 2 2 2 2 2 2 2 2 2 2 2 2 , , , 2 2 2 2 , , 2 2 2 2 > > > > , , , ,                                                                                                                                                     : : : : : : : : : : : : : : : : : : : : : : : : - - : : : = = = : - - = = = - - - - - -         - = = = = = = & & & & & * & & & & & & & & = & & & & & & & & & & & & & & & & & & & & & &                                                                                                                                                     % % % % % % % % % % % % % % % $ $ $ $ $ $ $ $ $ $ $ $ $ $ $ $ $ $ $ $ $ $ $ @ @ @ @ @                                                                                                     + @ + + + + + @ @ + + + + + @ + + + + + + + + + + + + + + + + + + + + + + + + + O     ",
"    b ! k k k k a a ! z z z z k k k k k k k k k k k a a a a a a a a a a a a a a a a a                                                                                                     6 6 6 2 6 2 2 2 2 2 2 2 2 2 2 2 2 2 2 2 2 , , , , 2 2 , , > > 2 2 2 2 , > , , , , , , ,                                                                                                                                                     : : : : : : : : : : : : : : : : : - - - : : : : : : : = = : : - - - - - - - - - - - -         - = = = = = & & & & = & & & & = & & & & & & & & & & & & & & & & & & & & & & & & & & &                                                                                                                                                     % % % % % % % % % % % % % % % $ $ $ $ $ $ $ $ $ $ $ $ $ $ $ $ $ $ $ $ $ $ $ @ @ @ @ @ @                                                                                                     + + + + + + + + + + + + + + + + + + + + + + + + + + + + + + + + + + + + + + + + O     ",
"    b ! k k k a a a z z z z k k k k k k a k k k k a a a a a a a a a a a a a a a a a a                                                                                                     6 6 6 2 2 2 2 2 2 2 2 2 2 2 2 2 2 2 2 2 , , , , , 2 2 , > > > 2 2 2 , , > , , , , , , > >                                                                                                                                                     : : : : : : : : : : : : : : : - - - : : : : : : : : = = : - - - - - - - - - - - - -         - = = = = & & & & & = & & & = = & & & & & & & & & & & & & & & & & & & & & & & & & &                                                                                                                                                     % % % % % % % % % % % % % % % $ $ $ $ $ $ $ $ $ $ $ $ $ $ $ $ $ $ $ $ $ $ $ @ @ @ @ @ @ @                                                                                                     + + + + + + + @ @ + + + + + + + + + + + + + + + + + + + + + + + + + + + + + + + O     ",
"    b ! ! ! ! N a a k z z k k k k k k k k k k k a a a a a a a a a a a a a a a a a a a                                                                                                     6 6 6 2 2 2 2 2 2 2 2 2 2 2 2 2 2 2 2 2 2 2 2 , 2 2 2 > > 2 > 2 2 , , , , , , , , , > > > >                                                                                                                                                     : : : : : : : : : : : : : - - - - : : : : = = = = = = - - - - - - - - - - - - = -         - = = = & & & & & & = = & & = = & & = & & & & & & & & & & & & & & & & & & & & & &                                                                                                                                                     % % % % % % % % % % % % % % % $ $ $ $ $ $ $ $ $ $ $ $ $ $ $ $ $ $ $ $ $ $ $ @ @ @ @ @ @ @ @                                                                                                     + + + + + + @ + + + + + + + + + + + + + + + + + + + + + + + + + + + + + + + + + O     ",
"    b k ! ! ! ! a a z z k k k k k k k k k k k a a a a a a a a a a a a a a a a a a a a                                                                                                     6 6 6 6 2 2 2 2 2 2 2 2 2 2 2 2 2 2 , 2 2 2 2 , 2 2 2 > , 2 2 2 , , , , , , , , , > > > > > >                                                                                                                                                     : : : : : : : : : : : - - - : - : : = = = = = = = = - - - - - - - - - - - = = -         - = = & & & & & = = = = & & = = & & & & & & & & & & & & & & & & & & & & & & & &                                                                                                                                                     % % % % % % % % % % % % % % % $ $ $ $ $ $ $ $ $ $ $ $ $ $ $ $ $ $ $ $ $ $ $ @ @ @ @ @ @ @ @ @                                                                                                     + + + + + + @ + + + + + + + + + + + + + + + + + + + + + + + + + + + + + + + + + O     ",
"    b ! ! ! ! z z z z k k k k k k k k k k k a a a a a a a a a a a a a a a a a a a a a                                                                                                     2 2 2 6 6 2 2 2 2 2 2 2 2 2 2 2 2 , , 2 2 2 2 2 2 2 2 , 2 2 2 , , , , , , , , , > > > > > > > >                                                                                                                                                     : : : : : : : : : - - : : : - - = = : : = : : - - - - - - - - - - - - = = = -         - = - - & & * - - - = & & & & & & & & & & & & & & & & & & & & & & & & & & & &                                                                                                                                                     % % % % % % % % % % % % % % % $ $ $ $ $ $ $ $ $ $ $ $ $ $ $ $ $ $ $ $ $ $ $ @ @ @ @ @ @ @ @ @ @                                                                                                     + + + + + + @ + + + + + + + + + + + + + + + + + + + + O + + + + + + + + + + + + O     ",
"    b ! ! ! z z z z k k k k k k k k k k k a a a a a a a a a a a a a a a a a a a a a a                                                                                                     2 2 2 6 2 2 2 2 2 2 2 2 2 2 2 2 , , , , , 2 2 2 2 2 , 2 2 2 , , , , , , , , , > > > > > > > > > >                                                                                                                                                     : : : : : : : : - - : : : - - = = = : = : - - - - - - - - - - - - = = = = -         - & - = & & - - - - = = & & & & & & & & & & & & & & & & & & & & & & & & & &                                                                                                                                                     % % % % % % % % % % % % % % % $ $ $ $ $ $ $ $ $ $ $ $ $ $ $ $ $ $ $ $ $ $ $ @ @ @ @ @ @ @ @ @ @ @                                                                                                     + + + + + + + + + + + + + + + + + + + + + + + + + + + O + + + + O + + + + + + + O     ",
"    b ! ! z z z z k k k k k k k k k k k a a a a a a a a a a a a a a a a a a a a a a a                                                                                                     6 2 2 2 2 2 2 2 2 2 2 2 2 2 2 2 2 , , , , 2 2 > > > > 2 2 , , , , , , , , , > > > > > > > > > > > >                                                                                                                                                     : : : : : - - - - : : : : - - : : : : - - - - - - - - - - - - = = = = = -         * & - - & & & & * & = = & & & & & & & & & & & & & & & & & & & & & & & & &                                                                                                                                                     % % % % % % % % % % % % % % % $ $ $ $ $ $ $ $ $ $ $ $ $ $ $ $ $ $ $ $ $ $ $ @ @ @ @ @ @ @ @ @ @ @ @                                                                                                     + + + + + + + + + + + + + + + + + + + + + + + + + + + + + + + + + + + + + + + + O     ",
"    b ! z z z z k k k k k k k k k k k a a a a a a a a a a a a a a a a a a a a a a a a                                                                                                     6 2 2 2 2 2 2 2 2 2 2 2 2 2 2 2 , , 2 , , , 2 , , > > 2 , , , , , , , , , > > > > > > > > > > > > > >                                                                                                                                                     : : : - - - - - : : - : : - : : : - - - - - - - - - - - - = = = = = = -         * * * * & & & & & & = = & & & & & & & & & & & & & & & & & & & & & & & &                                                                                                                                                     % % % % % % % % % % % % % % % $ $ $ $ $ $ $ $ $ $ $ $ $ $ $ $ $ $ $ $ $ $ $ @ @ @ @ @ @ @ @ @ @ @ @ @                                                                                                     + + + + + + + + + + + + + + + + + + + + + + + + + + + + + + + + + + + + + + + + O     ",
"    b z z z z k k k k k k k k k k k a a a a a a a a a a a a a a a a a a a a a a a a a                                                                                                     6 2 2 2 2 2 2 2 2 2 2 2 2 2 2 2 2 , , , 2 2 2 2 2 2 2 , , , , , , , , , > > > > > > > > > > > > > > > >                                                                                                                                                     : : : : : - - - : : : = = = = = = - - - - - - - - - - = = = = = = = -         * & & & & & = & & & & & = & & & & & & & & & & & & & & & & & & & & & &                                                                                                                                                     % % % % % % % % % % % % % % % $ $ $ $ $ $ $ $ $ $ $ $ $ $ $ $ $ $ $ $ $ $ $ @ @ @ @ @ @ @ @ @ @ @ @ @ @                                                                                                     + + + + + + + + + + + + + + + + + + + + + + + + + + + + + + + + + + + + + + + O O     ",
"    b z z z k k k k k k a k k k k a a a a a a a a a a a a a a a a a a a a a a a a a a                                                                                                     2 2 2 2 2 2 2 2 2 2 2 2 2 2 2 2 2 , , , 2 2 2 2 2 2 , > , , , , , , , > > > > > > > > > > > > > > > > > >                                                                                                                                                     : : : : - : = = = = : : = - = = - - - - - - - - - = = = = = = = = -         * & & & & & = = & & & & & & & & & & & & & & & & & & & & & & & & & &                                                                                                                                                     % % % % % % % % % % % % % % % $ $ $ $ $ $ $ $ $ $ $ $ $ $ $ $ $ $ $ $ $ $ $ @ @ @ @ @ @ @ @ @ @ @ @ @ @ @                                                                                                     + + + + + @ + + + + + + + + + + + + + + + + + + + + + + + + + + + + + + + + O O O     ",
"    b z z k k k k k k k k k k k a a a a a a a a a a a a a a a a a a a a a a a a a a a                                                                                                     2 2 2 2 2 2 2 2 2 2 2 , 2 , , 2 , , , 2 2 2 2 2 2 , , > > > > , , , > > > > > > > > > > > > > > > > > > > >                                                                                                                                                     - : : : = = = = : : : - - = = - - - - - - - - = = = = = = = = = -         * & - & & & = = & & & & & & & & & & & & & & & & & & & & & & & & &                                                                                                                                                     % % % % % % % % % % % % % % % $ $ $ $ $ $ $ $ $ $ $ $ $ $ $ $ $ $ $ $ $ $ $ @ @ @ @ @ @ @ @ @ @ @ @ @ @ @ @                                                                                                     + + + + + + + + + + + + + + + + + + + + + + + + + + + O + + + + + + + + + O O O O     ",
"    b z k k k k k k k k k k k a a a a a a a a a a a a a a a a a a a a a a a a a a a a                                                                                                     2 2 2 2 2 2 2 2 2 2 , , , , , 2 , , > 2 2 2 2 2 , , , > > > > , , > > > > > > > > > > > > > > > > > > > > > >                                                                                                                                                     : : : : : = : : : - - - - - - - - - - - - = = = = = = = = = = *         * & - & & & = = & & & & & & & & & & & & & & & & & & & & & & & &                                                                                                                                                     % % % % % % % % % % % % % % % $ $ $ $ $ $ $ $ $ $ $ $ $ $ $ $ $ $ $ $ $ $ $ @ @ @ @ @ @ @ @ @ @ @ @ @ @ @ @ @                                                                                                     + + + + + + + + + + + + + + + + + + + + + + + + + O + O + + + + + + + + O O O O O     ",
"    b k k k k k k k k k k k a a a a a a a a a a a a a a a a a a a a a a a a a a a a a                                                                                                     2 2 2 2 2 2 2 2 2 , , 2 , , , , , > > > > , 2 , , , , , , , , , > > > > > > > > > > > > > > > > > > > > > > > >                                                                                                                                                     = - : : : : : - - - - - - - - - - - - = = = = = = = = = - & *         - & - = = = & & & & & & & & & & & & & & & & & & & & & & & & &                                                                                                                                                     % % % % % % % % % % % % % % % $ $ $ $ $ $ $ $ $ $ $ $ $ $ $ $ $ $ $ $ $ $ $ @ @ @ @ @ @ @ @ @ @ @ @ @ @ @ @ @ @                                                                                                     + + + + + + + + + + + + + + + + + + + + + + + + + + + + + + + + + + O O O O O O O     ",
"    b k k k k k k k k k k a a a a a a a a a a a a a a a a a a a a a a a a a a a a a a                                                                                                     2 2 2 2 2 2 2 2 , , , 2 2 , , , > > > > > , , , , , , , , , , > > > > > > > > > > > > > > > > > > > > > > > > > >                                                                                                                                                     = - : : : - - - - - - - - - - - - = = = = = = = = = = & & *         - & = = & = & & & & & & & & & & & & & & & & & & & & & & & &                                                                                                                                                     % % % % % % % % % % % % % % % $ $ $ $ $ $ $ $ $ $ $ $ $ $ $ $ $ $ $ $ $ $ $ @ @ @ @ @ @ @ @ @ @ @ @ @ @ @ @ @ @ @                                                                                                     + + + + + + + + + + + + + + + + + + + + + + + + + + + + + + + + + + O O O O O O O     ",
"    b k k k k k k k k k a a a a a a a a a a a a a a a a a a a a a a a a a a a a a a a                                                                                                     2 2 2 2 2 2 2 2 2 , 2 2 2 2 2 > , , > > > > > , , , , , , , > > > > > > > > > > > > > > > > > > > > > > > > > > > >                                                                                                                                                     : : : - - - - - - - - - - - - = = = = = = = = = = & & & *         * & & & & & & & & & & & & & & & & & & & & & & & & & & & &                                                                                                                                                     % % % % % % % % % % % % % % % $ $ $ $ $ $ $ $ $ $ $ $ $ $ $ $ $ $ $ $ $ $ $ @ @ @ @ @ @ @ @ @ @ @ @ @ @ @ @ @ @ @ @                                                                                                     + + + + + + + + + + + + + + + + + + + + + + + + + + + + + + + + + O O O O O O O O     ",
"    b k k k k k k k k a a a a a a a a a a a a a a a a a a a a a a a a a a a a a a a a                                                                                                     2 2 2 2 2 2 2 2 , , 2 2 2 2 2 2 2 2 2 > > > > , , , , , , > > > > > > > > > > > > > > > > > > > > > > > > > > > > > >                                                                                                                                                     : - - - - - - - - - - - - = = = = = = = = = = & & & & *         & & & & & & & & & & & & & & & & & & & & & & & & & & & &                                                                                                                                                     % % % % % % % % % % % % % % % $ $ $ $ $ $ $ $ $ $ $ $ $ $ $ $ $ $ $ $ $ $ $ @ @ @ @ @ @ @ @ @ @ @ @ @ @ @ @ @ @ @ @ @                                                                                                     + + + + + + + + + + + + + + + + + + + + + + + + + + + + + + + + O O O O O O O O O     ",
"    b k k k k k k k a a a a a a a a a a a a a a a a a a a a a a a a a a a a a a a a a                                                                                                     2 2 2 2 2 , , , , , , , 2 2 2 2 2 2 2 , , , , , , , , , > > > > > > > > > > > > > > > > > > > > > > > > > > > > > > > >                                                                                                                                                     - - - - - - - - - - - = = = = = = = = = = & & & & & *         & & & & & & & & & & & & & & & & & & & & & & & & & & &                                                                                                                                                     % % % % % % % % % % % % % % % $ $ $ $ $ $ $ $ $ $ $ $ $ $ $ $ $ $ $ $ $ $ $ @ @ @ @ @ @ @ @ @ @ @ @ @ @ @ @ @ @ @ @ @ @                                                                                                     + + + + + + + + + + + + + + + + + + + + + + + + + + + + + + + O O O O O O O O O O     ",
"    b k k k k k k a a a a a a a a a a a a a a a a a a a a a a a a a a a a a a a a a a                                                                                                     2 2 2 2 , , , , , , , 2 2 2 2 2 2 2 , , , , , , , , , > > > > > > > > > > > > > > > > > > > > > > > > > > > > > > > > > >                                                                                                                                                     - - - - - - - - - = = = = = = = = = = & & & & & & *         & & & & & & & & & & & & & & & & & & & & & & & & & &                                                                                                                                                     % % % % % % % % % % % % % % % $ $ $ $ $ $ $ $ $ $ $ $ $ $ $ $ $ $ $ $ $ $ $ @ @ @ @ @ @ @ @ @ @ @ @ @ @ @ @ @ @ @ @ @ @ @                                                                                                     + + + + + + + + + + + + + + + + + + + + + + + + + + + + + + O O O O O O O O O O O     ",
"    b k k k k k a a a a a a a a a a a a a a a a a a a a a a a a a a a a a a a 6 a a a                                                                                                     2 2 2 2 2 , , , , 2 2 2 2 2 2 2 2 , , , , , , , , , > > > > > > > > > > > > > > > > > > > > : > > > > > > > > > > > > > : :                                                                                                                                                     - - - - - - - = = = = = = = = = = - - * & & & & *         & & & & & & & & & & & & & & & & & & & & & & & & &                                                                                                                                                     % % % % % % % % % % % % % % % $ $ $ $ $ $ $ $ $ $ $ $ $ $ $ $ $ $ $ $ $ $ $ @ @ @ @ @ @ @ @ @ @ @ @ @ @ @ @ @ @ @ @ @ @ @ @                                                                                                     + + + + + + + + + + + + + + + + + + + + + + + + + + + + + O O O O O O O O O O O O     ",
"    b k k k k a a a a a a a a a a a a a a a a a a a a a a a a a a a a a a a 6 6 a a a                                                                                                     2 2 2 2 , , , , 2 2 2 > 2 2 2 2 , , , , , , , , , > > > > > > > > > > > > > > > > > > > > : > > > > : > : > > > > > > : : : :                                                                                                                                                     - - - - - = = = = = = = = = = - - - * & & & & *         & & & & & & & & & & & & & & & & & & & & & & & &                                                                                                                                                     % % % % % % % % % % % % % % % $ $ $ $ $ $ $ $ $ $ $ $ $ $ $ $ $ $ $ $ $ $ $ @ @ @ @ @ @ @ @ # @ @ @ @ @ @ @ @ @ @ @ @ @ @ @ @                                                                                                     + + + + + + + + + + + + + + + + + + + + + + + + + + + + O O O O O O O O O O O O O     ",
"    b k k k a a a a a a a a a a a a a a a a a a a a a a a a a a a a a a a a a a a a a                                                                                                     2 , 2 2 2 , , , , 2 2 > > 2 2 , , , , , , , , , > > > > > > > > > > > > > > > > > > > > > > > > > > > > > : : > > > : : : : : :                                                                                                                                                     - - - = = = = = = = = = = & & & - - - & & & &         & & & & & & & & & & & & & & & & & & & & & & &                                                                                                                                                     % % % % % % % % % % % % % % % $ $ $ $ $ $ $ $ $ $ $ $ $ $ $ $ $ $ $ $ $ $ $ @ @ @ @ @ @ @ @ @ @ @ @ @ @ @ @ @ @ @ @ @ @ @ @ @ @                                                                                                     + + + + + + + + + + + + + + + + + + + + + + + + + + + O O O O O O O O O O O O O O     ",
"    b k k a a a a a a a a a a a a a a a a a a a a a a a a a a a a a a a a a a a a a 6                                                                                                     , , 2 2 2 , , , , 2 2 > > , , , , , , , , , , > > > > > > > > > > > > > > > > > > > > > > > > > > > > > > : > > > : : > > : : : :                                                                                                                                                     - = = = = = = = = = = & & & & & - - & & & &         & & & & & & & & & & & & & & & & & & & & & &                                                                                                                                                     % % % % % % % % % % % % % % % $ $ $ $ $ $ $ $ $ $ $ $ $ $ $ $ $ $ $ $ $ $ $ @ @ @ @ @ @ @ @ @ @ @ @ @ @ @ @ @ @ @ @ @ @ @ @ @ @ @                                                                                                     + + + + + + + + + + + + + + + + O O + + + + O + + + O O O O O O O O O O O O O O O     ",
"    b k a a a a a a a a a a a a a a a a a a a a a a a a a a a a a a a 6 a a a a 6 6 6                                                                                                     , , , 2 2 2 , , 2 2 2 > > > > , , , , , , , > > > > > > > > > > > > > > > > > > > > > > > > > > > > > > > > > > : : : > > > > : : :                                                                                                                                                     = = = = = = = = = & & & & * & - * & & & =         & & & & & & & & & & & & & & & & & & & & &                                                                                                                                                     % % % % % % % % % % % % % % % $ $ $ $ $ $ $ $ $ $ $ $ $ $ $ $ $ $ $ $ $ $ $ @ @ @ @ @ @ @ @ @ @ @ @ @ @ @ @ @ @ @ @ @ @ @ @ @ @ @ @                                                                                                     + + + + + + + + + + + + + + + + + + + + + + + + + O O O O O O O O O O O O O O O O     ",
"    b a a a a a a a a a a a a a a a a a a a a a a a a a a a a a a a 6 6 3 a a 6 6 6 6                                                                                                     , 2 2 2 2 2 2 , , 2 2 > > > > , , , , , , > > > > > > > > > > > > > > > > > > > > > > > > > > > > > > > > > > : : : : > > > : : : : :                                                                                                                                                     = = = = = = = & & & & & * & - - & & & &         & & & & & & & & & & & & & & & & & & & &                                                                                                                                                     % % % % % % % % % % % % % % % $ $ $ $ $ $ $ $ $ $ $ $ $ $ $ $ $ $ $ $ $ $ $ @ @ @ @ @ @ @ @ @ @ @ @ @ @ @ @ @ @ @ @ @ @ @ @ @ @ @ @ @                                                                                                     + + + + + + + + + + + + + + + + + + + + + + + + O O O O O O O O O O O O O O O O O     ",
"    b a a a a a a a a a a a a a a a a a a a a a a a a a a a a a a a a 6 6 6 a a a a a                                                                                                     2 2 2 , , > > 2 2 2 2 , , , , , , , , , > > > > > > > > > > > > > > > > > > > > > > > > > > > > > > > > > > : : : > > > > : : : : : : :                                                                                                                                                     = = = = = - - & & & & = = = = & & & &         & & & & & & & & & & & & & & & & & & &                                                                                                                                                     % % % % % % % % % % % % % % % $ $ $ $ $ $ $ $ $ $ $ $ $ $ $ $ $ $ $ $ $ $ $ @ @ @ @ @ @ @ @ @ @ @ @ @ @ @ @ @ @ @ @ @ @ @ @ @ @ @ @ @ @                                                                                                     + + + + + + + + + + + + + + + + + + + + + + + O O O O O O O O O O O O O O O O O O     ",
"    k a a a a a a a a a a a a a a a a a a a a a a a a a a a a a a a a 6 6 6 a a a a 6                                                                                                     2 2 2 , > > > 2 2 2 , , , , , , , , , > > > > > > > > > > > > > > > > > > > > > > > > > > > : > > > > > > : : > : > > > : : : : : : : : :                                                                                                                                                     = = = & - - - & & & = = = = = & & &         & & & & & & & & & & & & & & & & & &                                                                                                                                                     % % % % % % % % % % % % % % % $ $ $ $ $ $ $ $ $ $ $ $ $ $ $ $ $ $ $ $ $ $ $ @ @ @ @ @ @ @ @ @ @ @ @ @ @ @ @ @ @ @ @ @ @ @ @ @ @ @ @ @ @ @                                                                                                     + + + + + + + + + + + + + + + + + + + + + O O O O O O O O O O O O O O O O O O O O     ",
"    k a a a a a a a a a a a a a a a a a a a a a a a a a a a a 6 a a a a 6 6 a a 6 6 6                                                                                                     2 2 2 > > 2 > 2 2 , , , , , , , , , > > > > > > > > > > > > > > > > > > > > > > > > > > > > > > > > > > : : : > > > > : : : : : : : : : : :                                                                                                                                                     = & & - - & & & & = = = = & & & &         & & & & & & & & & & & & & & & & &                                                                                                                                                     % % % % % % % % % % % % % % % $ $ $ $ $ $ $ $ $ $ $ $ $ $ $ $ $ $ $ $ $ $ $ @ @ @ @ @ @ @ @ @ @ @ @ @ @ @ @ @ @ @ @ @ @ @ @ @ @ @ @ @ @ @ @                                                                                                     + + + + + + + + + + + + + + + + + + + + + O O O O O O O O O O O O O O O O O O O O     ",
"    k a a a a a a a a a a a a a a a a a a a a a a a a a a a 6 6 a a a a 6 6 a a 6 6 6                                                                                                     2 2 2 > , 2 2 2 , , , , , , , , , > > > > > > > > > > > > > > > > > > > > > > > > > > > > > > > > > > > > : : : > > : : : : : : : : : : : : :                                                                                                                                                     = & * * & & & & = = & & & & & &         & & & & & & & & & & & & & & & &                                                                                                                                                     % % % % % % % % % % % % % % % $ $ $ $ $ $ $ $ $ $ $ $ $ $ $ $ $ $ $ $ $ $ $ @ @ @ @ @ @ @ @ @ @ @ @ @ @ @ @ @ @ @ @ @ @ @ @ @ @ @ @ @ @ @ @ @                                                                                                     + + + + + + + + + + + + + + + O + + + + O O O O O O O O O O O O O O O O O O O O O     ",
"    k a a a a a a a a a a a a a a a a a a a a a a a a a a a a a 6 6 6 3 a a a a 3 3 a                                                                                                     2 > 2 , 2 2 2 , , , , , , , , , > > > > > > > > > > > > > > > > > > > > > > > > > > > > > > > > > > : > : : : > > : : : : : : : : : : : : : : :                                                                                                                                                     = & & & & & & & = = & & & & &         & & & & & & & & & & & & & & &                                                                                                                                                     % % % % % % % % % % % % % % % $ $ $ $ $ $ $ $ $ $ $ $ $ $ $ $ $ $ $ $ $ $ $ @ # @ @ @ @ @ @ @ @ @ @ @ @ @ @ @ @ @ @ @ @ @ @ @ @ @ @ @ @ @ @ @ @                                                                                                     + + + + + + + + + + + + + + + + + + + O O O O O O O O O O O O O O O O O O O O O O     ",
"    k a a a a a a a a a a a a a a a a a a a a a a a a a a a a a 6 6 3 3 a a a a a a a                                                                                                     > > 2 2 2 2 , , , , , , , , , > > > > > > > > > > > > > > > > > > > > > > > > > > > > > > > > > > : : > : : : > : : : : : : : : : : : : : : : : :                                                                                                                                                     & & & & & & & & & & & & & &         & & & & & & & & & & & & & &                                                                                                                                                     % % % % % % % % % % % % % % % $ $ $ $ $ $ $ $ $ $ $ $ $ $ $ $ $ $ $ $ $ $ $ @ @ @ @ @ @ @ @ @ @ @ @ @ @ @ @ @ @ @ @ @ @ @ @ @ @ @ @ @ @ @ @ @ @ @                                                                                                     + + + + + + + + + + + + + + + + + + O O O O O O O O O O O O O O O O O O O O O O O     ",
"    k a a a a a a a a a a a a a a a a a a a a a a a a 6 6 6 a a 6 6 6 a a a 3 3 a a a                                                                                                     > 2 2 2 2 , , , , , , , , , > > > > > > > > > > > > > > > > > > > > > > > > > > > : : > : : > > : : : : : : : : : : : : : : : : : : : : : : : : : :                                                                                                                                                     & & & & & & = = & & & & &         & & & & & & & & & & & & &                                                                                                                                                     % % % % % % % % % % % % % % % $ $ $ $ $ $ $ $ $ $ $ $ $ $ $ $ $ $ $ $ $ $ $ @ @ @ @ @ @ @ @ @ @ @ @ @ @ @ @ @ @ @ @ @ @ @ @ @ @ @ @ @ @ @ @ @ @ @ @                                                                                                     + + + + + O + + + + + + + + + + + O O O O O O O O O O O O O O O O O O O O O O O O     ",
"    k a a a a a a a a a a a a a a a a a a a a a a a 6 6 6 6 a a 6 6 6 a a a 6 6 a 6 a                                                                                                     > 2 2 2 , , , , , , , , , > > > > > > > > > > > > > > > > > > > > > > : : > > > > > > > > : : : : : : : : : : : : : : : : : : : : : : : : : : : : : :                                                                                                                                                     & & & & & & & & & & & &         & & & & & & & & & & & &                                                                                                                                                     % % % % % % % % % % % % % % % $ $ $ $ $ $ $ $ $ $ $ $ $ $ $ $ $ $ $ $ $ $ $ @ @ @ @ @ @ @ @ @ @ @ @ @ @ @ @ @ @ @ @ @ @ @ @ @ @ @ @ @ @ @ @ @ @ @ @ @                                                                                                     O + + + + + + + + + + + + + + + O O O O O O O O O O O O O O O O O O O O O O O O O     ",
"    k a a a a a a a a a a a a a a a a a a a a a a a 6 6 6 a a 6 6 3 3 a a a 6 6 6 6 3                                                                                                     2 2 2 > > , , , , , , , > > > > > > > > > > > > > > > > > > > > > > > > > > : : : > > > > > : : : > > > > : : : : : : : : : : : : : : : : : : : : : : :                                                                                                                                                     & & & & & & & & & & &         & & & & & & & & & & &                                                                                                                                                     % % % % % % % % % % % % % % % $ $ $ $ $ $ $ $ $ $ $ $ $ $ $ $ $ $ $ $ $ $ $ @ @ @ @ @ @ @ @ @ @ @ @ @ @ @ @ @ @ @ @ @ @ @ @ @ @ @ @ @ @ @ @ @ @ @ @ @ @                                                                                                     O + + + + + + + + + + + + + + O O O O O O O O O O O O O O O O O O O O O O O O O O     ",
"    k a a a a a a a a a a a a a a a a a a a a a a a 6 a 6 6 6 6 6 6 a a a a 6 6 6 6 3                                                                                                     2 2 , > > , , , , , , > > > > > > > > > > > > > > > > > > > > > > > > > > > > > > > > > > : : > > > > > : : : : : : : : : : : : : : : : : : : : : : : : :                                                                                                                                                     & & & & & & & & & &         & & & & & & & & & &                                                                                                                                                     % % % % % % % % % % % % % % % $ $ $ $ $ $ $ $ $ $ $ $ $ $ $ $ $ $ $ $ $ $ $ @ @ @ @ @ @ @ @ @ @ @ @ @ @ @ @ @ @ @ @ @ @ @ @ @ @ @ @ @ @ @ @ @ @ @ @ @ @ @                                                                                                     O + + O + + + + + + + + + + O O O O O O O O O O O O O O O O O O O O O O O O O O O     ",
"    k a a a a a a a a a a a a a a a a a a a a a 6 a a a a a 6 3 6 6 3 a a a 6 6 6 6 3                                                                                                     2 , , , , , , , , , > > > > > > > > > > > > > > > > > > > > > > > > > > > > > > > > > > > : : > > > > : : : : : : : : : : : : : : : : : : : : : : : : : : :                                                                                                                                                     & & & & & & & & &         & & & & & & & & &                                                                                                                                                     % % % % % % % % % % % % % % % $ $ $ $ $ $ $ $ $ $ $ $ $ $ $ $ $ $ $ $ $ $ $ @ @ @ @ @ @ @ @ @ @ @ @ @ @ @ @ @ @ @ @ @ @ @ @ @ @ @ @ @ @ @ @ @ @ @ @ @ @ @ @                                                                                                     O + + O + + + + + + + + + O O O O O O O O O O O O O O O O O O O O O O O O O O O O     ",
"    k a a a a a a a a a a a a a a a a a a a a a 6 a a a a a a a 6 6 3 a a 6 6 6 6 6 3                                                                                                     , , , , , , , , , > > > > > > > > > > > > > > > > > > > > > > > > > > > > > > > > > > > > : : : : > : : : : : : : : : : : : : : : : : : : : : : : : : : : : :                                                                                                                                                     & & & & & & & &         & & & & & & & &                                                                                                                                                     % % % % % % % % % % % % % % % $ $ $ $ $ $ $ $ $ $ $ $ $ $ $ $ $ $ $ $ $ $ $ @ @ @ @ @ @ @ @ @ @ @ @ @ @ @ @ @ @ @ @ @ @ @ @ @ @ @ @ @ @ @ @ @ @ @ @ @ @ @ @ @                                                                                                     O + + + + + + + + + + + O O O O O O O O O O O O O O O O O O O O O O O O O O O O O     ",
"    k a a a a a a a a a a a a a a a a a a 6 a a a a a 3 a 3 a a a a a a 6 6 6 6 6 6 3                                                                                                     , , , , , , , , > > > > > > > > > > > > > > > > > > > > : > > > > > > > > > > > > > > > : : : > > : : : : : : : : : : : : : : : : : : : : : : : : : : : : : : :                                                                                                                                                     & & & & & & &         & & & & & & &                                                                                                                                                     % % % % % % % % % % % % % % % $ $ $ $ $ $ $ $ $ $ $ $ $ $ $ $ $ $ $ $ $ $ $ @ @ @ @ @ @ @ @ @ @ @ @ @ @ @ @ @ @ @ @ @ @ @ @ @ @ @ @ @ @ @ @ @ @ @ @ @ @ @ @ @ @                                                                                                     O + + + + + + + + O O O O O O O O O O O O O O O O O O O O O O O O O O O O O O O O     ",
"    k a a a a a a a a a a a a a a a a a 6 6 3 3 a a a 3 a a a a a a a 6 6 6 6 6 6 6 3                                                                                                     , , , , , , , > > > > > > > > > > > > > > > > > > > > > : : > > > > : > > > > >   > > > : : : > : : : : : : : : : : : : : : : : : : : : : : : : : : : : : : : : :                                                                                                                                                     & & & & & &         & & & & & &                                                                                                                                                     % % % % % % % % % % % % % % % $ $ $ $ $ $ $ $ $ $ $ $ $ $ $ $ $ $ $ $ $ $ $ @ @   @ @ @ @ @ @ @ @ @ @ @ @ @ @ @ @ @ @ @ @ @ @ @ @ @ @ @ @ @ @ @ @ @ @ @ @ @ @ @ @                                                                                                     O + + + + + + + + + O O O O O O O O O O O O O O O O O O O O O O O O O O O O O O O     ",
"    k a a a a a a a a a a a a a a a a 6 6 6 6 a a a 3 a 6 6 6 6 a a 6 6 6 6 6 6 6 6 3                                                                                                     , , , , , , > > > > > > > > > > > > > > > > > > > > > > > > > > > > > > > > > >     > : : : : : : : : : : : : : : : : : : : : : : : : : : : : : : : : : : : : : : :                                                                                                                                                     & & & & &         & & & & &                                                                                                                                                     % % % % % % % % % % % % % % % $ $ $ $ $ $ $ $ $ $ $ $ $ $ $ $ $ $ $ $ $ $ $ @ @     @ @ @ @ @ @ @ @ @ @ @ @ @ @ @ @ @ @ @ @ @ @ @ @ @ @ @ @ @ @ @ @ @ @ @ @ @ @ @ @                                                                                                     O + + + + + + + + O O O O O O O O O O O O O O O O O O O O O O O O O O O O O O O O     ",
"    k a a a a a a a a a a a a a a a 6 6 6 6 6 a a a 6 6 6 6 6 6 a 6 6 6 6 6 6 6 6 6 3                                                                                                     , , , , , > > > > > > > > > > > > > > > > > > > > > > > > > > > > > > > > > > :       : : : : : : : : : : : : : : : : : : : : : : : : : : : : : : : : : : : : : : : :                                                                                                                                                     & & & &         & & & &                                                                                                                                                     % % % % % % % % % % % % % % % $ $ $ $ $ $ $ $ $ $ $ $ $ $ $ $ $ $ $ $ $ $ $ @ @       @ @ @ @ @ @ @ @ @ @ @ @ @ @ @ @ @ @ @ @ @ @ @ @ @ @ @ @ @ @ @ @ @ @ @ @ @ @ @ @                                                                                                     O + + + + + + + O O O O O O O O O O O O O O O O O O O O O O O O O O O O O O O O O     ",
"    k a a a a a a a a a a a a a a a a 6 6 6 a a a a a 3 a a a a 6 6 6 6 6 6 6 6 6 6 3                                                                                                     , , , , > > > > > > > > > > > > > > > > > > > > > > > > > > > > > > > > > > > >         > : : : : : : : : : : : : : : : : : : : : : : : : : : : : : : : : : : : : : : :                                                                                                                                                     & & &         & & &                                                                                                                                                     % % % % % % % % % % % % % % % $ $ $ $ $ $ $ $ $ $ $ $ $ $ $ $ $ $ $ $ $ $ $ @ @         @ @ @ @ @ @ @ @ @ @ @ @ @ @ @ @ @ @ @ @ @ @ @ @ @ @ @ @ @ @ @ @ @ @ @ @ @ @ @ @                                                                                                     O + + + + + + O O O O O O O O O O O O O O O O O O O O O O O O O O O O O O O O O O     ",
"    k a a a a a a a a a a a a a a a a 6 6 6 a a a a 6 3 a a a 6 6 6 6 6 6 6 6 6 6 6 3                                                                                                     , , , > > > > > > > > > > > > > > > > > > > > : : > > > > > > > > > > > > > > :           : : : : : : : : : : : : : : : : : : : : : : : : : : : : : : : : : : : : : : : :                                                                                                                                                     & &         & &                                                                                                                                                     % % % % % % % % % % % % % % % $ $ $ $ $ $ $ $ $ $ $ $ $ $ $ $ $ $ $ $ $ $ $ @ @           @ @ @ @ @ @ @ @ @ @ @ @ @ @ @ @ @ @ @ @ @ @ @ @ @ @ @ @ @ @ @ @ @ @ @ @ + @ @ @                                                                                                     O + + + + + O O O O O O O O O O O O O O O O O O O O O O O O O O O O O O O O O O O     ",
"    k a a a a a a a a a a a a 6 a a a a 6 6 a a 6 6 6 6 a a 6 6 6 6 6 6 6 6 6 6 6 6 3                                                                                                     , , > > > > > > > > > > > > > > > > > > > > > > : > > > > > : : : > > > : : : :             : : : : : : : : : : : : : : : : : : : : : : : : : : : : : : : : : : : : : : : :                                                                                                                                                     &         &                                                                                                                                                     % % % % % % % % % % % % % % % $ $ $ $ $ $ $ $ $ $ $ $ $ $ $ $ $ $ $ $ $ $ $ @ @             @ @ @ @ @ @ @ @ @ @ @ @ @ @ @ @ @ @ @ @ @ @ @ @ @ @ @ @ @ @ @ @ @ @ @ + + @ @ @                                                                                                     O + + + + O O O O O O O O O O O O O O O O O O O O O O O O O O O O O O O O O O O O     ",
"    a a a a a a a a a a a a 6 6 a a a a 6 6 a a 6 6 6 6 a 6 6 6 6 6 6 6 6 6 6 6 6 6 3                                                                                                     , > > > > > > > > > > > > > > > > > > > > > > > > > > > > > > > : > > : : : : :               : : : : : : : : : : : : : : : : : : : : : : : : : : : : : : : : : : : : : : : :                                                                                                                                                                                                                                                                                                                 % % % % % % % % % % % % % % % $ $ $ $ $ $ $ $ $ $ $ $ $ $ $ $ $ $ $ $ $ $ $ @ @               @ @ @ @ @ @ @ @ @ @ @ @ @ @ @ @ @ @ @ @ @ @ @ @ @ @ @ @ @ @ @ @ @ @ + + + @ @ @                                                                                                     O + + + O O O O O O O O O O O O O O O O O O O O O O O O O O O O O O O O O O O O O     ",
"    a a a a a a a a a a a a a a 6 6 6 3 a a a a 3 3 a a 6 6 6 6 6 6 6 6 6 6 6 6 6 6 6                                                                                                     > > > > > > > > > > > > > > > > > > > > > > > > > > > > > > > > > > : : : > : >                 : : : : : : : : : : : : : : : : : : : : : : : : : : : : : : : : : : : : : : : :                                                                                                                                                                                                                                                                                                             % % % % % % % % % % % % % % % $ $ $ $ $ $ $ $ $ $ $ $ $ $ $ $ $ $ $ $ $ $ $ @ @                 @ @ @ @ @ @ @ @ @ @ @ @ @ @ @ @ @ @ @ @ @ @ @ @ @ @ @ @ @ @ @ @ @ @ @ @ @ @ @ +                                                                                                     O + + O O O O O O O O O O O O O O O O O O O O O O O O O O O O O O O O O O O O O O     ",
"    a a a a a a a a a a a a a a 6 6 3 3 a a a a a a a 6 6 6 6 6 6 6 6 6 6 6 6 6 6 6 6                                                                                                     > > > > > > > > > > > > > > > > > > > > > > > > > > > > > > > > > : : : > : : >                   : : : : : : : : : : : : : : : : : : : : : : : : : : : : : : : : : : : : : : : :                                                                                                                                                                                                                                                                                                         % % % % % % % % % % % % % % % $ $ $ $ $ $ $ $ $ $ $ $ $ $ $ $ $ $ $ $ $ $ $ @ @                   @ @ @ @ @ @ @ @ @ @ @ @ @ @ @ @ @ @ @ @ @ @ @ @ @ @ @ @ @ @ @ @ @ @ @ @ @ + @ +                                                                                                     O + O O O O O O O O O O O O O O O O O O O O O O O O O O O O O O O O O O O O O O O     ",
"    a a a a a a a a a 6 6 6 a a 6 6 6 a a a 3 3 a a 6 6 6 6 6 6 6 6 6 6 6 6 6 6 6 6 6                                                                                                     > > > > > > > > > > > > > > > > > > > > > > > > > > > > > > > > : : : > > > > :                     : : : : : : : : : : : : : : : : : : : : : : : : : : : : : : : : : : : : : : : :                                                                                                                                                                                                                                                                                                     % % % % % % % % % % % % % % % $ $ $ $ $ $ $ $ $ $ $ $ $ $ $ $ $ $ $ $ $ $ $ @ @                     @ @ @ @ @ @ @ @ @ @ @ @ @ @ @ @ @ @ @ @ @ @ @ @ @ @ @ @ @ @ @ + + @ @ @ @ @ @ +                                                                                                     O O O O O O O O O O O O O O O O O O O O O O O O O O O O O O O O O O O O O O O O O     ",
"    a a a a a a a a 6 6 6 6 a a 6 6 6 a a a 6 6 a 6 6 6 6 6 6 6 6 6 6 6 6 6 6 6 6 6 6                                                                                                     > > > > > > > > > > > > > > > > > > > > > > > > : > > > > > > : : : : > > > : :                       : : : : : : : : : : : : : : : : : : : : : : : : : : : : : : : : : : : : : : : :                                                                                                                                                                                                                                                                                                 % % % % % % % % % % % % % % % $ $ $ $ $ $ $ $ $ $ $ $ $ $ $ $ $ $ $ $ $ $ $ @ @                       @ @ @ @ @ @ @ @ @ @ @ @ @ @ @ @ @ @ @ @ @ @ @ @ @ @ @ @ @ @ + + @ @ @ + + @ + +                                                                                                     O O O O O O O O O O O O O O O O O O O O O O O O O O O O O O O O O O O O O O O O O     ",
"    a a a a a a a a 6 6 6 a a 6 6 6 3 a a a 6 6 6 6 6 6 6 6 6 6 6 6 6 6 6 6 6 6 6 6 6                                                                                                     > > > > > > > > > > > > > > > > > > > > > : > > > > > > > > : : : > > > > : : :                         : : : : : : : : : : : : : : : : : : : : : : : : : : : : : : : : : : : - - - : :                                                                                                                                                                                                                                                                                             % % % % % % % % % % % % % % % $ $ $ $ $ $ $ $ $ $ $ $ $ $ $ $ $ $ $ $ $ $ $ @ @                         @ @ @ @ @ @ @ @ @ @ @ @ @ @ @ @ @ @ @ @ @ @ @ @ @ @ @ @ @ @ @ @ + @ @ + + @ @ +                                                                                                     O O O O O O O O O O O O O O O O O O O O O O O O O O O O O O O O O O O O O O O O o     ",
"    a a a a a a a a 6 a 6 6 6 6 6 6 a a a a 6 6 6 6 6 6 6 6 6 6 6 6 6 6 6 6 6 6 6 6 6                                                                                                     > > > > > > > > > > > > > > > : : > > > : > > > > > > > > : : : : > > > : : : :                           : : : : : : : : : : : : : : : : : : : : : : : : : : : : : : : : : - - - : : : :                                                                                                                                                                                                                                                                                         % % % % % % % % % % % % % % % $ $ $ $ $ $ $ $ $ $ $ $ $ $ $ $ $ $ $ $ $ $ $ @ @                           @ @ @ @ @ @ @ @ @ @ @ @ @ @ @ @ @ @ @ @ @ @ @ @ @ @ @ @ @ @ @ + + @ @ + + @ @ +                                                                                                     O O O O O O O O O O O O O O O O O O O O O O O O O O O O O O O O O O O O O O O o o     ",
"    a a a a a a 6 a a a a a 6 3 6 6 3 a a a 6 6 6 6 6 6 6 6 6 6 6 6 6 6 6 6 6 6 6 6 6                                                                                                     > > > > > > > > > > > > > > > > : > > > > > > > > > > > : : : : : > > : : : : :                             : : : : : : : : : : : : : : : : : : : : : : : : : : : : : : : - - - - : : - ; =                                                                                                                                                                                                                                                                                     % % % % % % % % % % % % % % % $ $ $ $ $ $ $ $ $ $ $ $ $ $ $ $ $ $ $ $ $ $ $ @ @                             @ @ @ @ @ @ @ @ @ @ @ @ @ @ @ @ @ @ @ @ @ @ @ @ @ @ @ + + + @ @ @ + @ @ @ @ @ @                                                                                                     O O O O O O O O O O O O O O O O O O O O O O O O O O O O O O O O O O O O O O o o o     ",
"    a a a a a a 6 a a a a a a a 6 6 3 a a 6 6 6 6 6 6 6 6 6 6 6 6 6 2 2 2 2 6 6 6 6 6                                                                                                     > > > > > > > > > > > > > > > > > > > > > > > > > > > : : : : > > > : : : : : :                               : : : : : : : : : : : : : : : : : : : : : : : : : : : : : - - - : - : : = = = =                                                                                                                                                                                                                                                                                 % % % % % % % % % % % % % % % $ $ $ $ $ $ $ $ $ $ $ $ $ $ $ $ $ $ $ $ $ $ $ @ @                               @ @ @ @ @ @ @ @ @ @ @ @ @ @ @ @ @ @ @ @ @ @ @ @ @ @ + + + + @ @ @ + @ @ @ @ @ @                                                                                                     O O O O O O O O O O O O O O O O O O O O O O O O O O O O O O O O O O O O O o o o o     ",
"    a a a 6 a a a a a 3 a 3 a a a a a a 6 6 6 6 6 6 6 6 6 6 6 6 6 6 6 6 6 6 6 6 6 6 6                                                                                                     > > > > > > > > > > > > > > > > > > > > > > > > > > > > > > > : : : : : : : : :                                 : : : : : : : : : : : : : : : : : : : : : : : : : : : - - : : : - - = = - : = :                                                                                                                                                                                                                                                                             % % % % % % % % % % % % % % % $ $ $ $ $ $ $ $ $ $ $ $ $ $ $ $ $ $ $ $ $ $ $ @ @                                 @ @ @ @ @ @ @ @ @ @ @ @ @ @ @ @ @ @ @ @ @ @ @ @ @ @ @ + + + @ @ @ @ + @ @ @ @ +                                                                                                     O O O O O O O O O O O O O O O O O O O O O O O O O O O O O O O O O O O O o o o o o     ",
"    a a 6 6 3 3 a a a 3 a a a a a a a 6 6 6 6 6 6 6 6 6 6 6 6 6 6 6 6 6 6 6 6 6 6 6 6                                                                                                     > > > > > > > > > > > > > > > > > > > > > > > > > > > > > > > : : : : : : : : :                                 : : : : : : : : : : : : : : : : : : : : : : : : : : - - - : : : - - = - : : = : -                                                                                                                                                                                                                                                                         % % % % % % % % % % % % % % % $ $ $ $ $ $ $ $ $ $ $ $ $ $ $ $ $ $ $ $ $ $ $ @ @                                   @ @ @ @ @ @ @ @ @ @ @ @ @ @ @ @ @ @ @ @ @ @ @ @ + @ @ + @ @ @ @ @ + + @ + @ + +                                                                                                     O O O O O O O O O O O O O O O O O O O O O O O O O O O O O O O O O O O o o o o o o     ",
"    a a 6 6 6 a a a 3 a 6 6 6 6 a a 6 6 6 6 6 6 6 6 6 6 6 6 6 6 6 6 6 6 6 6 6 6 6 6 6                                                                                                     > > > > > > > > > > > > > > > > > > > > > > : > : : : > : > > : : : : : : : : :                                   : : : : : : : : : : : : : : : : : : : : : : : : - - - - : : : : - - : : : : - - -                                                                                                                                                                                                                                                                     % % % % % % % % % % % % % % % $ $ $ $ $ $ $ $ $ $ $ $ $ $ $ $ $ $ $ $ $ $ $ @ @ @                                   @ @ @ @ @ @ @ @ @ @ @ @ @ @ @ @ @ @ @ @ @ @ @ + + @ @ @ @ @ @ + @ + @ @ + + + +                                                                                                     O O O O O O O O O O O O O O O O O O O O O O O O O O O O O O O O O O o o o o o o o     ",
"    a a 6 6 6 a a a 6 6 6 6 6 6 a 6 6 6 6 6 6 6 6 6 6 6 6 6 6 6 6 6 6 6 6 6 6 6 6 6 6                                                                                                     > > > > > > > > > > > > > > > > : > > > > : : : : : : : : > : : : : : : : : : :                                     : : : : : : : : : : : : : : : : : : : : : : : - - - - : : - : : - : : : - - - - -                                                                                                                                                                                                                                                                 % % % % % % % % % % % % % % % $ $ $ $ $ $ $ $ $ $ $ $ $ $ $ $ $ $ $ $ $ $ $ @ @ @                                     @ @ @ @ @ @ @ @ @ @ @ @ @ @ @ @ @ @ @ @ @ @ + + + @ @ @ @ @ @ + + @ @ @ + + + +                                                                                                     O O O O O O O O O O O O O O O O O O O O O O O O O O O O O O O O O o o o o o o o o     ",
"    a a a a a a 6 6 3 a a a 6 6 6 6 6 6 6 6 6 6 6 6 6 6 6 6 6 6 6 6 2 2 6 6 6 6 6 6 6                                                                                                     > > > > > > > > > > > > > > > > > > > > > > : > > > : : : : : : : : : : : : : :                                       : : : : : : : : : : : : : : : : : : : : - - - : : : : : : : = = = : - - - - - - -                                                                                                                                                                                                                                                             % % % % % % % % % % % % % % % $ $ $ $ $ $ $ $ $ $ $ $ $ $ $ $ $ $ $ $ $ $ $ @ @ @                                       @ @ @ @ @ @ @ @ @ @ @ @ @ @ @ @ @ @ @ @ @ + + @ @ @ + + + @ @ @ @ @ @ + + + + +                                                                                                     O O O O O O O O O O O O O O O O O O O O O O O O O O O O O O O O o o o o o o o o o     ",
"    a a a a 6 6 6 6 a a a a 6 6 6 6 6 6 6 6 6 6 6 6 6 6 6 6 6 6 6 6 2 2 6 6 6 6 6 6 6                                                                                                     > > > > > > > > > > : > > > > > > > > > > : : > > : : : : : : : : : : : : : : :                                         : : : : : : : : : : : : : : : : : : - - - : : : : : : : : = = : - - - - - - - - -                                                                                                                                                                                                                                                         % % % % % % % % % % % % % % % $ $ $ $ $ $ $ $ $ $ $ $ $ $ $ $ $ $ $ $ $ $ $ @ @ @                                         @ @ @ @ @ @ @ @ @ @ @ @ @ @ @ @ @ @ @ @ @ + @ @ @ @ + + + @ @ @ @ @ @ @ + + + +                                                                                                     O O O O O O O O O O O O O O O O O O O O O O O O O O O O O O O o o o o o o o o o o     ",
"    a a 6 6 6 6 6 6 3 a a a 6 6 6 6 6 6 6 6 6 6 6 2 6 6 6 6 6 6 6 6 6 2 6 6 6 6 6 6 6                                                                                                     > > > > > > > > > > : > > > > > > > > > : : : > > > > : : : : : : : : : : : : :                                           : : : : : : : : : : : : : : : : - - - - : : : : = = = = = = - - - - - - - - - - -                                                                                                                                                                                                                                                     % % % % % % % % % % % % % % % $ $ $ $ $ $ $ $ $ $ $ $ $ $ $ $ $ $ $ $ $ $ $ @ @ #                                           @ @ @ @ @ @ @ @ @ @ @ @ @ @ @ @ @ @ @ + + + + @ @ @ @ + + @ @ @ @ + + + + + + +                                                                                                     O O O O O O O O O O O O O O O O O O O O O O O O O O O O O O o o o o o o o o o o o     ",
"    a a 6 6 6 6 6 6 3 a a 6 6 6 6 6 6 6 6 6 6 6 6 6 6 6 6 6 6 6 6 6 6 2 6 6 6 6 6 6 6                                                                                                     > > > > > > > > > > > : : > > > > > > : : : : > > > : : : : : : : : : : : : : :                                             : : : : : : : : : : : : : : - - - : - : : = = = = = = = = - - - - - - - - - - - =                                                                                                                                                                                                                                                 % % % % % % % % % % % % % % % $ $ $ $ $ $ $ $ $ $ $ $ $ $ $ $ $ $ $ $ $ $ $ @ @ @                                             @ @ @ @ @ @ @ @ @ @ @ @ @ @ @ @ @ @ + + + + + @ @ @ @ + @ @ @ @ + + + + + + + +                                                                                                     O O O O O O O O O O O O O O O O O O O O O O O O O O O O O o o o o o o o o o o o o     ",
"    6 6 6 a a a a a a a 6 6 6 6 6 6 6 6 6 6 6 6 6 6 6 6 6 6 6 6 2 2 2 2 2 6 6 6 6 6 2                                                                                                     > > > > > > > > > > > : > > > > > > : : : : > : : : : : : : : : : : : : : : : :                                               : : : : : : : : : : : : - - : : : - - = = : : = : : - - - - - - - - - - - - = = =                                                                                                                                                                                                                                             % % % % % % % % % % % % % % % $ $ $ $ $ $ $ $ $ $ $ $ $ $ $ $ $ $ $ $ $ $ $ @ @ @                                               @ @ @ @ @ @ @ @ @ @ @ @ @ @ @ @ @ @ @ + + + @ @ @ @ @ @ @ + + + + + + + + + + +                                                                                                     O O O O O O O O O O O O O O O O O O O O O O O O O O O O o o o o o o o o o o o o o     ",
"    6 6 3 3 a a a a a 6 6 6 6 6 6 6 6 6 6 6 6 6 6 6 6 6 6 6 6 6 6 2 2 2 2 2 6 6 6 2 2                                                                                                     > > > > > > > > > > > > > > > > > : : : : : > : : : : : : : : : : : : : : : : :                                                 : : : : : : : : : : - - - : : : - - = = = : = : - - - - - - - - - - - - = = = = =                                                                                                                                                                                                                                         % % % % % % % % % % % % % % % $ $ $ $ $ $ $ $ $ $ $ $ $ $ $ $ $ $ $ $ $ $ $ @ @ @                                                 @ @ @ @ @ @ @ @ @ @ @ @ @ @ @ @ + @ @ + @ @ @ @ @ @ @ @ @ + + + + + + + + + + @                                                                                                     O O O O O O O O O O O O O O O O O O O O O O O O O O O o o o o o o o o o o o o o o     ",
"    2 6 a a a a a a 6 6 6 6 6 6 6 6 6 6 6 6 6 6 2 6 6 6 6 6 2 6 6 6 6 2 6 6 6 6 2 2 2                                                                                                     > > > > > > > > > : : > > > > > > > > > > > > : : : : : : : : : : : : : : : : :                                                   : : : : : : : : - - - - : : : : - - : : : : - - - - - - - - - - - - = = = = = = =                                                                                                                                                                                                                                     % % % % % % % % % % % % % % % $ $ $ $ $ $ $ $ $ $ $ $ $ $ $ $ $ $ $ $ $ $ $ @ @ @                                                   @ @ @ @ @ @ @ @ @ @ @ @ @ @ @ + + @ @ @ @ @ @ @ @ @ @ @ @ + + + + @ + + + + + +                                                                                                     O O O O O O O O O O O O O O O O O O O O O O O O O O o o o o o o o o o o o o o o o     ",
"    6 a a a a a a 6 6 6 6 6 6 6 6 6 6 6 6 6 6 6 2 2 2 6 6 6 2 2 6 6 6 6 6 6 6 2 2 2 2                                                                                                     > > > > > > > > > > > > > > > > > > > > > > : : : : : : : : : : : : : : : : : :                                                     : : : : : : - - - - - : : - : : - : : : - - - - - - - - - - - - = = = = = = = = =                                                                                                                                                                                                                                 % % % % % % % % % % % % % % % $ $ $ $ $ $ $ $ $ $ $ $ $ $ $ $ $ $ $ $ $ $ $ @ @ $                                                     @ @ @ @ @ @ @ @ @ @ @ @ @ @ + + + @ @ @ @ @ @ @ @ @ @ @ + + + + + @ + + + + + +                                                                                                     O O O O O O O O O O O O O O O O O O O O O O O O O o o o o o o o o o o o o o o o o     ",
"    a a a a a a 6 6 6 6 6 6 6 6 6 6 6 6 6 6 6 6 6 2 2 2 6 6 6 2 6 6 6 6 2 2 2 2 2 2 2                                                                                                     > > > > > > > > > > > > > > > > > : : > > : : : : : : : : : : : : : : : : : : :                                                       : : : : - - - : - - : : : - = = : : - - - - - - - - - - - - = = = = = = = = = = &                                                                                                                                                                                                                             % % % % % % % % % % % % % % % $ $ $ $ $ $ $ $ $ $ $ $ $ $ $ $ $ $ $ $ $ $ $ @ @ @                                                       @ @ @ @ @ @ @ @ @ @ @ @ @ + + @ @ @ @ + + + + @ @ @ @ + + + + + + + + + + + + +                                                                                                     O O O O O O O O O O O O O O O O O O O O O O O O o o o o o o o o o o o o o o o o o     ",
"    a a a a a 6 6 6 6 6 6 6 6 6 6 6 6 6 6 6 6 6 6 6 6 6 6 6 6 6 6 6 6 6 2 2 2 2 2 2 2                                                                                                     > > > > > > > > > : > > > : > : : : : > : : : : : : : : : : : : : : : : : : : :                                                         : : : - - - : - - : : : : = = : - - - - - - - - - - - - = = = = = = = = = = & & &                                                                                                                                                                                                                         % % % % % % % % % % % % % % % $ $ $ $ $ $ $ $ $ $ $ $ $ $ $ $ $ $ $ $ $ $ $ @ @ @                                                         @ @ @ @ @ @ @ @ @ @ @ @ + + + @ @ @ + + + + + @ @ @ + + + + + + + @ + + + + + +                                                                                                     O O O O O O O O O O O O O O O O O O O O O O O o o o o o o o o o o o o o o o o o o     ",
"    a a a a 6 6 6 6 6 6 6 6 6 6 6 6 6 6 6 6 2 2 6 6 6 6 6 6 6 6 6 6 6 6 2 2 2 2 2 2 2                                                                                                     > > > > > > > > > : : > : : : : : : : : : : : : : : : : : : : : : : : : : : : :                                                           - - - - : : - : : : = = = = - - - - - - - - - - - - = = = = = = = = = = - - & & &                                                                                                                                                                                                                     % % % % % % % % % % % % % % % $ $ $ $ $ $ $ $ $ $ $ $ $ $ $ $ $ $ $ $ $ $ $ @ @ @                                                           @ @ @ @ @ @ @ @ @ @ @ + + + + @ @ @ @ + + + + + @ + + + + + + @ + @ + + + + + +                                                                                                     O O O O O O O O O O O O O O O O O O O O O O o o o o o o o o o o o o o o o o o o o     ",
"    a a a 6 6 6 6 6 6 6 6 6 6 6 6 6 6 6 6 6 6 2 6 6 6 6 6 6 6 6 6 6 2 2 2 2 2 2 2 2 2                                                                                                     > > > > : > > > > > : : : : : : : : : : : : : : : : : : : : : : : : : : : : : :                                                             - - - : : - : : : = = = = - - - - - - - - - - - = = = = = = = = = = - - - & & & &                                                                                                                                                                                                                 % % % % % % % % % % % % % % % $ $ $ $ $ $ $ $ $ $ $ $ $ $ $ $ $ $ $ $ $ $ $ @ @ @                                                             @ @ @ @ @ @ @ @ @ @ + + + + + @ @ @ @ + + + + @ + + + + + + + + @ + + + + + + +                                                                                                     O O O O O O O O O O O O O O O O O O O O O o o o o o o o o o o o o o o o o o o o o     ",
"    a a 6 6 6 6 6 6 6 6 6 6 6 6 6 6 6 6 6 6 2 2 6 6 6 6 6 6 2 6 6 6 2 2 2 2 2 2 2 2 2                                                                                                     > > > > > > > > > > : : > > : > > : : : : : : : : : : : : : : : : : : : : : : :                                                               : : : : : : : : : : - - - - - - - - - - - - = = = = = = = = = = & & & - & & - - *                                                                                                                                                                                                             % % % % % % % % % % % % % % % $ $ $ $ $ $ $ $ $ $ $ $ $ $ $ $ $ $ $ $ $ $ $ @ @ @                                                               @ @ @ @ @ @ @ @ @ @ @ + + @ @ @ @ @ @ @ @ @ @ + + + + + + + + + @ + + + + + + +                                                                                                     O O O O O O O O O O O O O O O O O O O O o o o o o o o o o o o o o o o o o o o o o     ",
"    a 6 6 6 6 6 6 6 6 6 6 6 6 6 6 6 6 6 6 6 2 6 6 6 6 6 6 6 2 2 6 2 2 2 2 2 2 2 2 2 2                                                                                                     > > > > > > > > > : : : : > > > : : : : : : : : : : : : : : : : : : : : : : : :                                                                 - : : : : : : : - - - - - - - - - - - - = = = = = = = = = = & & & & & & & - - & &                                                                                                                                                                                                         % % % % % % % % % % % % % % % $ $ $ $ $ $ $ $ $ $ $ $ $ $ $ $ $ $ $ $ $ $ $ @ @ @                                                                 @ @ @ @ @ @ @ @ + @ @ + + @ @ @ @ @ @ @ @ @ + + @ + + + + + + + + + + + + + + +                                                                                                     O O O O O O O O O O O O O O O O O O O o o o o o o o o o o o o o o o o o o o o o o     ",
"    5 6 6 6 6 6 6 6 6 6 6 6 6 6 6 6 6 6 6 6 6 6 6 2 2 6 6 6 6 2 2 2 2 2 2 2 2 2 2 2 2                                                                                                     > > > > > > > > : : : > > > > : : : : : : : : : : : : : : : : : : : : : : : : :                                                                   - = : = : : - - - - - - - - - - - - = = = = = = = = = = & & & & * & & * - = & & &                                                                                                                                                                                                     % % % % % % % % % % % % % % % $ $ $ $ $ $ $ $ $ $ $ $ $ $ $ $ $ $ $ $ $ $ $ @ @ @                                                                   @ @ @ @ @ @ @ @ @ @ @ + + @ @ @ @ @ @ @ @ + + @ + + + + + + + + + + + + + + + +                                                                                                     O O O O O O O O O O O O O O O O O O o o o o o o o o o o o o o o o o o o o o o o o     ",
"    6 6 6 6 6 6 6 6 6 6 6 6 6 6 6 6 6 6 6 6 6 6 6 2 2 2 6 6 6 2 2 2 2 2 2 2 2 2 2 2 2                                                                                                     > > > > > > > : : : : > > > : : : : : : : : : : : : : : : : : : : : : : : : : :                                                                     = = = : - - - - - - - - - - - - = = = = = = = = = = & & & & & * & & & = = & & & &                                                                                                                                                                                                 % % % % % % % % % % % % % % % $ $ $ $ $ $ $ $ $ $ $ $ $ $ $ $ $ $ $ $ $ $ $ @ @ @                                                                     @ @ @ @ @ @ @ @ @ @ @ + + + @ @ @ @ @ @ + + + + + + + + + + + + + + + + + + + +                                                                                                     O O O O O O O O O O O O O O O O O o o o o o o o o o o o o o o o o o o o o o o o o     ",
"    6 6 6 6 6 6 6 6 6 6 6 6 2 2 2 2 6 6 6 6 6 6 2 6 2 2 2 2 2 2 2 2 2 2 2 2 2 2 2 2 2                                                                                                     > > > > > > : : : > > > > : : : : : : : : : : : : : : : : : : : : : : : : : : :                                                                       : : - - - - - - - - - - - - = = = = = = = = = = - - & & & & = = = = = = & & & & &                                                                                                                                                                                             % % % % % % % % % % % % % % % $ $ $ $ $ $ $ $ $ $ $ $ $ $ $ $ $ $ $ $ $ $ $ @ @ #                                                                       @ @ @ @ @ + + + + + @ @ @ + + + + @ @ + + + + + + + + + + + + + + + + + + + + +                                                                                                     O O O O O O O O O O O O O O O O o o o o o o o o o o o o o o o o o o o o o o o o o     ",
"    6 6 6 6 6 6 6 6 6 6 6 6 2 2 2 2 6 6 6 6 6 6 2 2 2 2 2 2 2 2 2 2 2 2 2 2 2 2 2 2 2                                                                                                     > > > > > : : : : > > > : : : : : : : : : : : : : : : : : : : : : : : : : : : :                                                                         - - - - - - - - - - - - = = = = = = = = = = & - - & & & = = = & = = = & & & & & &                                                                                                                                                                                         % % % % % % % % % % % % % % % $ $ $ $ $ $ $ $ $ $ $ $ $ $ $ $ $ $ $ $ $ $ $ @ @ @                                                                         @ @ @ @ @ + @ + + @ @ @ @ + + + + @ + + + + + + + + + + + + + + + + + + + + + +                                                                                                     O O O O O O O O O O O O O O O o o o o o o o o o o o o o o o o o o o o o o o o o o     ",
"    6 6 6 6 6 6 6 6 6 6 6 6 6 2 2 2 6 6 6 6 6 6 2 2 2 2 2 2 2 2 2 2 2 2 2 2 2 2 2 2 2                                                                                                     > > > > : : : : : > > : : : : : : : : : : : : : : : : : : : : : : : : : : : : :                                                                           - - - - - - - - - - = = = = = = = = = = - - - - & & & & = = & & & & & & & & & & &                                                                                                                                                                                     % % % % % % % % % % % % % % % $ $ $ $ $ $ $ $ $ $ $ $ $ $ $ $ $ $ $ $ $ $ $ @ @ @                                                                           @ @ @ @ @ @ @ @ @ @ @ @ @ @ @ + @ + + @ + + + + + + + @ + + + + + + + + + + + +                                                                                                     O O O O O O O O O O O O O O o o o o o o o o o o o o o o o o o o o o o o o o o o o     ",
"    6 6 6 6 6 6 6 6 6 6 6 6 6 6 6 6 6 6 6 6 6 6 6 2 2 2 2 2 2 2 2 2 2 2 2 2 2 , 2 2 2                                                                                                     > > > : : : : > > > : : : : : : : : : : : : : : : : : : : : : : : : : : : : : :                                                                             - - - - - - - - = = = = = = = = = = - - - * * & & & & = = & & & & & & & & & & & &                                                                                                                                                                                 % % % % % % % % % % % % % % % $ $ $ $ $ $ $ $ $ $ $ $ $ $ $ $ $ $ $ $ $ $ $ @ @ @                                                                             @ @ @ @ @ @ @ @ @ @ @ @ @ @ @ @ + + @ + + + + + + + @ @ @ + + + + + + + + + + +                                                                                                     O O O O O O O O O O O O O o o o o o o o o o o o o o o o o o o o o o o o o o o o X     ",
"    6 6 6 6 6 6 6 6 6 6 6 6 6 6 6 6 6 6 2 2 2 6 6 6 2 2 2 2 2 2 2 2 2 2 2 2 2 , 2 2 ,                                                                                                     > > : > > > > : : : : : : : : : : : : : : : : : : : : : : : : : : : : : : : : :                                                                               - - - - - - = = = = = = = = = = & & & - * & & & & & & = & & & & & & & & & & & & &                                                                                                                                                                             % % % % % % % % % % % % % % % $ $ $ $ $ $ $ $ $ $ $ $ $ $ $ $ $ $ $ $ $ $ $ @ @ @                                                                               @ + + + + @ @ @ @ @ @ @ @ @ @ + + + + + + + + + + + + + + + + + + + + + + + + +                                                                                                     O O O O O O O O O O O O o o o o o o o o o o o o o o o o o o o o o o o o o o o X X     ",
"    6 6 6 6 6 6 6 6 6 6 6 6 6 6 6 6 6 6 2 2 6 6 6 2 2 2 2 2 2 2 2 2 2 2 2 2 , , , 2 ,                                                                                                     > > > > > > > : : : : : : : : : : : : : : : : : : : : : : : : : : : : : : : : :                                                                                 - - - - = = = = = = = = = = & & & & & * & & & & & & & & & & & & & & & & & & & & &                                                                                                                                                                         % % % % % % % % % % % % % % % $ $ $ $ $ $ $ $ $ $ $ $ $ $ $ $ $ $ $ $ $ $ $ @ @ @                                                                                 @ + + + + + + @ @ @ @ @ @ @ + + + + + + + + + + + + + + + + + + + + + + + + + +                                                                                                     O O O O O O O O O O O o o o o o o o o o o o o o o o o o o o o o o o o o o o X X X     ",
"    6 6 6 6 6 6 6 6 6 6 6 6 2 2 2 6 6 6 2 2 2 2 2 2 2 2 2 2 2 2 2 2 2 2 2 2 2 2 , , ,                                                                                                     > > > > : > > : : : : : : : : : : : : : : : : : : : : : : : : : : : : : : : : :                                                                                   - - = = = = = = = = = = & & & & * & & & & & & & & & = & & & & & & & & & & & & & &                                                                                                                                                                     % % % % % % % % % % % % % % % $ $ $ $ $ $ $ $ $ $ $ $ $ $ $ $ $ $ $ $ $ $ $ @ @ @                                                                                   @ @ @ + @ + + + + @ @ @ @ + + + + + + + + + @ + + + + + + + + + + + + + + + + +                                                                                                     O O O O O O O O O O o o o o o o o o o o o o o o o o o o o o o o o o o o o X X X X     ",
"    6 6 6 6 6 6 6 6 6 6 6 6 6 2 2 6 6 6 2 2 2 2 2 2 2 2 2 2 2 2 2 2 2 , 2 2 2 2 2 , ,                                                                                                     > > > : : > : : : : : : : : : : : : : : : : : : : : : : : : : : : : : : : : : :                                                                                     = = = = = = = = = = & & & & & * & & & & & & & & = & & & & & & & & & & & & & & & &                                                                                                                                                                 % % % % % % % % % % % % % % % $ $ $ $ $ $ $ $ $ $ $ $ $ $ $ $ $ $ $ $ $ $ $ @ @ @                                                                                     @ @ @ @ @ + + + @ @ @ @ + + + + + + + + + + @ + + + + + + + + + + + + + + + + +                                                                                                     O O O O O O O O O o o o o o o o o o o o o o o o o o o o o o o o o o o o X X X X X     ",
"    6 6 6 6 6 6 2 2 2 2 6 6 6 6 2 6 6 6 6 2 2 2 2 2 2 2 2 2 2 2 2 2 2 2 2 2 2 2 , 2 2                                                                                                     > > > : : : : : : : : : : : : : : : : : : : : : : : : : : : : : : : : : : : : :                                                                                       = = = = = = = = - - & & & & = = & = & & & & & & & & & & & & & & & & & & & & & & &                                                                                                                                                             % % % % % % % % % % % % % % % $ $ $ $ $ $ $ $ $ $ $ $ $ $ $ $ $ $ $ $ $ $ $ @ @ @                                                                                       @ @ @ @ @ @ @ @ @ + + + + + + + + + + + + + + + + + + + + + + + + + + + + + + +                                                                                                     O O O O O O O O o o o o o o o o o o o o o o o o o o o o o o o o o o o X X X o o O     ",
"    6 6 6 6 6 6 6 6 2 2 6 6 6 6 6 6 6 6 2 2 2 2 2 2 2 2 2 2 2 2 2 , 2 , 2 2 2 2 , > 2                                                                                                     > > > : : : : : : : : : : : : : : : : : : : : : : : : : : : : : : : : : : : : :                                                                                         = = = = = = & - - & & & = = = = = & & & & & & & & & & & & & & & & & & & & & & & &                                                                                                                                                         % % % % % % % % % % % % % % % $ $ $ $ $ $ $ $ $ $ $ $ $ $ $ $ $ $ $ $ $ $ $ @ @ #                                                                                         @ @ @ @ @ @ @ @ @ + + + + + + + + + + + + + + + + + + + + + + + + + + + + + + +                                                                                                     O O O O O O O o o o o o o o o o o o o o o o o o o o o o o o o o o o X X X X o o O     ",
"    6 6 6 6 6 6 6 6 6 6 6 6 6 6 6 6 6 6 2 2 2 2 2 2 2 2 2 2 2 2 , , , , , , 2 2 > > ,                                                                                                     > > > : : : : : : : : : : : : : : : : : : : : : : : : : : : : : : : : : : : : :                                                                                           = = = = & & - - & & & & = = = = & & = & & & & & & & & & & & & & & & & & & & & & &                                                                                                                                                     % % % % % % % % % % % % % % % $ $ $ $ $ $ $ $ $ $ $ $ $ $ $ $ $ $ $ $ $ $ $ @ @ @                                                                                           @ + @ @ + @ @ @ @ + + + + + + + + + + + + + + + + + + + + + + + + + + + + + + +                                                                                                     O O O O O O o o o o o o o o o o o o o o o o o o o o o o o o o o o X X X X X X o X     ",
"    6 6 6 6 6 6 6 6 6 6 6 6 6 6 6 6 6 2 2 2 2 2 2 2 2 2 2 2 2 , , , , 2 , , , , > > >                                                                                                     : > : : : : : : : : : : : : : : : : : : : : : : : : : : : : : : : : : : : : : :                                                                                             = = & & & * * & & & & = = = = & & & & & & & & & & & & & & & & & & & & & & & & & &                                                                                                                                                 % % % % % % % % % % % % % % % $ $ $ $ $ $ $ $ $ $ $ $ $ $ $ $ $ $ $ $ $ $ $ @ @ @                                                                                             @ + + + + @ @ @ + + + + + + + + @ @ + + + + + + + + + + + + + + + + + + + + + +                                                                                                     O O O O O o o o o o o o o o o o o o o o o o o o o o o o o o o o X X X X X X X o X     ",
"    6 6 6 6 6 6 6 6 6 6 2 6 2 2 2 2 2 2 2 2 2 2 2 2 2 2 2 2 2 2 , , , , , , , , 2 2 2                                                                                                     > : : : : : : : : : : : : : : : : : : : : : : : : : : : : : : : : : : : : : : :                                                                                               = & = - * & & & & & & = & & & & & & & & & & & & & & & & & & & & & & & & & & & & &                                                                                                                                             % % % % % % % % % % % % % % % $ $ $ $ $ $ $ $ $ $ $ $ $ $ $ $ $ $ $ $ $ $ $ @ @ @                                                                                               + + @ @ @ @ @ + + + + + @ + @ + + + + + + + + + + + + + + + + + + + + + + + + +                                                                                                     O O O O o o o o o o o o o o o o o o o o o o o o o o o o o o o X X X X o o o X X X     ",
"    6 6 6 6 6 6 6 6 6 6 2 2 2 2 2 2 2 2 2 2 2 2 2 2 2 2 2 2 2 2 , , , , , , 2 2 2 2 2                                                                                                     : : : : : : : : : : : : : : : : : : : : : : : : : : : : : : : : : : : : : : : :                                                                                                 & & - * & & & & & & & & & & & & & & & & & & & & & & & & & & & & & & & & & & & & &                                                                                                                                         % % % % % % % % % % % % % % % $ $ $ $ $ $ $ $ $ $ $ $ $ $ $ $ $ $ $ $ $ $ $ @ @ @                                                                                                 + + + @ @ @ + + + + + + @ @ @ + + + + + + + + + + + + + + + + + + + + + + + + +                                                                                                     O O O o o o o o o o o o o o o o o o o o o o o o o o o o o o o X X X X o o o o X X     ",
"    6 6 2 2 6 6 6 6 6 6 2 2 2 2 2 2 2 2 2 2 2 2 2 2 2 2 , , 2 2 , , 2 2 2 2 2 2 2 2 ,                                                                                                     : : : : : : : : : : : : : : : : : : : : : : : : : : : : : : : : : : : : : : : :                                                                                                   - - & & & & & & & & & & & & & & & & & & & & & & & & & & & & & & & & & & & & & & &                                                                                                                                     % % % % % % % % % % % % % % % $ $ $ $ $ $ $ $ $ $ $ $ $ $ $ $ $ $ $ $ $ $ $ @ @ @                                                                                                   + @ @ @ @ @ @ + + + + + + + + + + + + + + + + + + + + + + + + + + + + + + + + +                                                                                                     O O o o o o o o o o o o o o o o o o o o o o o o o o o o o o o X X X X o o X X X X     ",
"    2 6 2 6 6 6 6 6 6 6 6 2 2 2 2 2 2 2 2 2 2 2 2 2 2 , , , 2 2 , , 2 2 2 2 2 2 2 , ,                                                                                                     : : : : : : : : : : : : : : : : : : : : : : : : : : : : : : : : : : : : : : : :                                                                                                     * & & & & & & & = & & & & & & & & & & & & & & & & & & & & & & & & & & & & & & & &                                                                                                                                 % % % % % % % % % % % % % % % $ $ $ $ $ $ $ $ $ $ $ $ $ $ $ $ $ $ $ $ $ $ $ @ @ @                                                                                                     @ @ @ @ + + + + + + + + + + + + + + + + + + + + + + + + + + + + + + + + + + + +                                                                                                     O o o o o o o o o o o o o o o o o o o o o o o o o o o o X o o o X X X X X X X X X     ",
"    6 6 2 6 6 6 6 6 2 2 2 6 2 2 2 2 2 2 2 2 2 2 2 2 , , , , , 2 2 2 2 2 2 2 2 2 , , ,                                                                                                     : : : : : : : : : : : : : : : : : : : : : : : : : : : : : : : : : : : : : : : :                                                                                                       = & & & & & = & & & & & & & & & & & & & & & & & & & & & & & & & & & & & & & & & &                                                                                                                             % % % % % % % % % % % % % % % $ $ $ $ $ $ $ $ $ $ $ $ $ $ $ $ $ $ $ $ $ $ $ @ @ @                                                                                                       @ @ @ + + + + + + + + + + + + @ @ + + + + + + + + + + + + + + + + + + + + + + +                                                                                                     o o o o o o o o o o o o o o o o o o o o o o o o o o o X X X X X X o o o X X X X X     ",
"    6 6 2 2 6 6 6 6 2 2 6 2 2 2 2 2 2 2 2 2 2 2 2 , , , , , , 2 2 2 2 2 2 2 2 , > , ,                                                                                                     : : : : : : : : : : : : : : : : : : : : : : : : : : : : : : : : : : : : : : : :                                                                                                         = & & & & & & & & & & & & & & & & & & & & & & & & & & & & & & & & & & & & & & & &                                                                                                                         % % % % % % % % % % % % % % % $ $ $ $ $ $ $ $ $ $ $ $ $ $ $ $ $ $ $ $ $ $ $ @ @ @                                                                                                         @ @ + + + + + + + @ @ + + + + + + + + + + + + + + + + + + + + + + + + + + + + +                                                                                                     o o o o o o o o o o o o o o o o o o o o o o o o o o X X o X X X X o o o X X X X X     ",
"    6 6 6 6 6 6 6 6 6 2 2 2 2 2 2 2 2 2 2 2 2 2 2 2 , 2 , , , 2 , 2 2 2 2 2 , , > > >                                                                                                     : : : : : : : : : : : : : : : : : : : : : : : : : : : : : : : : : : : : : : : :                                                                                                           & & & & & & & & & & & & & & & & & & & & & & & & & & & & & & & & & & & & & & & & & &                                                                                                                   % % % % % % % % % % % % % % % $ $ $ $ $ $ $ $ $ $ $ $ $ $ $ $ $ $ $ $ $ $ $ @ @ @                                                                                                           @ + + + + + + + @ + + + + + + + + + + + + + + + + + + + + + + + + + + + + + + +                                                                                                     o o o o o o o o o o o o o o o o o o o o o o o o o X X o o o X X X o o X X X X X X     ",
"    6 6 6 6 6 6 6 6 6 2 2 2 2 2 2 2 2 2 2 2 2 , 2 , , 2 , , , 2 > 2 2 2 2 , , , > > >                                                                                                     : : : : : : : : : : : : : : : : : : : : : : : : : : : : : : : : : : : : : : : :                                                                                                             & & & & & & & & & & & & & & & & & & & & & & & & & & & & & & & & & & & & & & & & & &                                                                                                             % % % % % % % % % % % % % % % % $ $ $ $ $ $ $ $ $ $ $ $ $ $ $ $ $ $ $ $ $ $ $ @ @ @                                                                                                             + + + + + + + + @ + + + + + + + + + + + + + + + + + + + + + + + + + + + + + + +                                                                                                     o o o o o o o o o o o o o o o o o o o o o o o o X X X o o o X X X o o X X X X X X     ",
"    6 6 6 6 6 6 2 2 2 2 2 2 2 2 2 2 2 2 2 2 , , 2 2 , , , , 2 2 > > 2 2 , , , , , , ,                                                                                                     : : : : : : : : : : : : : : : : : : : : : : : : : : : : : : : : : : : : : : : :                                                                                                               & & & & & & & & & & & & & & & & & & & & & & & & & & & & & & & & & & & & & & & & & &                                                                                                         % % % % % % % % % % % % % % % % $ $ $ $ $ $ $ $ $ $ $ $ $ $ $ $ $ $ $ $ $ $ $ @ @ @                                                                                                               + + + + + + + + @ + + + + + + + + + + + + + + + + + + + + + + + + + + + + + + +                                                                                                     o o o o o o o o o o o o o o o o o o o o o o o X X X X X X X X o o X X X X X X X X     ",
"    6 6 6 6 6 6 2 2 2 2 2 2 2 2 2 2 2 2 2 , , , 2 2 , , , , 2 2 > > 2 , , , , , , , ,                                                                                                     : : : : : : : : : : : : : : : : : : : : : : : : : : : : : : : : : : : : : : : :                                                                                                                 & & & & & & & & & & & & & & & & & & & & & & & & & & & & & & & & & & & & & & & & & &                                                                                                     % % % % % % % % % % % % % % % % $ $ $ $ $ $ $ $ $ $ $ $ $ $ $ $ $ $ $ $ $ $ $ @ @ @                                                                                                                 @ + + + + + + + + + + + + + + + + + + + + + + + + + + + + + + + + + + + + + + +                                                                                                     o o o o o o o o o o o o o o o o o o o o o o o X X X X X X X X o X X X o X X X X X     ",
"    6 6 6 6 6 6 2 2 2 2 2 2 2 2 2 2 2 2 , , 2 2 2 2 , , 2 2 2 2 > > > , , , , , , , ,                                                                                                     : : : : : : : : : : : : : : : : : : : : : : : : : : : : : : : : : : : : : : : :                                                                                                                   & & & & & & & & & & & & & & & & & & & & & & & & & & & & & & & & & & & & & & & & & &                                                                                                 % % % % % % % % % % % % % % % % $ $ $ $ $ $ $ $ $ $ $ $ $ $ $ $ $ $ $ $ $ $ $ @ @ @                                                                                                                   @ + + + + + + + + + + + + + + + + + + + + + + + + + + + + + + + + O O + + + + +                                                                                                     o o o o o o o o o o o o o o o o o o o o o o o X X X X X X o o o o X X X X X X X X     ",
"    6 6 6 6 6 2 2 2 2 2 2 2 2 2 2 2 2 , , , 2 2 2 2 , , 2 2 2 2 > > > > , , , , , , >                                                                                                     : : : : : : : : : : : : : : : : : : : : : : : : : : : : : : : : : : : : : : : :                                                                                                                     & & & & & & & & & & & & & & & & & & & & & & & & & & & & & & & & & & & & & & & & & &                                                                                             % % % % % % % % % % % % % % % % $ $ $ $ $ $ $ $ $ $ $ $ $ $ $ $ $ $ $ $ $ $ $ @ @ @                                                                                                                     + + + + + + + + + + + + + + + + + + + + + + + + + + + + + + + + + + + + + + + +                                                                                                     o o o o o o o o o o o o o o o o o o o o X o o o X X X X X X o o o X X X X X X X X     ",
"    2 2 2 2 2 2 2 2 2 2 2 2 2 2 2 2 , , , , 2 2 , , > > 2 2 2 2 , , , , , , , , , > >                                                                                                     : : : : : : : : : : : : : : : : : : : : : : : : : : : : : : : : : : : : : : : :                                                                                                                       & & & & & & & & & & & & & & & & & & & & & & & & & & & & & & & & & & & & & & & & & &                                                                                         % % % % % % % % % % % % % % % % $ $ $ $ $ $ $ $ $ $ $ $ $ $ $ $ $ $ $ $ $ $ $ @ @ @                                                                                                                       + + + + + + + + + + + + + + + + + + + + + + + + + + + + + + + + + + + + + + + +                                                                                                     o o o o o o o o o o o o o o o o o o o X X X X o o o o o X X X X X X X X X X X X X     ",
"    2 2 2 2 2 2 2 2 2 2 2 2 2 2 2 , , , , , 2 2 , > > > 2 2 2 , , , , , , , , , > > >                                                                                                     : : : : : : : : : : : : : : : : : : : : : : : : : : : : : : : : : : : : : : : -                                                                                                                         & & & & & & & & & & & & & & & & & & & & & & & & & & & & & & & & & & & & & & & & & %                                                                                     % % % % % % % % % % % % % % % % $ $ $ $ $ $ $ $ $ $ $ $ $ $ $ $ $ $ $ $ $ $ $ @ @ @                                                                                                                         + + + + + + + + + + + + + + + + + + + + + + + + + + + + + + + + + + + + + + + +                                                                                                     o o o o o o o o o o o o o o o o o o X X X X X o o o o o o X X X X X X X X X X X X     ",
"    2 2 2 2 2 2 2 2 2 2 2 2 2 2 2 2 2 2 , 2 2 2 > > 2 > 2 2 , , , , , , , , , > > > >                                                                                                     : : : : : : : : : : : : : : : : : : : : : : : : : : : : : : : : : : : : : - - -                                                                                                                           & & & & & & & & & & & & & & & & & & & & & & & & & & & & & & & & & & & & & & & & & &                                                                                 % % % % % % % % % % % % % % % % $ $ $ $ $ $ $ $ $ $ $ $ $ $ $ $ $ $ $ $ $ $ $ @ @ @                                                                                                                           + + + + + + + + + + + + + + + + + + + + + + + + + + + + + + + + + + + + + + + O                                                                                                     o o o o o o o o o o o o o o o o o X X X X X X X X o o o o X X X X X X X X X X X X     ",
"    2 2 2 2 2 2 2 2 2 2 2 2 2 , 2 2 2 2 , 2 2 2 > , 2 2 2 , , , , , , , , , > > > > >                                                                                                     : : : : : : : : : : : : : : : : : : : : : : : : : : : : : : : : : : : : : - - -                                                                                                                           & & & & & & & & & & & & & & & & & & & & & & & & & & & & & & & & & & & & & & & & & & &                                                                             % % % % % % % % % % % % % % % % $ $ $ $ $ $ $ $ $ $ $ $ $ $ $ $ $ $ $ $ $ $ $ @ @ @ @                                                                                                                           + + + + + + + + + + + + + + + + + + + + + + + + + + + + + + + + + O + + + + O O                                                                                                     o o o o o o o o o o o o o o o o o X X X X X X X X X X o o X X X X X X X X X X X X     ",
"    2 2 2 2 2 2 2 2 2 2 2 2 , , 2 2 2 2 2 2 2 2 , 2 2 2 , , , , , , , , , > > > > > >                                                                                                     : : : : : : : : : : : : : : : : : : : : : : : : : : : : : : : : : : : - - - - :                                                                                                                             & & & & & & & & & & & & & & & & & & & & & & & & & & & & & & & & & & & & & & & & & & &                                                                         % % % % % % % % % % % % % % % % $ $ $ $ $ $ $ $ $ $ $ $ $ $ $ $ $ $ $ $ $ $ $ @ @ @ @                                                                                                                             + + + + @ + + + + + + + + + + + + + + + + + + + + + + + + + + + + + + + + O O O                                                                                                     o o o o o o o o o o o o o o o X X X X X X X X X X X X X X X X X X X X X X X X X X     ",
"    2 2 2 2 2 2 2 2 2 2 2 , , , , , 2 2 2 2 2 , 2 2 2 , , , , , , , , , > > > > > > >                                                                                                     : : : : : : : : : : : : : : : : : : : : : : : : : : : : : : : : : : - - - - - :                                                                                                                               & & & & & & & & & & & & & & & & & & & & & & & & & & & & & & & & & & & & & & & & & & &                                                                     % % % % % % % % % % % % % % % % $ $ $ $ $ $ $ $ $ $ $ $ $ $ $ $ $ $ $ $ $ $ $ @ @ @ @                                                                                                                               + + + + + + + + + + + + + + + + + + + + + + + + + + + + + + + + + + + + O O O O                                                                                                     o o o o o o o o o o o o o o X X X X X X X X X X X X X X X X X X X X X X X X X X X     ",
"    2 2 2 2 2 2 2 2 2 2 2 2 , , , , 2 2 > > > > 2 2 , , , , , , , , , > > > > > > > >                                                                                                     : : : : : : : : : : : : : : : : : : : : : : : : : : : : : : : : : - - : - : : :                                                                                                                                 & & & & & & & & & & & & & & & & & & & & & & & & & & & & & & & & & & & & & & & & & & &                                                                 % % % % % % % % % % % % % % % % $ $ $ $ $ $ $ $ $ $ $ $ $ $ $ $ $ $ $ $ $ $ $ @ @ @ @                                                                                                                                 + + + + + + + + + + + + + + + + + + + + + + + + O + + + + + + + + + + O O O O O                                                                                                     o o o o o o o o o o o o o X X o o o o X X X X o o X o X X X X X X X X X X X X X X     ",
"    2 2 2 2 2 2 2 2 2 2 2 , , 2 , , , 2 , , > > 2 , , , , , , , , , > > > > > > > > >                                                                                                     : : : : : : : : : : : : : : : : : : : : : : : : : : : : : : : : - - - : : : : :                                                                                                                                   & & & & & & & & & & & & & & & & & & & & & & & & & & & & & & & & & & & & & & & & & & &                                                             % % % % % % % % % % % % % % % % $ $ $ $ $ $ $ $ $ $ $ $ $ $ $ $ $ $ $ $ $ $ $ @ @ @ #                                                                                                                                   + + + + + + + + + + + + + + + + + + O + + + + + + + + + + + + + + + O O O O O O                                                                                                     o o o o o o o o o o o o X X X o o o o X X X o o o o X X X X X X X X X X X X X X X     ",
"    2 2 2 2 2 2 2 2 2 2 2 2 , , , 2 2 2 2 2 2 2 , , , , , , , , , > > > > > > > > > >                                                                                                     : : : : : : : : : : : : : : : : : : : : : : : : : : : : : : : - - - : : : : : :                                                                                                                                     & & & & & & & & & & & & & & & & & & & & & & & & & & & & & & & & & & & & & & & & & & &                                                         % % % % % % % % % % % % % % % % $ $ $ $ $ $ $ $ $ $ $ $ $ $ $ $ $ $ $ $ $ $ $ @ @ @ @                                                                                                                                     + + + + + + + + + + + + + + + + + + + + + + + + + + + + + + + + + O O O O O O O                                                                                                     o o o o o o o o o o o X X X X X X o o o X X X X X X X X X X X X X X X X X X X X X     ",
"    2 2 2 2 2 2 2 2 2 2 2 2 , , , 2 2 2 2 2 2 , > , , , , , , , > > > > > > > > > > >                                                                                                     : : : : : : : : : : : : : : : : : : : : : : : : : : : : : : - - - : : : : : : :                                                                                                                                       & & & & & & & & & & & & & & & & & & & & & & & & & & & & & & & & & & & & & % & & & & %                                                     % % % % % % % % % % % % % % % % $ $ $ $ $ $ $ $ $ $ $ $ $ $ $ $ $ $ $ $ $ $ $ @ @ @ @                                                                                                                                       + + + + + + + + + + + + + + + + + + + + + + + + + + + + + + + + O O O O O O O O                                                                                                     o o o o o o o o o o X X o X X X X o o o X X X X X X X X X X X X X X X X X X X X .     ",
"    2 2 2 2 2 2 , 2 , , 2 , , , 2 2 2 2 2 2 , , > > > > , , , > > > > > > > > > > > >                                                                                                     : : : : : : : : : : : : : : : : : : : : : : : : : : : : : - - - - : : - ; = = :                                                                                                                                         & & & & & & & & & & & & & & & & & & & & & & & & & & & & & & & & & & & % % % % & % % %                                                 % % % % % % % % % % % % % % % % $ $ $ $ $ $ $ $ $ $ $ $ $ $ $ $ $ $ $ $ $ $ $ @ @ @ @                                                                                                                                         + + + + + + + + + + + + + + + + + + + + + O + + + + + + + + + O O O O O O O O O                                                                                                     o o o o o o o o o X X o o o X X X o o X X X X X X X X X X X X X X X X X X X X X .     ",
"    2 2 2 2 2 , , , , , 2 , , > 2 2 2 2 2 , , , > > > > , , > > > > > > > > > > > > >                                                                                                     : : : : : : : : : : : : : : : : : : : : : : : : : : : : - - - : - : : = = = = -                                                                                                                                           & & & & & & & & & & & & & & & & & & & & & & & & & & & & & & & & & % % % % % & & % % &                                             % % % % % % % % % % % % % % % % $ $ $ $ $ $ $ $ $ $ $ $ $ $ $ $ $ $ $ $ $ $ $ @ @ @ @                                                                                                                                           + + + + + + + + + + + + + + + + + + + O + O + + + + + + + + O O O O O O O O O O                                                                                                     o o o o o o o o X X X o o o X X X o o X X X X X X X X X X X X X X X X X X X X X .     ",
"    2 2 2 2 , , 2 , , , , , > > > > , 2 , , , , , , , , , > > > > > > > > > > > > > >                                                                                                     : : : : : : : : : : : : : : : : : : : : : : : : : : : - - : : : - - = = - : = :                                                                                                                                             & & & & & & & & & & & & & & & & & & & & & & & & & & & & & & & % % & & % % & & & & & &                                         % % % % % % % % % % % % % % % % $ $ $ $ $ $ $ $ $ $ $ $ $ $ $ $ $ $ $ $ $ $ $ @ @ @ $                                                                                                                                             + + + + + + + + + + + + + + + + + + + + + + + + + + + + O O O O O O O O O O O O                                                                                                     o o o o o o o X X X X X X X X o o X X X X X X X X X X X X X X X X X X X X X X X .     ",
"    2 2 2 , , , 2 2 , , , > > > > > , , , , , , , , , , > > > > > > > > > > > > > > >                                                                                                     : : : : : : : : : : : : : : : : : : : : : : : : : : - - - : : : - - = - : : = :                                                                                                                                               & & & & & & & & & & & & & & & & & & & & & & & & & & & & & % % % & & % & & & & & & & &                                     % % % % % % % % % % % % % % % % $ $ $ $ $ $ $ $ $ $ $ $ $ $ $ $ $ $ $ $ $ $ $ @ @ @ @                                                                                                                                               + + + + + + + + + + + + + + + + + + + + + + + + + + + + O O O O O O O O O O O O                                                                                                     o o o o o o o X X X X X X X X o X X X o X X X X X X X X X X X X X X X X X X X X .     ",
"    2 2 2 2 2 2 2 2 2 2 > , , > > > > > , , , , , , , > > > > > > > > > > > > > > > >                                                                                                     : : : : : : : : : : : : : : : : : : : : : : : : : - - - - : : : : - - : : : : -                                                                                                                                                 & & & & & & & & & & & & & & & & & & & & & & & & & & & % % % % & & & & & & % & % % % &                                 % % % % % % % % % % % % % % % % $ $ $ $ $ $ $ $ $ $ $ $ $ $ $ $ $ $ $ $ $ $ $ @ @ @ @                                                                                                                                                 + + + + + + + + + + + + + + + + + + + + + + + + + + + O O O O O O O O O O O O O                                                                                                     o o o o o o o X X X X X X o o o o X X X X X X X X X X X X X X X X X X X X X X X .     ",
"    2 2 2 , , 2 2 2 2 2 2 2 2 2 > > > > , , , , , , > > > > > > > > > > > > > > > > >                                                                                                     : : : : : : : : : : : : : : : : : : : : : : : : - - - - - : : - : : - : : : - -                                                                                                                                                   & & & & & & & & & & & & & & & & & & & & & & & & & & % % % % & & & & & & % % % % % % &                             % % % % % % % % % % % % % % % % $ $ $ $ $ $ $ $ $ $ $ $ $ $ $ $ $ $ $ $ $ $ $ @ @ @ @                                                                                                                                                   + + + + + + + + + + + + + + + + + + + + + + + + + + O O O O O O O O O O O O O O                                                                                                     o o o o X o o o X X X X X X o o o X X X X X X X X X X X X X X X X X X X X X X X .     ",
"    2 2 2 2 2 2 2 , , > 2 2 2 2 , , , , , , , , , > > > > > > > > > > > > > > > > > >                                                                                                     : : : : : : : : : : : : : : : : : : : : : : : - - : : - - : : : - = = : : - - -                                                                                                                                                     & & & & & & & & & & & & & & & & & & & & & & & % % % & & & % % % % % % % % % % % % % &                         % % % % % % % % % % % % % % % % $ $ $ $ $ $ $ $ $ $ $ $ $ $ $ $ $ $ $ $ $ $ $ @ @ @ @                                                                                                                                                     + + + + + + + + + + + + + + + + + + + + + + + + + O O O O O O O O O O O O O O O                                                                                                     o o o X X X X o o o o o X X X X X X X X X X X X X X X X X X X X X X X X X X X X .     ",
"    2 2 2 2 2 2 2 2 > > 2 2 2 , , , , , , , , , > > > > > > > > > > > > > > > > > > >                                                                                                     : : : : : : : : : : : : : : : : : : : : : : - - - - : - - : : : : = = : - - - -                                                                                                                                                       & & & & & & & & & & & & & & & & & & & & & % % % % & & & % % % % % % % % % % % % % % &                     % % % % % % % % % % % % % % % % $ $ $ $ $ $ $ $ $ $ $ $ $ $ $ $ $ $ $ $ $ $ $ @ @ @ @                                                                                                                                                       + + + + + + + + + + + + + + + + + + + + + + + + O O O O O O O O O O O O O O O O                                                                                                     o o X X X X X o o o o o o X X X X X X X X X X X X X X X X X X X X X X X X X X X .     ",
"    2 2 2 2 , , , , , , 2 2 , , , , , , , , , > > > > > > > > > > > > > > > > > > > >                                                                                                     : : : : : : : : : : : : : : : : : : : : : - - - - : : - : : : = = = = - - - - -                                                                                                                                                         & & & & & & & & & & & & & & & & & & & % % % % % % & & % & % % & & % % & % % % % % % %                 % % % % % % % % % % % % % % % % $ $ $ $ $ $ $ $ $ $ $ $ $ $ $ $ $ $ $ $ $ $ $ @ @ @ @                                                                                                                                                         + + + + + + + + + + + + + + + + + + + + + + + O O O O O O O O O O O O O O O O O                                                                                                     o X X X X X X X X o o o o X X X X X X X X X X X X X X X X X X X X X X X X X X X .     ",
"    2 2 2 , , > , , , , 2 , , , , , , , , , > > > > > > > > > > > > > > > > > > > > >                                                                                                     : : : : : : : : : : : : : : : : : : : : : - - - - : : - : : : = = = = - - - - -                                                                                                                                                           & & & & & & & & & & & & & & & & & % % % % % % % & & & & % & & % % % % % % % % % % % %             % % % % % % % % % % % % % % % % $ $ $ $ $ $ $ $ $ $ $ $ $ $ $ $ $ $ $ $ $ $ $ @ @ @ @                                                                                                                                                           + + + + + + + + + + + + + + + + + + + + + + O O O O O O O O O O O O O O O O O O                                                                                                     o X X X X X X X X X X o o X X X X X X X X X X X X X X X X X X X X X X X X X X X .     ",
"    2 2 2 2 > > 2 2 , > > > , , , , , , , > > > > > > > > > > > > > > > > > > > > > >                                                                                                     : : : : : : : : : : : : : : : : : : : : - - - : : : : : : : : : : - - - - - - -                                                                                                                                                             & & & & & & & & & & & & & & & & % % % % % % % % % & & & & % % % % % % % % % % % % %             % % % % % % % % % % % % % % % $ $ $ $ $ $ $ $ $ $ $ $ $ $ $ $ $ $ $ $ $ $ $ @ @ @ @                                                                                                                                                             + + + + + + + + + + + + + + + + + + + + + O O O O O O O O O O O O O O O O O O O                                                                                                     o X X X X X X X X X X X X X X X X X X X X X X X X X X X X X X X X X X X X X X X .     ",
"    2 2 2 2 > > 2 2 2 , > > , , , , , , > > > > > > > > > > > > > > > > > > > > > > :                                                                                                     : : : : : : : : : : : : : : : : : : - : : - - - - : : : : : : : - - - - - - - -                                                                                                                                                               & & & & & & & & & & & & & & & & % % % % % % & % & & & % % % % % % % % % % % % % % %         % % % % % % % % % % % % % % % $ $ $ $ $ $ $ $ $ $ $ $ $ $ $ $ $ $ $ $ $ $ $ @ @ @ #                                                                                                                                                               + + + + + + + + + + O O + + + + O + + + O O O O O O O O O O O O O O O O O O O O                                                                                                     o X X X X X X X X X X X X X X X X X X X X X X X X X X X X X X X X X X X X X X X .     ",
"    2 2 2 > > > 2 2 , , , , , , , , , > > > > > > > > > > > > > > > > > > > > > > > :                                                                                                     : : : : : : : : : : : : : : : : : - - - - - - - = = = : = : : - - - - - - - - -                                                                                                                                                                 & & & & & & & & & & & & & & & % % & & & & & & & & % % % % % % % % % % % % % % % %         % % % % % % % % % % % % % % $ $ $ $ $ $ $ $ $ $ $ $ $ $ $ $ $ $ $ $ $ $ $ @ @ @ @                                                                                                                                                                 + + + + + + + + + + + + + + + + + + + O O O O O O O O O O O O O O O O O O O O O                                                                                                     o o o X X X X o o X o X X X X X X X X X X X X X X X X X X X X X X X X X X X X X .     ",
"    2 2 2 2 > > 2 , , , , , , , , , > > > > > > > > > > > > > > > > > > > > > > > > :                                                                                                     : : : : : : : : : : : : : : : : - - - - - - - = = = = = = : - - - - - - - - - -                                                                                                                                                                   & & & & & & & & & % & & & % % % & & & & & & & & & % % % % % % % % % % % % % % %         % % % % % % % % % % % % % $ $ $ $ $ $ $ $ $ $ $ $ $ $ $ $ $ $ $ $ $ $ $ @ @ @ @                                                                                                                                                                   + + + + + + + + + + + + + + + + + + O O O O O O O O O O O O O O O O O O O O O O                                                                                                     o o o X X X o o o o X X X X X X X X X X X X X X X X X X X X X X X X X X X X X X .     ",
"    2 > 2 2 2 2 , , , , , , , , , > > > > > > > > > > > > > > > > > > > > > > > > > :                                                                                                     : : : : : : : : : : : : : : : - - - - : : : : : : : = = = - - - - - - - - - - -                                                                                                                                                                     & & & & & & & % % & & % % % % & & & & & & % % % % % % % % % % % % % % % % % %         % % % % % % % % % % % % $ $ $ $ $ $ $ $ $ $ $ $ $ $ $ $ $ $ $ $ $ $ $ @ @ @ @                                                                                                                                                                     + + + + + + + + + + + + + + + + + O O O O O O O O O O O O O O O O O O O O O O O                                                                                                     o X X X X o o o o X X X X X X X X X X X X X X X X X X X X X X X X X X X X X X X .     ",
"    2 > 2 2 2 , , , , , , , , , > > > > > > > > > > > > > > > > > > > > > > > > > > :                                                                                                     : : : : : : : : : : : : : : : - - - - : : : : : : - = = = - - - - - - - - - - -                                                                                                                                                                       & & & & & % % % & & % % % % & & & & % % % % % % % % % % % % % % % % % % % %         % % % % % % % % % % % $ $ $ $ $ $ $ $ $ $ $ $ $ $ $ $ $ $ $ $ $ $ $ @ @ @ @                                                                                                                                                                       + + + + + + + + + + + + + + + O O O O O O O O O O O O O O O O O O O O O O O O O                                                                                                     o X X X X o o o X X X X X X X X X X X X X X X X X X X X X X X X X X X X X X X X .     ",
"    2 > 2 2 , , , , , , , , , > > > > > > > > > > > > > > > > > > > > > > > > > > > :                                                                                                     : : : : : : : : : : : : : : : : : - - - - : : : : : : = = = - - - - - - - - - =                                                                                                                                                                         & & & % % % % & & & & % % % & % % % % % % & % % % % % % % % % % % % % % %         % % % % % % % % % % $ $ $ $ $ $ $ $ $ $ $ $ $ $ $ $ $ $ $ $ $ $ $ @ @ @ @                                                                                                                                                                         + + + + + + + + + + + + + + + O O O O O O O O O O O O O O O O O O O O O O O O O                                                                                                     o X X X X X X X X X X X X X X X X X X X X X X X X X X X X X X X X X X X X X X X .     ",
"    2 2 2 , , , , , , , , , > > > > > > > > > > > > > > > > > > > > > > > > > > > > :                                                                                                     : : : : : : : : : : : : - : : : : - - = : : : : : : - = = = - - - - - - - - = =                                                                                                                                                                           & & & % % % & & & & % % & & % % % % % % % % & % % % % % % % % % % % % %         % % % % % % % % % $ $ $ $ $ $ $ $ $ $ $ $ $ $ $ $ $ $ $ $ $ $ $ @ @ @ @                                                                                                                                                                           + + + + + + + + + O + + + + O O O O O O O O O O O O O O O O O O O O O O O O O O                                                                                                     o X X X X X X X X X X X X X X X X X X X X X X X X X X X X X X X X X X X X X X X .     ",
"    2 2 , , , , , , , , , > > > > > > > > > > > > > > > > > > > > > > > > > > > > > :                                                                                                     : : : : : : : : : : : - - - - : : : = = = : : : : = = - - - - - - - - - - = = =                                                                                                                                                                             & & & & & % % % % & & & & % % % % % % % % % % % % % % % % % % % % % %         % % % % % % % % $ $ $ $ $ $ $ $ $ $ $ $ $ $ $ $ $ $ $ $ $ $ $ @ @ @ @                                                                                                                                                                             + + + + + + + + + + + + + O O O O O O O O O O O O O O O O O O O O O O O O O O O                                                                                                     o X X X X X X X X X X X X X X X X X X X X X X X X X X X X X X X X X . X X X X X .     ",
"    2 , , , , , , , , , > > > > > > > > > > > > > > > > > > > > > > > > > > > > > > :                                                                                                     : : : : : : : : : : - - - - - : : : : = = : : : - = = - - - - - - - - - = = = =                                                                                                                                                                               & & & & % % % & & & & % % % % % % % % % % % % % % % % % % % % % % %         % % % % % % % $ $ $ $ $ $ $ $ $ $ $ $ $ $ $ $ $ $ $ $ $ $ $ @ @ @ @                                                                                                                                                                               + + + + + + + + + + + + O O O O O O O O O O O O O O O O O O O O O O O O O O O O                                                                                                     X X X X X X X X X X X X X X X X X X X X X X X X X X X X X X X X X . . X X X X . .     ",
"    , , , , , , , , , > > > > > > > > > > > > > > > > > > > > > > > > > > > : > > > :                                                                                                     : : : : : : : : : : : : : - - : : : : = = = : - - - = - - - - - - - - = = = = =                                                                                                                                                                                 % & & % % & & & & % % % % % % % % % % % % % % % % % % % % % % % %         % % % % % % $ $ $ $ $ $ $ $ $ $ $ $ $ $ $ $ $ $ $ $ $ $ $ @ @ @ #                                                                                                                                                                                 + + + + + + + + + + + O O O O O O O O O O O O O O O O O O O O O O O O O O O O O                                                                                                     X X X X X X X X X X X X X X X X X X X X X X X X X X X X X X X X X X X X X X . . .     ",
"    , , , , , , , , > > > > > > > > > > > > > > > > > > > > > > > : : > > > : > > > :                                                                                                     : : : : : : : : : : : : : - - : : : = = = = - - - = = - - - - - - - = = = = = =                                                                                                                                                                                   & & % % % & & % % % % % % % % % % % % % % % % % % % % % % % % %         % % % % % $ $ $ $ $ $ $ $ $ $ $ $ $ $ $ $ $ $ $ $ $ $ $ @ @ @ @                                                                                                                                                                                   + + + + + + + + + + O O O O O O O O O O O O O O O O O O O O O O O O O O O O O O                                                                                                     X X X X X X X X X X X X X X X X X X X X X X X X X X X X X X X X X X X X . . . . .     ",
"    , , , , , , , > > > > > > > > > > > > > > > > > > > > > > > > > > : : > > > > > :                                                                                                     : : : : : : : - - - : : : : : : : = = : : - - - - - - - - - - - - = = = = = = =                                                                                                                                                                                     & & & & & % % % % % % % % % % % % & % % % % % % % % % % % % %         % % % % $ $ $ $ $ $ $ $ $ $ $ $ $ $ $ $ $ $ $ $ $ $ $ @ @ @ @                                                                                                                                                                                     + + + + + + + + + O O O O O O O O O O O O O O O O O O O O O O O O O O O O O O O                                                                                                     X X X X X X X X X X X X X X X X X X X X X X X X X X X X X X X X X X X X . . . . .     ",
"    , , , , , , > > > > > > > > > > > > > > > > > > > > > > > > > > > : > > > > > > :                                                                                                     : : : : : : - - - : : : : : : : : = = : - - - - - - - - - - - - = = = = = = = =                                                                                                                                                                                       & & & % % % % % % % % % % % % % % % % % % % % % % % % % % %         # % % $ $ $ $ $ $ $ $ $ $ $ $ $ $ $ $ $ $ $ $ $ $ $ @ @ @ @                                                                                                                                                                                       + + + + + + + + O O O O O O O O O O O O O O O O O O O O O O O O O O O O O O O O                                                                                                     X X X X X X X X X X X X X X X X X X X X X X X X X X X X X X X X X X . . . . . . .     ",
"    , , , , , > > > > > > > > > > > > > > > > > > > > > > > > > > > > > > > > > > > :                                                                                                     : : : : : - - - - : : : : = = = = = = - - - - - - - - - - - - = = = = = = = = =                                                                                                                                                                                         & % % % % % % % % % % % % % % % % % % % % % % % % % % % %         # % $ $ $ $ $ $ $ $ $ $ $ $ $ $ $ $ $ $ $ $ $ $ $ @ @ @ @                                                                                                                                                                                         + + + + + + + O O O O O O O O O O O O O O O O O O O O O O O O O O O O O O O O O                                                                                                     X X X X X X X X X X X X X X X X X X X X X X X X X X X X X X X X X . . . . . . . .     ",
"    , , , , > > > > > > > > > > > > > > > > > > > > > > > > > > > > > > > > > > > > :                                                                                                     : : : : - - - : - : : = = = = = = = = - - - - - - - - - - - = = = = = = = = = =                                                                                                                                                                                           % % % % % % & % % % % % % % % % % % % % % % % % % % % %         # $ $ $ $ $ $ $ $ $ $ $ $ $ $ $ $ $ $ $ $ $ $ $ @ @ @ @                                                                                                                                                                                           + + + + + + O O O O O O O O O O O O O O O O O O O O O O O O O O O O O O O O O O                                                                                                     X X X X X X X X X X X X X X X X X X X X X X X X X X X X X X X X X . . . . . . . .     ",
"    , , , > > > > > > > > > > > > > > > > > > > > : > > > > > > > > > > > > > > > > :                                                                                                     : : : - - : : : - - = = : : = : : - - - - - - - - - - - - = = = = = = = = = = &                                                                                                                                                                                             % % % % % % % % % % % % % % % % % % % % % % % % % % %         $ $ $ $ $ $ $ $ $ $ $ $ $ $ $ $ $ $ $ $ $ $ $ @ @ @ @                                                                                                                                                                                             + + + + + O O O O O O O O O O O O O O O O O O O O O O O O O O O O O O O O O O O                                                                                                     X X X X X X X X X X X X X X X X X X X X X X X X X X X X X X X X . . . . . . . . .     ",
"    , , > > > > > > > > > > > > > > > > > > > > > : : > > > > : > > > > > > > > > > :                                                                                                     : : : - - : : : - - = = = : = : - - - - - - - - - - - - = = = = = = = = = = & &                                                                                                                                                                                               % % % % % % % % % % % % % % % % % % % % % % % % % %         $ $ $ $ $ $ $ $ $ $ $ $ $ $ $ $ $ $ $ $ $ $ @ @ @ @                                                                                                                                                                                               + + + + O O O O O O O O O O O O O O O O O O O O O O O O O O O O O O O O O O O O                                                                                                     X X X X X X X X X X X X X X X X X X X X X X X X X X X X X X X . . . . . . . . . .     ",
"    , > > > > > > > > > > > > > > > > > > > > > > > > > > > > > > > > > > : > > : : :                                                                                                     : - - - - : : : : - - : : : : - - - - - - - - - - - - = = = = = = = = = = & & &                                                                                                                                                                                                 % % % % % % % % % % % % % % % % % % % % % % % % #         $ $ $ $ $ $ $ $ $ $ $ $ $ $ $ $ $ $ $ $ $ @ @ @ @                                                                                                                                                                                                 + + + O O O O O O O O O O O O O O O O O O O O O O O O O O O O O O O O O O O O O                                                                                                     X X X X X X X X X X X X X X X X X X X X X X X X X X X X X X . . . . . . . . . . .     ",
"    > > > > > > > > > > > > > > > > > > > > > > > > > > > > > > > > > > : : : : : : :                                                                                                     - - - - - : : - : : - : : : - - - - - - - - - - - - = = = = = = = = = = & & & &                                                                                                                                                                                                   % & % % % % % % % % % % % % % % % % % % % % % #         $ $ $ $ $ $ $ $ $ $ $ $ $ $ $ $ $ $ $ $ @ @ @ @                                                                                                                                                                                                   + + O O O O O O O O O O O O O O O O O O O O O O O O O O O O O O O O O O O O O O                                                                                                     X X X X X X X X X X X X X X X X X X X X X X X X X X X X X . . . . . . . . . . . .     ",
"    > > > > > > > > > > > > > > > > > > > > > > > > > > > > > > > > > : : : > > > > :                                                                                                     : : - - - - - : : : = = = - - - - - - - - - - - - = = = = = = = = = = & & & & &                                                                                                                                                                                                     % % % % % % % % % % % % % % % % % % % % % % #         $ $ $ $ $ $ $ $ $ $ $ $ $ $ $ $ $ $ $ @ @ @ @                                                                                                                                                                                                     + O O O O O O O O O O O O O O O O O O O O O O O O O O O O O O O O O O O O O O O                                                                                                     X X X X X X X X X X X X X X X X X X X X X X X X X . . X . . . . . . . . . . . . .     ",
"    > > > > > > > > > > > > > > > > > > > > > > > > > : > > > > > > : : : : > > > : :                                                                                                     : : : - - = = : : : = = = - - - - - - - - - - - = = = = = = = = = = & & & & & &                                                                                                                                                                                                       % % % % % % % % % % % % % % % % % % % % % $         $ $ $ $ $ $ $ $ $ $ $ $ $ $ $ $ $ $ @ @ @ @                                                                                                                                                                                                       O O O O O O O O O O O O O O O O O O O O O O O O O O O O O O O O O O O O O O O O                                                                                                     X X X X X X X X X X X X X X X X X X X X X X X X X X X . . . . . . . . . . . . . .     ",
"    > > > > > > > > > > > > > > > > > > > > > > > > > > > > > > > : : : : : > > : : :                                                                                                     : : : : : - - : : : : = = = - - - - - - - - - = = = = = = = = = = - - * & & & &                                                                                                                                                                                                         % % % % % % % % % % % % % % % % % % % $ $         $ $ $ $ $ $ $ $ $ $ $ $ $ $ $ $ $ @ @ @ @                                                                                                                                                                                                         O O O O O O O O O O O O O O O O O O O O O O O O O O O O O O O O O O O O O O O O                                                                                                     X X X X X X X X X X X X X X X X X X X X X X X X X X . . . . . . . . . . . . . . .     ",
"    > > > > > > > > > > > > > > > > > > > > > > > > > > > > > > : : : : > > > : : : :                                                                                                     : : : : : - - : : : - = = = = - - - - - - - = = = = = = = = = = - - - * & & & &                                                                                                                                                                                                           % % % % % % % % % % % % % % % % % $ $ $         $ $ $ $ $ $ $ $ $ $ $ $ $ $ $ $ @ @ @ @                                                                                                                                                                                                           O O O O O O O O O O O O O O O O O O O O O O O O O O O O O O O O O O O O O O O o                                                                                                     X X X X X X X X X X X X X X X X X X X X X X X X X . . . . . . . . . . . . . . . .     ",
"    > > > > > > > > > > > > > > > > > > > > > > > > > > > > > : > > > > : : : : : : :                                                                                                     : : : : : = = = = - - - - - - - - - - - - = = = = = = = = = = & & & - - - & & &                                                                                                                                                                                                             % % % % % % % % % % % % % % % $ $ $ $         $ $ $ $ $ $ $ $ $ $ $ $ $ $ $ @ @ @ @                                                                                                                                                                                                             O O O O O O O O O O O O O O O O O O O O O O O O O O O O O O O O O O O O O O o o                                                                                                     X X X X X X X X X X X X X X X X X X X X X X X X . . . . . . . . . . . . . . . . .     ",
"    > > > > > > > > > > > > > > > > > > > > > > > > > > > > : : > > > > : : : : : : :                                                                                                     : = = : : = = = = - - - - - - - - - - - = = = = = = = = = = & & & & & - - & & &                                                                                                                                                                                                               % % % % % % % % % % % % % $ $ $ $ $         $ $ $ $ $ $ $ $ $ $ $ $ $ $ @ @ @ @                                                                                                                                                                                                               O O O O O O O O O O O O O O O O O O O O O O O O O O O O O O O O O O O O O o o o                                                                                                     X X X X X X X X X X X X X X X X X X X X X X X . . . . . . . . . . . . . . . . . .     ",
"    > > > > > > > > > > > > > > > > > > > > : > > : : > > : : : > : > > : : : : : : :                                                                                                     : = = : : ; = = - - - - - - - - - - - = = = = = = = = = = & & & & * & - * & & &                                                                                                                                                                                                                 % % % % % % % % % % % $ $ $ $ $ $         $ $ $ $ $ $ $ $ $ $ $ $ $ @ @ @ @                                                                                                                                                                                                                 O O O O O O O O O O O O O O O O O O O O O O O O O O O O O O O O O O O O o o o o                                                                                                     X X X X X X X X X X X X X X X X X X X X X X . . . . . . . . . . . . . . . . . . .     ",
"    > > > > > > > > > > > > > > > : : > > > : > > > : : : : : : : : > : : : : : : : : :                                                                                                   : = = : : = = - - - - - - - - - - - = = = = = = = = = = & & & & & * & - - & & &                                                                                                                                                                                                                   % % % % % % % % % $ $ $ $ $ $ $         $ $ $ $ $ $ $ $ $ $ $ $ @ @ @ @                                                                                                                                                                                                                   O O O O O O O O O O O O O O O O O O O O O O O O O O O O O O O O O O O o o o o o                                                                                                   X X X X X X X X X X X X X X X X X X X X X X . . . . . . . . . . . . . . . . . . . .     ",
"    > > > > > > > > > > > > > > > > > : : > > > > > > : : : > > : : : : : : : : : : : : :                                                                                                 : : = : : - - - - - - - - - - - - = = = = = = = = = = - - & & & & = = & & & & &                                                                                                                                                                                                                   % % % % % % % % $ $ $ $ $ $ $ $         $ $ $ $ $ $ $ $ $ $ $ @ @ @ @ @                                                                                                                                                                                                                   O O O O O O O O O O O O O O O O O O O O O O O O O O O O O O O O O O o o o o o o                                                                                                 X X X X X X X X X X X X X X X X X X X X X X . . . . . . . . . . . . . . . . . . . . .     ",
"    > > > > > > > > > > > > > > > > > : > > > > > > : : > : > > : : : : : : : : : : : : : :                                                                                               : : - : - - - - - - - - - - - - = = = = = = = = = = & - - & & & = = = & & & & &                                                                                                                                                                                                                     % % % % % % $ $ $ $ $ $ $ $ $         $ $ $ $ $ $ $ $ $ $ @ @ @ @ @                                                                                                                                                                                                                     O O O O O O O O O O O O O O O O O O O O O O O O O O O O O O O O O o o o o o o o                                                                                               X X X X X X X X X X X X X X X X X X X X X X . . . . . . . . . . . . . . . . . . . . . .     ",
"    > > > > > > > > > > > > > > > > > > > > > > > : : : > > > > : : : : : : : : : : : : : : :                                                                                             : : : - - - - - - - - - - - - = = = = = = = = = = & & - - & & & & = = & & & & &                                                                                                                                                                                                                       $ % % % $ $ $ $ $ $ $ $ $ $         $ $ $ $ $ $ $ $ $ @ @ @ @ @                                                                                                                                                                                                                       O O O O O O O O O O O O O O O O O O O O O O O O O O O O O O O O o o o o o o o o                                                                                             X X X X X X X X X X X X X X X X X X X X X X . . . . . . . . . . . . . . . . . . . . . . .     ",
"    > > > > > > > > > > > > > > > > > > > > > > > > : : : > > : : : : : : : : : : : : : : : : :                                                                                           : : - - - - - - - - - - - - = = = = = = = = = = & & & * * & & & & = = = & & & &                                                                                                                                                                                                                         % % $ $ $ $ $ $ $ $ $ $ $         $ $ $ $ $ $ $ $ @ @ @ @ @                                                                                                                                                                                                                         O O O O O O O O O O O O O O O O O O O O O O O O O O O O O O O o o o o o o o o o                                                                                           X X X X X X X X X X X X X X X X X X X X X X . . . . . . . . . . . . . . . . . . . . . . . .     ",
"    > > > > > > > : > > > > > > > > > > > > > > > : : : > > : : : : : : : : : : : : : : : : : : :                                                                                         : - - - - - - - - - - - - = = = = = = - - - = & & = - * & & & & & & = = = = & &                                                                                                                                                                                                                           $ $ $ $ $ $ $ $ $ $ $ $         $ $ $ $ $ $ $ @ @ @ @ #                                                                                                                                                                                                                           O O O O O O O O O O O O O O O O O O O O O O O O O O O O O O o o o o o o o o o o                                                                                         X X X X X X X X X X X X X X X X X X X X X X . . . . . . . . . . . . . . . . . . . . . . . . .     ",
"    > > > > > > > : : > > > > : > > > > > > > > > : : : > : : : : : : : : : : : : : : : : : : : : :                                                                                       - - - - - - - - - - - - = = = = = = = - - - * & & & - * & & & & & & & = = & & &                                                                                                                                                                                                                             $ $ $ $ $ $ $ $ $ $ $         $ $ $ $ $ $ @ @ @ @ @                                                                                                                                                                                                                             O O O O O O O O O O O O O O O O O O O O O O O O O O O O O o o o o o o o o o o o                                                                                       X X X X X X X X X X X X X X X X X X X X X X . . . . . . . . . . . . . . . . . . . . . . . . . .     ",
"    > > > > > > > > > > > > > > > > > > > : > > : : : : : : : : : : : : : : : : : : : : : : : : : : :                                                                                     - - - - - - - - - - - = = = = = = = = - - & & & & - - & & & & & & & & & & & & &                                                                                                                                                                                                                               $ $ $ $ $ $ $ $ $ $         $ $ $ $ $ @ @ @ @ @                                                                                                                                                                                                                               O O O O O O O O O O O O O O O O O O O O O O O O O O O O o o o o o o o o o o o o                                                                                     X X X X X X X X X X X X X X X X X X X X . X . . . . . . . . . . . . . . . . . . . . . . . . . . .     ",
"    > > > > > > > > > > > > > > > > > > : : > > : : : : : : : : : : : : : : : : : : : : : : : : : : : :                                                                                   - - - - - - - - - - = = = = = = = = = - & & & & & - & & & & & & & & = & & & & &                                                                                                                                                                                                                                 $ $ $ $ $ $ $ $ $         $ $ $ $ @ @ @ @ @                                                                                                                                                                                                                                 O O O O O O O O O O O O O O O O O O O O O O O O O O O o o o o o o o o o o o o o                                                                                   X X X X X X X X X X X X X X X X X X X X X . . . . . . . . . . . . . . . . . . . . . . . . . . . . .     ",
"    > > > > > > > > > > > > > > > > > : : : > > > > : : : : : : : : : : : : : : : : : : : : : : : : : : :                                                                                 - - - - - - - - - = = = = = = = = = = & & & - - - * & = & & & & & = & & & & & &                                                                                                                                                                                                                                   $ $ $ $ $ $ $ $         $ $ $ @ @ @ @ @                                                                                                                                                                                                                                   O O O O O O O O O O O O O O O O O O O O O O O O O O o o o o o o o o o o o o o o                                                                                 X X X X X X X X X X X X X X X X X X X X X X . . . . . . . . . . . . . . . . . . . . . . . . . . . . .     ",
"    > > > > > > > : > > > > > > > > : : : : > > > : : : : : : : : : : : : : : : : : : : : : : : : : : : : :                                                                               - - - - - - - - = = = = = = = = = = & & & & & - - & & = = & & & & & & & & & & &                                                                                                                                                                                                                                     % $ $ $ $ $ $         $ $ @ @ @ @ $                                                                                                                                                                                                                                     O O O O O O O O O O O O O O O O O O O O O O O O O o o o o o o o o o o o o o o o                                                                               X X X X X X X X X X X X X X X X X X X X X X . . . . . . . . . . . . . . . . . . . . . . . . . . . . . .     ",
"    > > > > > > > : > > > > > : > : : : : : > > : : : : : : : : : : : : : : : : : : : : : : : : : : : : : : :                                                                             - - - - - - - = = = = = = = = = = & & & & - & & & & & = = & & & & & & & & & & &                                                                                                                                                                                                                                       # $ $ $ $ $         $ @ @ @ @ @                                                                                                                                                                                                                                       O O O O O O O O O O O O O O O O O O O O O O O O o o o o o o o o o o o o o o o o                                                                             X X X X X X X X X X X X X X X X X X X X X X . . . . . . . . . . . . . . . . . . . . . . . . . . . . . . .     ",
"    > > > > > > > > > > > > : : : : : : > > > : : : : : : : : : : : : : : : : : : : : : : : : : : : : : : : : :                                                                           - - - - - - = = = = = = = = = = & & & & & * & & & & & = = & & & & & & & & & & &                                                                                                                                                                                                                                         $ $ $ $ $         @ @ @ @ @                                                                                                                                                                                                                                         O O O O O O O O O O O O O O O O O O O O O O O o o o o o o o o o o o o o o o o o                                                                           X X X X X X X X X X X X X X X X X X X X X X . . . . . . . . . . . . . . . . . . . . . . . . . . . . . . . .     ",
"    > > > > > > > > > > > > > : > > > > : : : : : : : : : : : : : : : : : : : : : : : : : : : : : : : : : : : : :                                                                         - - - - - = = = = = = - - - = & & & * & & & & & & = = & & & & & & & & & & & & &                                                                                                                                                                                                                                           $ $ $ $         @ @ @ @                                                                                                                                                                                                                                           O O O O O O O O O O O O O O O O O O O O O O o o o o o o o o o o o o o o o o o o                                                                         X X X X X X X X X X X X X X X X . X X X X X . . . . . . . . . . . . . . . . . . . . . . . . . . . . . . . . .     ",
"    > > > > > > > > > > > > : : > > > > : : : : : : : : : : : : : : : : : : : : : : : : : : : : : : : : : : : : : :                                                                       - - - - = = = = = = = - - - & & & & - = & & & & & = = & & & & & & & & & & & & &                                                                                                                                                                                                                                             $ $ $         @ @ @                                                                                                                                                                                                                                             O O O O O O O O O O O O O O O O O O O O O o o o o o o o o o o o o o o o o o o o                                                                       X X X X X X X X X X X X X X X X X . X X X X . . . . . . . . . . . . . . . . . . . . . . . . . . . . . . . . . .     ",
"      > > > > > > > > > > > : : > : > > : : : : : : : : : : : : : : : : : : : : : : : : : : : : : : : : : : : : : : :                                                                     - - - = = = = = = = = - - & & & & - - = = & & & & = = & & & & & & & & & & & & &                                                                                                                                                                                                                                               $ $         @ $                                                                                                                                                                                                                                               O O O O O O O O O O O O O O O O O O O O o o o o o o o o o o o o o o o o o o o o                                                                     X X X X X X X X X X X X X X X X X X X X . X . . . . . . . . . . . . . . . . . . . . . . . . . . . . . . . . . .       ",
"        : > > > > > > > > > : : : : > : : : : : : : : : : : : : : : : : : : : : : : : : : : : : : : : : : : : : : : : :                                                                   - - = = = = = = = = = - & & & & & - = = = & & & & = = & & & & & & & & & & & & &                                                                                                                                                                                                                                                                                                                                                                                                                                                                                                             O O O O O O O O O O O O O O O O O O O o o o o o o o o o o o o o o o o o o o o o                                                                   X X X X X X X X X X X X X X X X X X X X X . . . . . . . . . . . . . . . . . . . . . . . . . . . . . . . . . . .         ",
"          > > > > > > > > > : : : : : : : : : : : : : : : : : : : : : : : : : : : : : : : : : : : : : : : : : : : : : : :                                                                 - = = = = = = = = = = & & & & & & = = = & & & & & & & & & & & & & & & & & & & &                                                                                                                                                                                                                                                                                                                                                                                                                                                                                                             O O O O O O O O O O O O O O O O O O o o o o o o o o o o o o o o o o o o o o o o                                                                 X X X X X X X X X X X X X X X X X X X X X X . . . . . . . . . . . . . . . . . . . . . . . . . . . . . . . . . .           ",
"            > > > > : > > > : : : : : : : : : : : : : : : : : : : : : : : : : : : : : : : : : : : : : : : : : : : : : : :                                                                 = = = = = = = = = = & & & & & & & = = = = & & & & & & & & & & & & & & & & & & &                                                                                                                                                                                                                                                                                                                                                                                                                                                                                                             O O O O O O O O O O O O O O O O O o o o o o o o o o o o o o o o o o o o o o o o                                                                 X X X X X X X X X X X X X X X X X X X X . . . . . . . . . . . . . . . . . . . . . . . . . . . . . . . . . . .             ",
"              > > : : : > > > > : : : : : : : : : : : : : : : : : : : : : : : : : : : : : : : : : : : : : : : : : : : : : :                                                               = = = = = = = = = - - * & & & & & & & & & & & & & & & & & & & & & & & & & & & &                                                                                                                                                                                                                                                                                                                                                                                                                                                                                                             O O O O O O O O O O O O O O O O o o o o o o o o o o o o o o o o o o o o o o o o                                                               X X X X X X X X X X X X X X X X X X X X . . . . . . . . . . . . . . . . . . . . . . . . . . . . . . . . . . .               ",
"                : : : : > > > : : : : : : : : : : : : : : : : : : : : : : : : : : : : : : : : : : : : : : : : : : : : : : : :                                                             = = = = = = = = - - - * & & & & & & & & & & & & & & & & & & & & & & & & & & & &                                                                                                                                                                                                                                                                                                                                                                                                                                                                                                             O O O O O O O O O O O O O O O o o o o o o o o o o o o o o o o o o o o o o o o o                                                             X X X X X X X X X X X X X X X X X X X X X . . . . . . . . . . . . . . . . . . . . . . . . . . . . . . . . . .                 ",
"                  : > > > > : : : : : : : : : : : : : : : : : : : : : : : : : : : : : : : : : : : : : : : : : : : : : : : : : :                                                           = = = = = = = & & & - - - & & & & & & & & & & & & & & & & & & & & & & & & & & &                                                                                                                                                                                                                                                                                                                                                                                                                                                                                                             O O O O O O O O O O O O O O o o o o o o o o o o o o o o o o o o o o o o o o o o                                                           X X X X X X X X X X X X X X X X X X X X X . . . . . . . . . . . . . . . . . . . . . . . . . . . . . . . . . .                   ",
"                    > > > : : : : : : : : : : : : : : : : : : : : : : : : : : : : : : : : : : : : : : : : : : : : : : : : : : : -                                                         = = = = = = & & & & & - - & & & & & = = = & & & & & & & & & & & & & & & & & & &                                                                                                                                                                                                                                                                                                                                                                                                                                                                                                             O O O O O O O O O O O O O o o o o o o o o o o o o o o o o o o o o o o o o o o o                                                         X X X X X X X X X X X X X X X X X X X X X . . . . . . . . . . . . . . . . . . . . . . . . . . . . . . . . . .                     ",
"                      > : : : : : : : : : : : : : : : : : : : : : : : : : : : : : : : : : : : : : : : : : : : : : : : : : : - - : :                                                       = = = = = & & & & * & - * & & & = = = = & & & & & & & & & & & & & & & & & & & &                                                                                                                                                                                                                                                                                                                                                                                                                                                                                                             O O O O O O O O O O O O o o o o o o o o o o o o o o o o o o o o o o o o o o o X                                                       X X X X X X X X X X X X X X X X X X X X X . . . . . . . . . . . . . . . . . . . . . . . . . . . . . . . . . .                       ",
"                        : : : : : : : : : : : : : : : : : : : : : : : : : : : : : : : : : : : : : : : : : : : : : : : : : - - - : : :                                                     = = = = & & & & & * & - - & & & & = = & & & & & & & & & & & & & & & & & & & & &                                                                                                                                                                                                                                                                                                                                                                                                                                                                                                             O O O O O O O O O O O o o o o o o o o o o o o o o o o o o o o o o o o o o o X X                                                     X X X X X X X X X X X X X X X X X X X X X . . . . . . . . . . . . . . . . . . . . . . . . . . . . . . . . . .                         ",
"                          : : : : : : : : : : : : : : : : : : : : : : : : : : : : : : : : : : : : : : : : : : : : : : : - - - : : : : -                                                   = = = - - & & & & = = = = = = & & & & & & & & & & & & & & & & & & & & & & & & &                                                                                                                                                                                                                                                                                                                                                                                                                                                                                                             O O O O O O O O O O o o o o o o o o o o o o o o o o o o o o o o o o o o o X X o                                                   X X X X X X X X X X X X X X X X X X X X X . . . . . . . . . . . . . . . . . . . . . . . . . . . . . . . . . .                           ",
"                            : : : : : : : : : : : : : : : : : : : : : : : : : : : : : : : : : : : : : : : : : : : : : - - - : : : : : : :                                                 = = & - - & & & = = = & = = = & & & & & & & & & & & & & & & & & & & & & & & & &                                                                                                                                                                                                                                                                                                                                                                                                                                                                                                             O O O O O O O O O o o o o o o o o o o o o o o o o o o o o o o o o o o o X X X X                                                 X X X X X X X X X X X X X X X X X X X X X . . . . . . . . . . . . . . . . . . . . . . . . . . . . . . . . . .                             ",
"                              : : : : : : : : : : : : : : : : : : : : : : : : : : : : : : : : : : : : : : : : : : : - - - - : : : : = = - =                                               = & & - - & & & & = = & & & & & & & & & & & & & & & & & & & & & & & & & & & & &                                                                                                                                                                                                                                                                                                                                                                                                                                                                                                             O O O O O O O O o o o o o o o o o o o o o o o o o o o o o o o o o o o X X X X X                                               X X X X X X X X X X X X X X X X X X X X X . . . . . . . . . . . . . . . . . . . . . . . . . . . . . . . . . .                               ",
"                                : : : : : : : : : : : : : : : : : : : : : : : : : : : : : : : : : : : : : : : : : - - - : - : : = = = = = = =                                             & & & * * & & & & = = & & & & & & & & & & & & & & & & & & & & & & & & & & & & &                                                                                                                                                                                                                                                                                                                                                                                                                                                                                                             O O O O O O O o o o o o o o o o o o o o o o o o o o o o o o o o o o X o o X X X                                             X X X X X X X X X X X X X X X X X X X X X . . . . . . . . . . . . . . . . . . . . . . . . . . . . . . . . . .                                 ",
"                                  : : : : : : : : : : : : : : : : : : : : : : : : : : : : : : : : : : : : : : : - - : : : - - = = : : = : : - -                                           & & & * & & & & & & = & & & & & & & & & & & & & & & & & & & & & & & & & & & & &                                                                                                                                                                                                                                                                                                                                                                                                                                                                                                             O O O O O O o o o o o o o o o o o o o o o o o o o o o o o o o o o o o o o X X X                                           X X X X X X X X X X X X X X X X X X X X X . . . . . . . . . . . . . . . . . . . . . . . . . . . . . . . . . .                                   ",
"                                    : : : : : : : : : : : : : : : : : : : : : : : : : : : : : : : : : : : : : - - - : : : - - = = = : = : - - - -                                         & & & * & & & & & & & & & & & & & & & & & & & & & & & & & & & & & & & & & & & &                                                                                                                                                                                                                                                                                                                                                                                                                                                                                                             O O O O O o o o o o o o o o o o o o o o o o o o o o o o o o o o X o X o o X X X                                         X X X X X X X X X X X X X X X X X X X X X . . . . . . . . . . . . . . . . . . . . . . . . . . . . . . . . . .                                     ",
"                                      : : : : : : : : : : : : : : : : : : : : : : : : : : : : : : : : : : : - - - - : : : : - - : : : : - - - - - -                                       & & & & & & & & & & & = & & & & & & & & & & & & & & & & & & & & & & & & & & & &                                                                                                                                                                                                                                                                                                                                                                                                                                                                                                             O O O O o o o o o o o o o o o o o o o o o o o o o o o o o o o X X X X X X X X X                                       X X X X X X X X X X X X X X X X X X X X . . . . . . . . . . . . . . . . . . . . . . . . . . . . . . . . . . .                                       ",
"                                        : : : : : : : : : : : : : : : : : : : : : : : : : : : : : : : : : - - - - - : : - : : - : : : - - - - - - - -                                     & & & & & & & & & & = & & & & & & & & & & & & & & & & & & & & & & & & & & & & &                                                                                                                                                                                                                                                                                                                                                                                                                                                                                                             O O O o o o o o o o o o o o o o o o o o o o o o o o o o o o X X X X X X X X X X                                     X X X X X X X X X X X X X X X . . X X X . . . . . . . . . . . . . . . . . . . . . . . . . . . . . . . . . . .                                         ",
"                                          : : : : : : : : : : : : : : : : : : : : : : : : : : : : : : : - - : : - - : : : - = = : : - - - - - - - - - -                                   = = = & = & & & & & & & & & & & & & & & & & & & & & & & & & & & & & & & & & & &                                                                                                                                                                                                                                                                                                                                                                                                                                                                                                             O O o o o o o o o o o o o o o o o o o o o o o o o o o o o X X X X X o X X X X X                                   X X X X X X X X X X X X X X X X X X X X X . . . . . . . . . . . . . . . . . . . . . . . . . . . . . . . . . .                                           ",
"                                            : : : : : : : : : : : : : : : : : : : : : : : : : : : : : - - - - : - - : : : : = = : - - - - - - - - - - - -                                 = = = = = & & & & & & & & & & & & & & & & & & & & & & & & & & & & & & & & & & &                                                                                                                                                                                                                                                                                                                                                                                                                                                                                                             O o o o o o o o o o o o o o o o o o o o o o o o o o o o X X X X X o o X X X X o                                 X X X X X X X X X X X X X X X X X X X . . . . . . . . . . . . . . . . . . . . . . . . . . . . . . . . . . . .                                             ",
"                                              : : : : : : : : : : : : : : : : : : : : : : : : : : : - - - - : : - : : : = = = = - - - - - - - - - - - - = =                               = & & = = & & = & & & & & & & & & & & & & & & & & & & & & & & & & & & & & & & &                                                                                                                                                                                                                                                                                                                                                                                                                                                                                                             o o o o o o o o o o o o o o o o o o o o o o o o o o o X X X X X o o o o X o o o                               X X X X X X X X X X X X X X X X X X X X X . . . . . . . . . . . . . . . . . . . . . . . . . . . . . . . . . .                                               ",
"                                                : : : : : : : : : : : : : : : : : : : : : : : : : : - - - - : : - : : : = = = = - - - - - - - - - - - = = = =                             & & & = = & & & & & & & & & & & & & & & & & & & & & & & & & & & & & & & & & & &                                                                                                                                                                                                                                                                                                                                                                                                                                                                                                             o o o o o o o o o o o o o o o o o o o o o o o o o o X X X X X X o o o o X o o o                             X X X X X X X X X X X X X X X X X X X X X . . . . . . . . . . . . . . . . . . . . . . . . . . . . . . . . . .                                                 ",
"                                                  : : : : : : : : : : : : : : : : : : : : : : : : - - - : : : : : : : : : : - - - - - - - - - - - - = = = = = =                           & & & & & & & & & & & & & & & & & & & & & & & & & & & & & & & & & & & & & & & &                                                                                                                                                                                                                                                                                                                                                                                                                                                                                                             o o o o o o o o o o o o o o o o o o o o o o o o o X X X X o o o o o o o o X X X                           X X X X X X X X X X X X X X X X X X X X X . . . . . . . . . . . . . . . . . . . . . . . . . . . . . . . . . .                                                   ",
"                                                    : : : : : : : : : : : : : : : : : : : : : - : : - - - - : : : : : : : - - - - - - - - - - - - = = = = = = = -                         & & & & & & & & & & & & & & & & & & & & & & & & & & & & & & & & & & & & & & & &                                                                                                                                                                                                                                                                                                                                                                                                                                                                                                             o o o o o o o o o o o o o o o o o o o o o o o o o X X X X X X o o X o o o X X X                         X X X X X X X X X X X X X X X X X X X X X . . . . . . . . . . . . . . . . . . . . . . . . . . . . . . . . . .                                                     ",
"                                                      : : : : : : : : : : : : : : : : : : : - - - - - - - = = = : = : : - - - - - - - - - - - - = = = = = = = = = =                       & & & & & & & & & & & & & & & & & & & & & & & & & & & & & & & & & & & & & & & &                                                                                                                                                                                                                                                                                                                                                                                                                                                                                                             o o o o o o o o o o o o o o o o o o o o o o o o o X X X X X X X X X X X X X X X                       X X X X X X X X X X X X X X X X X X X X X . . . . . . . . . . . . . . . . . . . . . . . . . . . . . . . . . .                                                       ",
"                                                        : : : : : : : : : : : : : : : : : - - - - - - - = = = = = = : - - - - - - - - - - - - = = = = = = = = = = & &                     & & & & & & & & & & & & & & & & & & & & & & & & & & & & & & & & & & & & & & & &                                                                                                                                                                                                                                                                                                                                                                                                                                                                                                             o o o o o o o o o o o o o o o o o o o o o o X o o o X X X X X X X X X X X X X X                     X X X X X X X X X X X X X X X X X X X X X . . . . . . . . . . . . . . . . . . . . . . . . . . . . . . . . . .                                                         ",
"                                                          : : : : : : : : : : : : : : : : : : : : : : : : : : = = = - - - - - - - - - - - - = = = = = = = = = = & & & =                   & & & & & & & & & & & & & & & & & & & & & & & & & & & & & & & & & & & & & & & &                                                                                                                                                                                                                                                                                                                                                                                                                                                                                                             o o o o o o o o o o o o o o o o o o o o o X X X X X X o o o X X X X X X X X X X                   X X X X X X X X X X X X X X X X X X . . X . . . . . . . . . . . . . . . . . . . . . . . . . . . . . . . . . .                                                           ",
"                                                            : : : : : : : : : : : : : - : : : : : : : : : : - = = = - - - - - - - - - - - = = = = = = = = = = & - & & & =                 & & & & & & & & & & & & & & & & & & & & & & & & & & & & & & & & & & & & & & & &                                                                                                                                                                                                                                                                                                                                                                                                                                                                                                             o o o o o o o o o o o o o o o o o o o o X X o X X X X o o o X X X X X X X X X X                 X X X X X X X X X X X X X X X X X X X X X . . . . . . . . . . . . . . . . . . . . . . . . . . . . . . . . . .                                                             ",
"                                                              : : : : : : : : : : : - - : : : : - - : : : : : : = = = - - - - - - - - - = = = = = = = = = = - - - - & & & &               & & & & & & & & & & & & & & & & & & & & & & & & & & & & & & & & & & & & & & & &                                                                                                                                                                                                                                                                                                                                                                                                                                                                                                             o o o o o o o o o o o o o o o o o o o X X o o o X X X o o X X X X X X X X X X X               X X X X X X X X X X X X X X X X X X X X X . . . . . . . . . . . . . . . . . . . . . . . . . . . . . . . . . .                                                               ",
"                                                                - : : : : : : : : : - - - - : : = : : : : : : - = = = - - - - - - - - = = = = = = = = = = - - - - - & & & & =             & & & & & & & & & & & & & & & & & & & & & & & & & & & & & & & & & & & & & & & &                                                                                                                                                                                                                                                                                                                                                                                                                                                                                                             o o o o o o o o o o o o o o o o o o X X X o o o X X X o o X X X X X X X X X X X             X X X X X X X X X X X X X X X X X X X X X . . . . . . . . . . . . . . . . . . . . . . . . . . . . . . . . . .                                                                 ",
"                                                                  : : : : : : : : - - - - - - = = = : : : : = = - - - - - - - - - - = = = = = = = = = = & & & - - & & & & & & =           & & & & & & & & & & & & & & & & & & & & & & & & & & & & & & & & & & & & & & & &                                                                                                                                                                                                                                                                                                                                                                                                                                                                                                             o o o o o o o o o o o o o o o o o X X X X X X X X o o X X X X X X X X X X X X X           X X X X X X X X X X X X X X X X X X X X X . . . . . . . . . . . . . . . . . . . . . . . . . . . . . . . . . .                                                                   ",
"                                                                    : : : : : - : - - - - - = = = = : : : - = = - - - - - - - - - = = = = = = = = = = & & & & & - & & & & & & = =         & & & & & & & & & & & & & & & & & & & & & & & & & & & & & & & & & & & & & & & &                                                                                                                                                                                                                                                                                                                                                                                                                                                                                                             o o o o o o o o o o o o o o o o o X X X X X X X X o X X X o X X X X X X X X X X         X X X X X X X X X X X X X X X X X X X X X . . . . . . . . . . . . . . . . . . . . . . . . . . . . . . . . . .                                                                     ",
"                                                                      : : : : : - - - - - = : : = = = : - - - = - - - - - - - - = = = = = = = = = = & & & & * & & & & & & & & & & &       & & & & & & & & & & & & & & & & & & & & & & & & & & & & & & & & & & & & & & & &                                                                                                                                                                                                                                                                                                                                                                                                                                                                                                             o o o o o o o o o o o o o o o o o X X X X X X o o o o X X X X X X X X X X X X X       X X X X X X X X X X X X X X X X X X X X X . . . . . . . . . . . . . . . . . . . . . . . . . . . . . . . . . .                                                                       ",
"                                                                        : : : : : - - - = = = : = = = - - - = = - - - - - - - = = = = = = = = = = & & & & & * & & & & & & & & & & &       & & & & & & & & & & & & & & & & & & & & & & & & & & & & & & & & & & & & & & & &                                                                                                                                                                                                                                                                                                                                                                                                                                                                                                             o o o o o o o o o o o o o o X o o o X X X X X X o o o X X X X X X X X X X X X X     X X X X X X X X X X X X X X X X X X X X X . . . . . . . . . . . . . . . . . . . . . . . . . . . . . . . . . .                                                                         ",
"                                                                          : : : - - - = = = : : : : - - - - - - - - - - - - = = = = = = = = = = & & & & = & & & & = & & & & & & & & &     & & & & & & & & & & & & & & & & & & & & & & & & & & & & & & & & & & & & & & & &                                                                                                                                                                                                                                                                                                                                                                                                                                                                                                             o o o o o o o o o o o o o X X X X o o o o o X X X X X X X X X X X X X X X X X X     X X X X X X X X X X X X X X X X X X X X . . . . . . . . . . . . . . . . . . . . . . . . . . . . . . . . . .                                                                           ",
"                                                                            : : - - = = = = : : : - - - - - - - - - - - - = = = = = = = = = = & & & & & = & & & = = & & & & & & & & & & & & & & & & & & & & & & & & & & & & & & & & & & & & & & & & & & & & & & & & & & &                                                                                                                                                                                                                                                                                                                                                                                                                                                                                                             o o o o o o o o o o o o X X X X X o o o o o o X X X X X X X X X X X X X X X X X X X X X X X X X X X X X X X X X X X X X X . . . . . . . . . . . . . . . . . . . . . . . . . . . . . . . . . .                                                                             ",
"                                                                              : : : : : = : : : - - - - - - - - - - - - = = = = = = = = = = & & & & & & = = & & = = = & = & & & & & & & & & & & & & & & & & & & & & & & & & & & & & & & & & & & & & & & & & & & & & & & &                                                                                                                                                                                                                                                                                                                                                                                                                                                                                                             o o o o o o o o o o o X X X X X X X X o o o o X X X X X X X X X X X X X X X X X X X X X X X X X X X X X X X X X X X X X . . . . . . . . . . . . . . . . . . . . . . . . . . . . . . . . . .                                                                               ",
"                                                                                : : : : : : : - - - - - - - - - - - - = = = = = = = = = = & & & & & = = = = & & = = & & & & & & & & & & & & & & & & & & & & & & & & & & & & & & & & & & & & & & & & & & & & & & & & & & &                                                                                                                                                                                                                                                                                                                                                                                                                                                                                                             o o o o o o o o o o o X X X X X X X X X X o o X X X X X X X X X X X X X X X X X X X X X X X X X X X X X X X X X X X X . . . . . . . . . . . . . . . . . . . . . . . . . . . . . . . . . .                                                                                 ",
"                                                                                  : : : : : - - - - - - - - - - - - = = = = = = = = = = - - & & * - - - = & & & & & & & & & & & & & & & & & & & & & & & & & & & & & & & & & & & & & & & & & & & & & & & & & & & & & & & &                                                                                                                                                                                                                                                                                                                                                                                                                                                                                                             o o o o o o o o o X X X X X X X X X X X X X X X X X X X X X X X X X X X X X X X X X X X X X X X X X X X X X X X X X . . . . . . . . . . . . . . . . . . . . . . . . . . . . . . . . . .                                                                                   ",
"                                                                                    : : : - - - - - - - - - - - - = = = = = = = = = = & - = & & - - - - = = & & & & & & & & & & & & & & & & & & & & & & & & & & & & & & & & & & & & & & & & & & & & & & & & & & & & & & &                                                                                                                                                                                                                                                                                                                                                                                                                                                                                                             o o o o o o o o X X X X X X X X X X X X X X X X X X X X X X X X X X X X X X X X X X X X X X X X X X X X X X X X X . . . . . . . . . . . . . . . . . . . . . . . . . . . . . . . . . .                                                                                     ",
"                                                                                      - - - - - - - - - - - - - = = = = = = = = = = & & - - & & & & * & = = & & & & & & & & & & & & & & & & & & & & & & & & & & & & & & & & & & & & & & & & & & & & & & & & & & & & & & &                                                                                                                                                                                                                                                                                                                                                                                                                                                                                                             o o o o o o o X X o o o o X X X X o o X o X X X X X X X X X X X X X X X X X X X X X X X X X X X X X X X X X . X . . . . . . . . . . . . . . . . . . . . . . . . . . . . . . . . . .                                                                                       ",
"                                                                                        - - - - - - - - - - - = = = = = = = = = = & & * * * & & & & & & = = & & & & & & & & & & & & & & & & & & & & & & & & & & & & & & & & & & & & & & & & & & & & & & & & & & & & & & &                                                                                                                                                                                                                                                                                                                                                                                                                                                                                                             o o o o o o X X X o o o o X X X o o o o X X X X X X X X X X X X X X X X X X X X X X X X X X X X X . . X X X . . . . . . . . . . . . . . . . . . . . . . . . . . . . . . . . . . .                                                                                         ",
"                                                                                          ; - - - - - - - - = = = = = = = = = = & & & - - - * & = & & & & & = & & & & & & & & & & & & & & & & & & & & & & & & & & & & & & & & & & & & & & & & & & & & & & & & & & & & & &                                                                                                                                                                                                                                                                                                                                                                                                                                                                                                             o o o o o X X X o o o o o o X X X X X X X X X X X X X X X X X X X X X X X X X X X X X X X X X X X X X X X X . . . . . . . . . . . . . . . . . . . . . . . . . . . . . . . . . .                                                                                           ",
"                                                                                            - - - - - - - = = = = = = = = = = & & & & & - - & & = = & & & & & & & & & & & & & & & & & & & & & & & & & & & & & & & & & & & & & & & & & & & & & & & & & & & & & & & & & & &                                                                                                                                                                                                                                                                                                                                                                                                                                                                                                             o o o o X X X X X o o o o o o X X X X X X X X X X X X X X X X X X X X X X X X X X X X X X X X X X X X X X . . . . . . . . . . . . . . . . . . . . . . . . . . . . . . . . . .                                                                                             ",
"                                                                                              : - - - - = = = = = = = = = = & & & & - & & & & & = = & & & & & & & & & & & & & & & & & & & & & & & & & & & & & & & & & & & & & & & & & & & & & & & & & & & & & & & & & & &                                                                                                                                                                                                                                                                                                                                                                                                                                                                                                             o o o X X X X X X X X o X o o X X X X X X X X X X X X X X X X X X X X X X X X X X X X X X X X X X X X X . . . . . . . . . . . . . . . . . . . . . . . . . . . . . . . . . .                                                                                               ",
"                                                                                                - - - = = = = = = = = = = & & & & & * & & & & & = = & & & & & & & & & & & & & & & & & & & & & & & & & & & & & & & & & & & & & & & & & & & & & & & & & & & & & & & & & & &                                                                                                                                                                                                                                                                                                                                                                                                                                                                                                             o o X X X X X X X X X X X o o X X X X X X X X X X X X X X X X X X X X X X X X X X X X X X X X X X X X . . . . . . . . . . . . . . . . . . . . . . . . . . . . . . . . . .                                                                                                 ",
"                                                                                                    = = = = = = - - - = * - & & & & & & & & = = & & & & & & & & & & & & & & & & & & & & & & & & & & & & & & & & & & & & & & & & & & & & & & & & & & & & & & & & & & & & &                                                                                                                                                                                                                                                                                                                                                                                                                                                                                                             o o o o o X X X X X X X X X X X X X X X X X X X X X X X X X X X X X X X X X X X X X X X X X X X X X . . . . . . . . . . . . . . . . . . . . . . . . . . . . . . . . . .                                                                                                   ",
"                                                                                                      = = = = = = = - * & & & * = & & & & & = = & & & & & & & & & & & & & & & & & & & & & & & & & & & & & & & & & & & & & & & & & & & & & & & & & & & & & & & & & & & & &                                                                                                                                                                                                                                                                                                                                                                                                                                                                                                             X o o o X X X X X X X X X X X X X X X X X X X X X X X X X X X X X X X X X X X X X X X X X X X X X . . . . . . . . . . . . . . . . . . . . . . . . . . . . . . . . .                                                                                                       ",
"                                                                                                        = = = = - - & & & & - = = = & & & & = = & & & & & & & & & & & & & & & & & & & & & & & & & & & & & & & & & & & & & & & & & & & & & & & & & & & & & & & & & & & & &                                                                                                                                                                                                                                                                                                                                                                                                                                                                                                             X o X X X X X X X o o o o X X X X X X X X X X X X X X X X X X X X X X X X X X X X X X X X X X . . . . . . . . . . . . . . . . . . . . . . . . . . . . . . . . . .                                                                                                         ",
"                                                                                                          = = = - & & & & & = = = = & & & & = = & & & & & & & & & & & & & & & & & & & & & & & & & & & & & & & & & & & & & & & & & & & & & & & & & & & & & & & & & & & & &                                                                                                                                                                                                                                                                                                                                                                                                                                                                                                             X X X X X o X X X o o o X X X X X X X X X X X X X X X X X X X X X X X X X X X X X . . X X X . . . . . . . . . . . . . . . . . . . . . . . . . . . . . . . . . .                                                                                                           ",
"                                                                                                            = = & & & & & & & = = & & & & & & & & & & & & & & & & & & & & & & & & & & & & & & & & & & & & & & & & & & & & & & & & & & & & & & & & & & & & & & & & & & & &                                                                                                                                                                                                                                                                                                                                                                                                                                                                                                             X X X X X o o o o X X X X X X X X X X X X X X X X X X X X X X X X X X X X X X X X X X X X X . . . . . . . . . . . . . . . . . . . . . . . . . . . . . . . . .                                                                                                             ",
"                                                                                                              & & & & & & = & & = = & & & & & & & & & & & & & & & & & & & & & & & & & & & & & & & & & & & & & & & & & & & & & & & & & & & & & & & & & & & & & & & & & & &                                                                                                                                                                                                                                                                                                                                                                                                                                                                                                             X X X X X o o X o X X X X X X X X X X X X X X X X X X X X X X X X X X X X X X X X X X . . . . . . . . . . . . . . . . . . . . . . . . . . . . . . . . . . .                                                                                                               ",
"                                                                                                                - & & & & = & & & & & & & & & & & & & & & & & & & & & & & & & & & & & & & & & & & & & & & & & & & & & & & & & & & & & & & & & & & & & & & & & & & & & & &                                                                                                                                                                                                                                                                                                                                                                                                                                                                                                             X X X o o X X X X X X X X X X X X X X X X X X X X X X X X X X X X X X X X X X X X X X X . . . . . . . . . . . . . . . . . . . . . . . . . . . . . . . . .                                                                                                                 ",
"                                                                                                                  & & & & & & & & & & & & & & & & & & & & & & & & & & & & & & & & & & & & & & & & & & & & & & & & & & & & & & & & & & & & & & & & & & & & & & & & & & % &                                                                                                                                                                                                                                                                                                                                                                                                                                                                                                             X o o o o X X X X X X X X X X X X X X X X X X X X X X X X X X X X X X X X X X X X X X . . . . . . . . . . . . . . . . . . . . . . . . . . . . . . . . .                                                                                                                   ",
"                                                                                                                    & & & & = = & & & & & & & & & & & & & & & & & & & & & & & & & & & & & & & & & & & & & & & & & & & & & & & & & & & & & & & & & & & & & & & & & & % % &                                                                                                                                                                                                                                                                                                                                                                                                                                                                                                             X X X o o X X X X X X X X X X X X X X X X X X X X X X X X X X X X X X X X X X X X X . . . . . . . . . . . . . . . . . . . . . . . . . . . . . . . . .                                                                                                                     ",
"                                                                                                                      & & & & = = = & & & & & & & & & & & & & & & & & & & & & & & & & & & & & & & & & & & & & & & & & & & & & & & & & & & & & & & & & & & & & & & % % % &                                                                                                                                                                                                                                                                                                                                                                                                                                                                                                             X X X X X X X X X X X X X X X X X X X X X X X X X X X X X X X X X X X X X X X X X . . . . . . . . . . . . . . . . . . . . . . . . . . . . . . . . .                                                                                                                       ",
"                                                                                                                        = & & & = & & & & & & & & & & & & & & & & & & & & & & & & & & & & & & & & & & & & & & & & & & & & & & & & & & & & & & & & & & & & & & & % % % % &                                                                                                                                                                                                                                                                                                                                                                                                                                                                                                             X X X X o X X X X X X X X X X X X X X X X X X X X X X X X X X X X X X X X X X X . . . . . . . . . . . . . . . . . . . . . . . . . . . . . . . . .                                                                                                                         ",
"                                                                                                                          = & & & & & & & & & & & & & & & & & & & & & & & & & & & & & & & & & & & & & & & & & & & & & & & & & & & & & & & & & & & & & & & & & % % % % % &                                                                                                                                                                                                                                                                                                                                                                                                                                                                                                             X X X X X X X X X X X X X X X X X X X X X X X X X X X X X X X X X X X X X X X . . . . . . . . . . . . . . . . . . . . . . . . . . . . . . . . .                                                                                                                           ",
"                                                                                                                            = & & & & & & & & & & & & & & & & & & & & & & & & & & & & & & & & & & & & & & & & & & & & & & & & & & & & & & & & & & & & & & & & & % % & & &                                                                                                                                                                                                                                                                                                                                                                                                                                                                                                             X X X X X X X X X X X X X X X X X X X X X X X X X X X X X X X X X X X . . X . . . . . . . . . . . . . . . . . . . . . . . . . . . . . . . . .                                                                                                                             ",
"                                                                                                                              & & & & & & & & & & & & & & & & & & & & & & & & & & & & & & & & & & & & & & & & & & & & & & & & & & & & & & & & & & & & & & & & & % % % & &                                                                                                                                                                                                                                                                                                                                                                                                                                                                                                             X X X X X X X X X X X X X X X X X X X X X X X X X X X X X X X X X X X X X . . . . . . . . . . . . . . . . . . . . . . . . . . . . . . . . .                                                                                                                               ",
"                                                                                                                                & & & & & & & & & & & & & & & & & & & & & & & & & & & & & & & & & & & & & & & & & & & & & & & & & & & & & & & & & & & & & & & & % % & & &                                                                                                                                                                                                                                                                                                                                                                                                                                                                                                             X X X X X X X X X X X X X X X X X X X X X X X X X X X X X X X X X X X X . . . . . . . . . . . . . . . . . . . . . . . . . . . . . . . . .                                                                                                                                 ",
"                                                                                                                                  & & & & & & & & & & & & & & & & & & & & & & & & & & & & & & & & & & & & & & & & & & & & & & & & & & & & & & & & & & % % & & % % % & & &                                                                                                                                                                                                                                                                                                                                                                                                                                                                                                             X X X X X X X X X X X X X X X X X X X X X X X X X X X X X X X X X X X . . . . . . . . . . . . . . . . . . . . . . . . . . . . . . . . .                                                                                                                                   ",
"                                                                                                                                    & & & & & & & & & & & & & & & & & & & & & & & & & & & & & & & & & & & & & & & & & & & & & & & & & & & & & & & & % % % % % % % % & & &                                                                                                                                                                                                                                                                                                                                                                                                                                                                                                             X X X X X X X X X X X X X X X X X X X X X X X X X X X X X X X X X X . . . . . . . . . . . . . . . . . . . . . . . . . . . . . . . . .                                                                                                                                     ",
"                                                                                                                                      & & & & & & & & & & & & & & & & & & & & & & & & & & & & & & & & & & & & & & & & & & & & & & & & & & & & & & % % % % % % % % % & & &                                                                                                                                                                                                                                                                                                                                                                                                                                                                                                             X X X X X X X X X X X X X X X X X X X X X X X X X X X X X X X X X . . . . . . . . . . . . . . . . . . . . . . . . . . . . . . . . .                                                                                                                                       ",
"                                                                                                                                        & & & & & & & & & & & & & & & & & & & & & & & & & & & & & & & & & & & & & & & & & & & & & & & & & & & & % % % % % % & & & & & & &                                                                                                                                                                                                                                                                                                                                                                                                                                                                                                             X X X X X X X X X X X X X X X X X X X X X X X X X X X X X X X X . . . . . . . . . . . . . . . . . . . . . . . . . . . . . . . . .                                                                                                                                         ",
"                                                                                                                                          & & & & & & & & & & & & & & & & & & & & & & & & & & & & & & & & & & & & & & & & & & & & & & & & & & & % % % % % % & & & & & & &                                                                                                                                                                                                                                                                                                                                                                                                                                                                                                             X X X X X X X X X X X X X X X X X X X X X X X X X X X X X X X . . . . . . . . . . . . . . . . . . . . . . . . . . . . . . . . .                                                                                                                                           ",
"                                                                                                                                            & & & & & & & & & & & & & & & & & & & & & & & & & & & & & & & & & & & & & & & & & & & & & & & & % % % % % % % % & & & % & & %                                                                                                                                                                                                                                                                                                                                                                                                                                                                                                             X X X X X X X X X X X X X X X X X X X X X X X X X X X X X X . . . . . . . . . . . . . . . . . . . . . . . . . . . . . . . . .                                                                                                                                             ",
"                                                                                                                                              & & & & & & & & & & & & & & & & & & & & & & & & & & & & & & & & & & & & & & & & & & & & & & % % % & & % % % % & & % % % % %                                                                                                                                                                                                                                                                                                                                                                                                                                                                                                             X X X X X X X X X X X X X X X X X X X X X X X X X X X X X . . . . . . . . . . . . . . . . . . . . . . . . . . . . . . . . .                                                                                                                                               ",
"                                                                                                                                                & & & & & & & & & & & & & & & & & & & & & & & & & & & & & & & & & & & & & & & & & & & & % % % % & & & & % & & & % % % % %                                                                                                                                                                                                                                                                                                                                                                                                                                                                                                             X X X X X X X X X X X X X X X X X X X X X X X X X X X X . . . . . . . . . . . . . . . . . . . . . . . . . . . . . . . . .                                                                                                                                                 ",
"                                                                                                                                                  & & & & & & & & & & & & & & & & & & & & & & & & & & & & & & & & & & & & & & & & & & % % % % % & & & & % % & & % % % % %                                                                                                                                                                                                                                                                                                                                                                                                                                                                                                             X X X X X X X X X X X X X X X X X X X X X X X X X X X . . . . . . . . . . . . . . . . . . . . . . . . . . . . . . . . .                                                                                                                                                   ",
"                                                                                                                                                    & & & & & & & & & & & & & & & & & & & & & & & & & & & & & & & & & & & & & & & & % % & & & & % % % & & & & & % % % % %                                                                                                                                                                                                                                                                                                                                                                                                                                                                                                             X X X X X X X X X X X X X X X X X X X X X X X X X X . . . . . . . . . . . . . . . . . . . . . . . . . . . . . . . . .                                                                                                                                                     ",
"                                                                                                                                                      & & & & & & & & & & & & & & & & & & & & & & & & & & & & & & & & & & & & & & % % % & & & & % % & & & & & & % % % % %                                                                                                                                                                                                                                                                                                                                                                                                                                                                                                             X X X X X X X X X X X X X X X X X X X X X X X X X . . . . . . . . . . . . . . . . . . . . . . . . . . . . . . . . .                                                                                                                                                       ",
"                                                                                                                                                        & & & & & & & & & & & & & & & & & & & & & & & & & & & & & & & & & & & & & & % % % % & & % % % % & & % & % % % % %                                                                                                                                                                                                                                                                                                                                                                                                                                                                                                             X X X X X X X X X X X X X X X X X X X X X X . X . . . . . . . . . . . . . . . . . . . . . . . . . . . . . . . . .                                                                                                                                                         ",
"                                                                                                                                                          & & & & & & & & & & & & & & & & & & & & & & & & & & & & & & & & & & & & & % % % & & & % % % & & % % % % % % % %                                                                                                                                                                                                                                                                                                                                                                                                                                                                                                             X X X X X X X X X X X X X X X X X . . X X X . . . . . . . . . . . . . . . . . . . . . . . . . . . . . . . . . .                                                                                                                                                           ",
"                                                                                                                                                            & & & & & & & & & & & & & & & & & & & & & & & & & & & & & & & & % % & & % % % % & & & & & & % % % % % % % % %                                                                                                                                                                                                                                                                                                                                                                                                                                                                                                             X X X X X X X X X X X X X X X X X X X . . X . . . . . . . . . . . . . . . . . . . . . . . . . . . . . . . . .                                                                                                                                                             ",
"                                                                                                                                                              & & & & & & & & & & & & & & & & & & & & & & & & & & & & & & % % % & & % % % % & & & & % % % % % % % % % % %                                                                                                                                                                                                                                                                                                                                                                                                                                                                                                             X X X X X X X X X X X X X X X X X X X X X . . . . . . . . . . . . . . . . . . . . . . . . . . . . . . . . .                                                                                                                                                               ",
"                                                                                                                                                                & & & & & & & & & & & & & & & & & & & & & & & & & & & & % % % % & & & & % % % & % % % % % % & % % % % % %                                                                                                                                                                                                                                                                                                                                                                                                                                                                                                             X X X X X X X X X X X X X X X X X X X X . . . . . . . . . . . . . . . . . . . . . . . . . . . . . . . . .                                                                                                                                                                 ",
"                                                                                                                                                                  & & & & & & & & & & & & & & & & & & & & & & & & & & % % % % % & & & & % % & & % % % % % % % % % & % % %                                                                                                                                                                                                                                                                                                                                                                                                                                                                                                             X X X X X X X X X X X X X X X X X X X . . . . . . . . . . . . . . . . . . . . . . . . . . . . . . . . .                                                                                                                                                                   ",
"                                                                                                                                                                    & & & & & & & & & & & & & & & & & & & & & & & & % % & & & & % % % % & & & & % % % % % % % % % % % % %                                                                                                                                                                                                                                                                                                                                                                                                                                                                                                             X X X X X X X X X X X X X X X X X X . . . . . . . . . . . . . . . . . . . . . . . . . . . . . . . . .                                                                                                                                                                     ",
"                                                                                                                                                                      & & & & & & & & & & & & & & & & & & & & & & % % % & & & & % % % & & & & % % % % % % % % % % % & % %                                                                                                                                                                                                                                                                                                                                                                                                                                                                                                             X X X X X X X X X X X X X X X X X . . . . . . . . . . . . . . . . . . . . . . . . . . . . . . . . .                                                                                                                                                                       ",
"                                                                                                                                                                        & & & & & & & & & & & & & & & & & & & & & & % % % % & & % % & & & & % % % % % % % % % % % % % % %                                                                                                                                                                                                                                                                                                                                                                                                                                                                                                             X X X X X X X X X X X X X X X X . . . . . . . . . . . . . . . . . . . . . . . . . . . . . . . . .                                                                                                                                                                         ",
"                                                                                                                                                                          & & & & & & & & & & & & & & & & & & % & & % % % & & & % % % & & % % % % % % % % % % % % % % % %                                                                                                                                                                                                                                                                                                                                                                                                                                                                                                             X X X X X X X X X X X X X X X . . . . . . . . . . . . . . . . . . . . . . . . . . . . . . . . .                                                                                                                                                                           ",
"                                                                                                                                                                            & & & & & & & & & & & & & & & & % % & & % % % % & & & & & & % % % % % % % % % % % % % % % % %                                                                                                                                                                                                                                                                                                                                                                                                                                                                                                             X X X X X X X X X X X X X X . . . . . . . . . . . . . . . . . . . . . . . . . . . . . . . . .                                                                                                                                                                             ",
"                                                                                                                                                                              & & & & & & & & & & & & & & % % % & & % % % % & & & & & % % % % % % % % % % % % % % % % % %                                                                                                                                                                                                                                                                                                                                                                                                                                                                                                             X X X X X X X X X X X X X . . . . . . . . . . . . . . . . . . . . . . . . . . . . . . . . .                                                                                                                                                                               ",
"                                                                                                                                                                                & & & & & & & & & & & & % % & & & % % % & & & & & & % % % % % % % % % % % % % % % % % % %                                                                                                                                                                                                                                                                                                                                                                                                                                                                                                             X X X X X X X X X X X X . . . . . . . . . . . . . . . . . . . . . . . . . . . . . . . . .                                                                                                                                                                                 ",
"                                                                                                                                                                                  & & & & & & & & & & % % % & & & & % % & & & & & % % % % % % % % % % % % % % % % % % % %                                                                                                                                                                                                                                                                                                                                                                                                                                                                                                             X X X X X X X X X X X . . . . . . . . . . . . . . . . . . . . . . . . . . . . . . . . .                                                                                                                                                                                   ",
"                                                                                                                                                                                    & & & & & & & & % % & & & & & & & & & % % % % % % % % % % % & % % % % % % % % % % % %                                                                                                                                                                                                                                                                                                                                                                                                                                                                                                             X X X X X X X X X X . . . . . . . . . . . . . . . . . . . . . . . . . . . . . . . . .                                                                                                                                                                                     ",
"                                                                                                                                                                                      & & & & & & & & & & & & & & & & & & & & % % % % % % % % % % % % % % % % % % % % % %                                                                                                                                                                                                                                                                                                                                                                                                                                                                                                             X X X X X X X X X X X X X X X X . . . . . . . . . . . . . . . . . . . . . . . . . .                                                                                                                                                                                       ",
"                                                                                                                                                                                                                                                                                                                                                                                                                                                                                                                                                                                                                                                                                                                                                                                                                                                                                                                                                                                                                                                                ",
"                                                                                                                                                                                                                                                                                                                                                                                                                                                                                                                                                                                                                                                                                                                                                                                                                                                                                                                                                                                                                                                                ",
"                                                                                                                                                                                                                                                                                                                                                                                                                                                                                                                                                                                                                                                                                                                                                                                                                                                                                                                                                                                                                                                                ",
"                                                                                                                                                                                                                                                                                                                                                                                                                                                                                                                                                                                                                                                                                                                                                                                                                                                                                                                                                                                                                                                                ",
"                                                                                                                                                                                                                                                                                                                                                                                                                                                                                                                                                                                                                                                                                                                                                                                                                                                                                                                                                                                                                                                                ",
"                                                                                                                                                                                                                                                                                                                                                                                                                                                                                                                                                                                                                                                                                                                                                                                                                                                                                                                                                                                                                                                                ",
"                                                                                                                                                                                                                                                                                                                                                                                                                                                                                                                                                                                                                                                                                                                                                                                                                                                                                                                                                                                                                                                                ",
"                                                                                                                                                                                                                                                                                                                                                                                                                                                                                                                                                                                                                                                                                                                                                                                                                                                                                                                                                                                                                                                                ",
"                                                                                                                                                                                                                                                                                                                                                                                                                                                                                                                                                                                                                                                                                                                                                                                                                                                                                                                                                                                                                                                                ",
"                                                                                                                                                                                                                                                                                                                                                                                                                                                                                                                                                                                                                                                                                                                                                                                                                                                                                                                                                                                                                                                                ",
"                                                                                                                                                                                                                                                                                                                                                                                                                                                                                                                                                                                                                                                                                                                                                                                                                                                                                                                                                                                                                                                                ",
"                                                                                                                                                                                                                                                                                                                                                                                                                                                                                                                                                                                                                                                                                                                                                                                                                                                                                                                                                                                                                                                                ",
"                                                                                                                                                                                                                                                                                                                                                                                                                                                                                                                                                                                                                                                                                                                                                                                                                                                                                                                                                                                                                                                                ",
"                                                                                                                                                                                                                                                                                                                                                                                                                                                                                                                                                                                                                                                                                                                                                                                                                                                                                                                                                                                                                                                                ",
"                                                                                                                                                                                                                                                                                                                                                                                                                                                                                                                                                                                                                                                                                                                                                                                                                                                                                                                                                                                                                                                                ",
"                                                                                                                                                                                                                                                                                                                                                                                                                                                                                                                                                                                                                                                                                                                                                                                                                                                                                                                                                                                                                                                                ",
"                                                                                                                                                                                                                                                                                                                                                                                                                                                                                                                                                                                                                                                                                                                                                                                                                                                                                                                                                                                                                                                                ",
"                                                                                                                                                                                                                                                                                                                                                                                                                                                                                                                                                                                                                                                                                                                                                                                                                                                                                                                                                                                                                                                                "
};
